(.../romang/EAGLE/ulps/pcb-gcode.ulp)
(Copyright 2005 - 2012 by John Johnson)
(See readme.txt for licensing terms.)
(This file generated from the board:)
(.../HLS8012/hlw8012_test_board.brd)
(Current profile is .../EAGLE/ulps/profiles/generic.pp  )
(This file generated 03.10.19 07:32)
(Settings from pcb-machine.h)
(  Tool Size)
(0.1700 )
(Z Axis Settings)
(  High     Up        Down     Drill)
(12.7000 	2.5400 	-0.1000 	-2.0000 )
(spindle on time = 3.0000)
(milling depth = -2.0000)
(text depth = -0.1270)
(tool change at 12.7000 15.2400 25.4000 )
(feed rate xy = F200.00 )
(feed rate z  = F254.00 )
(Settings from pcb-defaults.h)
(isolate min = 0.0000)
(isolate max = 1.0000)
(isolate step = 0.2000)
(Generated top outlines, top drill, )
(Unit of measure: mm)
(Metric Mode)
G21
(Absolute Coordinates)
G90
G00 X0.0000 Y0.0000 
M03
G04 P3.000000
G00 Z2.5400 
G00 X38.0120 Y21.8391 
G01 Z-0.1000 F254.00 
G01 X38.0120 Y23.3729 F200.00 
G01 X37.9991 Y23.4041 
G01 X37.9751 Y23.4281 
G01 X37.9439 Y23.4410 
G01 X37.7684 Y23.4410 
G01 X37.7684 Y24.1340 
G01 X37.9439 Y24.1340 
G01 X37.9751 Y24.1469 
G01 X37.9991 Y24.1709 
G01 X38.0120 Y24.2021 
G01 X38.0120 Y25.8359 
G01 X37.9991 Y25.8671 
G01 X37.9751 Y25.8911 
G01 X37.9439 Y25.9040 
G01 X37.7684 Y25.9040 
G01 X37.7684 Y26.6740 
G01 X37.9439 Y26.6740 
G01 X37.9751 Y26.6869 
G01 X37.9991 Y26.7109 
G01 X38.0120 Y26.7421 
G01 X38.0120 Y28.3759 
G01 X37.9991 Y28.4071 
G01 X37.9751 Y28.4311 
G01 X37.9439 Y28.4440 
G01 X36.6101 Y28.4440 
G01 X36.5789 Y28.4311 
G01 X36.5549 Y28.4071 
G01 X36.5420 Y28.3759 
G01 X36.5420 Y26.7550 
G01 X36.0234 Y26.7550 
G01 X35.9372 Y26.7319 
G01 X35.8598 Y26.6873 
G01 X35.7967 Y26.6242 
G01 X33.8279 Y24.6553 
G01 X33.7647 Y24.5922 
G01 X33.7201 Y24.5148 
G01 X33.6970 Y24.4286 
G01 X33.6970 Y22.6864 
G01 X31.8426 Y20.8320 
G01 X30.8201 Y20.8320 
G01 X30.7889 Y20.8191 
G01 X30.7649 Y20.7951 
G01 X30.7520 Y20.7639 
G01 X30.7520 Y20.1301 
G01 X30.7649 Y20.0989 
G01 X30.7889 Y20.0749 
G01 X30.8201 Y20.0620 
G01 X33.0539 Y20.0620 
G01 X33.0851 Y20.0749 
G01 X33.1091 Y20.0989 
G01 X33.1220 Y20.1301 
G01 X33.1220 Y20.7639 
G01 X33.1091 Y20.7951 
G01 X33.0851 Y20.8191 
G01 X33.0539 Y20.8320 
G01 X32.8014 Y20.8320 
G01 X34.2442 Y22.2747 
G01 X34.3073 Y22.3378 
G01 X34.3519 Y22.4152 
G01 X34.3750 Y22.5014 
G01 X34.3750 Y24.2436 
G01 X36.2084 Y26.0770 
G01 X36.7856 Y26.0770 
G01 X36.7856 Y25.9040 
G01 X36.6101 Y25.9040 
G01 X36.5789 Y25.8911 
G01 X36.5549 Y25.8671 
G01 X36.5420 Y25.8359 
G01 X36.5420 Y24.2021 
G01 X36.5549 Y24.1709 
G01 X36.5789 Y24.1469 
G01 X36.6101 Y24.1340 
G01 X36.7856 Y24.1340 
G01 X36.7856 Y23.4410 
G01 X36.6101 Y23.4410 
G01 X36.5789 Y23.4281 
G01 X36.5549 Y23.4041 
G01 X36.5420 Y23.3729 
G01 X36.5420 Y21.8391 
G01 X36.5549 Y21.8079 
G01 X36.5789 Y21.7839 
G01 X36.6101 Y21.7710 
G01 X37.9439 Y21.7710 
G01 X37.9751 Y21.7839 
G01 X37.9991 Y21.8079 
G01 X38.0120 Y21.8391 
G00 Z2.5400 
G00 X24.1272 Y26.9074 
G01 Z-0.1000 F254.00 
G01 X22.6596 Y26.9074 F200.00 
G01 X22.5156 Y26.8788 
G01 X22.3799 Y26.8226 
G01 X22.2578 Y26.7410 
G01 X22.1540 Y26.6372 
G01 X22.0724 Y26.5151 
G01 X22.0666 Y26.5010 
G01 X21.5454 Y26.5010 
G01 X21.4592 Y26.4779 
G01 X21.3818 Y26.4333 
G01 X21.3187 Y26.3702 
G01 X20.5567 Y25.6082 
G01 X20.5121 Y25.5308 
G01 X20.4890 Y25.4446 
G01 X20.4890 Y20.9104 
G01 X20.5121 Y20.8241 
G01 X20.5567 Y20.7468 
G01 X20.6198 Y20.6837 
G01 X20.7280 Y20.5756 
G01 X20.7280 Y19.6531 
G01 X20.7409 Y19.6219 
G01 X20.7649 Y19.5979 
G01 X20.7961 Y19.5850 
G01 X22.1299 Y19.5850 
G01 X22.1611 Y19.5979 
G01 X22.1851 Y19.6219 
G01 X22.1980 Y19.6531 
G01 X22.1980 Y20.9869 
G01 X22.1851 Y21.0181 
G01 X22.1611 Y21.0421 
G01 X22.1299 Y21.0550 
G01 X21.2074 Y21.0550 
G01 X21.1670 Y21.0954 
G01 X21.1670 Y25.2596 
G01 X21.7304 Y25.8230 
G01 X22.0666 Y25.8230 
G01 X22.0724 Y25.8089 
G01 X22.1540 Y25.6868 
G01 X22.2578 Y25.5830 
G01 X22.3799 Y25.5014 
G01 X22.5156 Y25.4452 
G01 X22.6596 Y25.4166 
G01 X24.1272 Y25.4166 
G01 X24.2712 Y25.4452 
G01 X24.4069 Y25.5014 
G01 X24.5290 Y25.5830 
G01 X24.6328 Y25.6868 
G01 X24.7144 Y25.8089 
G01 X24.7706 Y25.9446 
G01 X24.7992 Y26.0886 
G01 X24.7992 Y26.2354 
G01 X24.7706 Y26.3794 
G01 X24.7144 Y26.5151 
G01 X24.6328 Y26.6372 
G01 X24.5290 Y26.7410 
G01 X24.4069 Y26.8226 
G01 X24.2712 Y26.8788 
G01 X24.1272 Y26.9074 
G00 Z2.5400 
G00 X24.1272 Y24.3674 
G01 Z-0.1000 F254.00 
G01 X22.6596 Y24.3674 F200.00 
G01 X22.5156 Y24.3388 
G01 X22.3799 Y24.2826 
G01 X22.2578 Y24.2010 
G01 X22.1540 Y24.0972 
G01 X22.0724 Y23.9751 
G01 X22.0162 Y23.8394 
G01 X21.9876 Y23.6954 
G01 X21.9876 Y23.5486 
G01 X22.0162 Y23.4046 
G01 X22.0724 Y23.2689 
G01 X22.1540 Y23.1468 
G01 X22.2578 Y23.0430 
G01 X22.3799 Y22.9614 
G01 X22.5156 Y22.9052 
G01 X22.6596 Y22.8766 
G01 X24.1272 Y22.8766 
G01 X24.2712 Y22.9052 
G01 X24.4069 Y22.9614 
G01 X24.5290 Y23.0430 
G01 X24.6166 Y23.1306 
G01 X26.8900 Y23.1306 
G01 X26.8900 Y22.8051 
G01 X26.9029 Y22.7738 
G01 X26.9269 Y22.7499 
G01 X26.9581 Y22.7370 
G01 X28.2919 Y22.7370 
G01 X28.3231 Y22.7499 
G01 X28.3471 Y22.7738 
G01 X28.3600 Y22.8051 
G01 X28.3600 Y24.4389 
G01 X28.3471 Y24.4701 
G01 X28.3231 Y24.4941 
G01 X28.2919 Y24.5070 
G01 X26.9581 Y24.5070 
G01 X26.9269 Y24.4941 
G01 X26.9029 Y24.4701 
G01 X26.8900 Y24.4389 
G01 X26.8900 Y24.1134 
G01 X24.6166 Y24.1134 
G01 X24.5290 Y24.2010 
G01 X24.4069 Y24.2826 
G01 X24.2712 Y24.3388 
G01 X24.1272 Y24.3674 
G00 Z2.5400 
G00 X12.7880 Y19.8669 
G01 Z-0.1000 F254.00 
G01 X12.7880 Y18.2331 F200.00 
G01 X12.8009 Y18.2019 
G01 X12.8249 Y18.1779 
G01 X12.8561 Y18.1650 
G01 X13.9286 Y18.1650 
G01 X14.5842 Y17.5094 
G01 X13.8458 Y17.5094 
G01 X13.7018 Y17.4808 
G01 X13.5661 Y17.4246 
G01 X13.4440 Y17.3430 
G01 X13.3402 Y17.2392 
G01 X13.2586 Y17.1171 
G01 X13.2024 Y16.9814 
G01 X13.1738 Y16.8374 
G01 X13.1738 Y16.6906 
G01 X13.2024 Y16.5466 
G01 X13.2586 Y16.4109 
G01 X13.3402 Y16.2888 
G01 X13.4440 Y16.1850 
G01 X13.5661 Y16.1034 
G01 X13.7018 Y16.0472 
G01 X13.8458 Y16.0186 
G01 X15.3134 Y16.0186 
G01 X15.4574 Y16.0472 
G01 X15.5931 Y16.1034 
G01 X15.7152 Y16.1850 
G01 X15.8190 Y16.2888 
G01 X15.9006 Y16.4109 
G01 X15.9568 Y16.5466 
G01 X15.9854 Y16.6906 
G01 X15.9854 Y16.8374 
G01 X15.9568 Y16.9814 
G01 X15.9006 Y17.1171 
G01 X15.8190 Y17.2392 
G01 X15.7152 Y17.3430 
G01 X15.5931 Y17.4246 
G01 X15.5631 Y17.4370 
G01 X15.5559 Y17.4638 
G01 X15.5113 Y17.5412 
G01 X15.4482 Y17.6043 
G01 X14.2580 Y18.7944 
G01 X14.2580 Y19.8669 
G01 X14.2451 Y19.8981 
G01 X14.2211 Y19.9221 
G01 X14.1899 Y19.9350 
G01 X12.8561 Y19.9350 
G01 X12.8249 Y19.9221 
G01 X12.8009 Y19.8981 
G01 X12.7880 Y19.8669 
G00 Z2.5400 
G00 X10.8880 Y19.8669 
G01 Z-0.1000 F254.00 
G01 X10.8880 Y18.7944 F200.00 
G01 X10.8476 Y18.7540 
G01 X9.7934 Y18.7540 
G01 X9.7676 Y18.8162 
G01 X9.6749 Y18.9549 
G01 X9.5569 Y19.0729 
G01 X9.4182 Y19.1656 
G01 X9.2641 Y19.2294 
G01 X9.1004 Y19.2620 
G01 X7.4096 Y19.2620 
G01 X7.2459 Y19.2294 
G01 X7.0918 Y19.1656 
G01 X6.9531 Y19.0729 
G01 X6.8351 Y18.9549 
G01 X6.7424 Y18.8162 
G01 X6.6786 Y18.6621 
G01 X6.6460 Y18.4984 
G01 X6.6460 Y18.3316 
G01 X6.6786 Y18.1679 
G01 X6.7424 Y18.0138 
G01 X6.8351 Y17.8751 
G01 X6.9531 Y17.7571 
G01 X7.0918 Y17.6644 
G01 X7.2459 Y17.6006 
G01 X7.4096 Y17.5680 
G01 X9.1004 Y17.5680 
G01 X9.2641 Y17.6006 
G01 X9.4182 Y17.6644 
G01 X9.5569 Y17.7571 
G01 X9.6749 Y17.8751 
G01 X9.7676 Y18.0138 
G01 X9.7934 Y18.0760 
G01 X11.0326 Y18.0760 
G01 X11.1188 Y18.0991 
G01 X11.1962 Y18.1437 
G01 X11.2174 Y18.1650 
G01 X12.2899 Y18.1650 
G01 X12.3211 Y18.1779 
G01 X12.3451 Y18.2019 
G01 X12.3580 Y18.2331 
G01 X12.3580 Y19.8669 
G01 X12.3451 Y19.8981 
G01 X12.3211 Y19.9221 
G01 X12.2899 Y19.9350 
G01 X10.9561 Y19.9350 
G01 X10.9249 Y19.9221 
G01 X10.9009 Y19.8981 
G01 X10.8880 Y19.8669 
G00 Z2.5400 
G00 X47.0830 Y28.3759 
G01 Z-0.1000 F254.00 
G01 X47.0830 Y28.0504 F200.00 
G01 X45.6270 Y28.0504 
G01 X45.6270 Y28.3759 
G01 X45.6141 Y28.4071 
G01 X45.5901 Y28.4311 
G01 X45.5589 Y28.4440 
G01 X44.2251 Y28.4440 
G01 X44.1939 Y28.4311 
G01 X44.1699 Y28.4071 
G01 X44.1570 Y28.3759 
G01 X44.1570 Y26.7421 
G01 X44.1699 Y26.7109 
G01 X44.1939 Y26.6869 
G01 X44.2251 Y26.6740 
G01 X45.5589 Y26.6740 
G01 X45.5901 Y26.6869 
G01 X45.6141 Y26.7109 
G01 X45.6270 Y26.7421 
G01 X45.6270 Y27.0676 
G01 X47.0830 Y27.0676 
G01 X47.0830 Y26.7421 
G01 X47.0959 Y26.7109 
G01 X47.1198 Y26.6869 
G01 X47.1511 Y26.6740 
G01 X48.4849 Y26.6740 
G01 X48.5161 Y26.6869 
G01 X48.5401 Y26.7109 
G01 X48.5530 Y26.7421 
G01 X48.5530 Y28.3759 
G01 X48.5401 Y28.4071 
G01 X48.5161 Y28.4311 
G01 X48.4849 Y28.4440 
G01 X47.1511 Y28.4440 
G01 X47.1198 Y28.4311 
G01 X47.0959 Y28.4071 
G01 X47.0830 Y28.3759 
G00 Z2.5400 
G00 X53.9360 Y28.2489 
G01 Z-0.1000 F254.00 
G01 X53.9360 Y26.6151 F200.00 
G01 X53.9489 Y26.5839 
G01 X53.9729 Y26.5599 
G01 X54.0041 Y26.5470 
G01 X55.3379 Y26.5470 
G01 X55.3691 Y26.5599 
G01 X55.3931 Y26.5839 
G01 X55.4060 Y26.6151 
G01 X55.4060 Y26.9406 
G01 X56.7350 Y26.9406 
G01 X56.7350 Y26.6151 
G01 X56.7479 Y26.5839 
G01 X56.7719 Y26.5599 
G01 X56.8031 Y26.5470 
G01 X58.1369 Y26.5470 
G01 X58.1681 Y26.5599 
G01 X58.1921 Y26.5839 
G01 X58.2050 Y26.6151 
G01 X58.2050 Y28.2489 
G01 X58.1921 Y28.2801 
G01 X58.1681 Y28.3041 
G01 X58.1369 Y28.3170 
G01 X56.8031 Y28.3170 
G01 X56.7719 Y28.3041 
G01 X56.7479 Y28.2801 
G01 X56.7350 Y28.2489 
G01 X56.7350 Y27.9234 
G01 X55.4060 Y27.9234 
G01 X55.4060 Y28.2489 
G01 X55.3931 Y28.2801 
G01 X55.3691 Y28.3041 
G01 X55.3379 Y28.3170 
G01 X54.0041 Y28.3170 
G01 X53.9729 Y28.3041 
G01 X53.9489 Y28.2801 
G01 X53.9360 Y28.2489 
G00 Z2.5400 
G00 X52.0360 Y28.2489 
G01 Z-0.1000 F254.00 
G01 X52.0360 Y28.0504 F200.00 
G01 X50.4530 Y28.0504 
G01 X50.4530 Y28.3759 
G01 X50.4401 Y28.4071 
G01 X50.4161 Y28.4311 
G01 X50.3849 Y28.4440 
G01 X49.0511 Y28.4440 
G01 X49.0199 Y28.4311 
G01 X48.9959 Y28.4071 
G01 X48.9830 Y28.3759 
G01 X48.9830 Y26.7421 
G01 X48.9959 Y26.7109 
G01 X49.0199 Y26.6869 
G01 X49.0511 Y26.6740 
G01 X50.3849 Y26.6740 
G01 X50.4161 Y26.6869 
G01 X50.4401 Y26.7109 
G01 X50.4530 Y26.7421 
G01 X50.4530 Y27.0676 
G01 X52.0360 Y27.0676 
G01 X52.0360 Y26.6151 
G01 X52.0489 Y26.5839 
G01 X52.0729 Y26.5599 
G01 X52.1041 Y26.5470 
G01 X53.4379 Y26.5470 
G01 X53.4691 Y26.5599 
G01 X53.4931 Y26.5839 
G01 X53.5060 Y26.6151 
G01 X53.5060 Y28.2489 
G01 X53.4931 Y28.2801 
G01 X53.4691 Y28.3041 
G01 X53.4379 Y28.3170 
G01 X52.1041 Y28.3170 
G01 X52.0729 Y28.3041 
G01 X52.0489 Y28.2801 
G01 X52.0360 Y28.2489 
G00 Z2.5400 
G00 X10.7401 Y22.0640 
G01 Z-0.1000 F254.00 
G01 X11.8126 Y22.0640 F200.00 
G01 X12.6217 Y21.2548 
G01 X12.6848 Y21.1917 
G01 X12.7622 Y21.1471 
G01 X12.8484 Y21.1240 
G01 X15.3536 Y21.1240 
G01 X16.6790 Y19.7986 
G01 X16.6790 Y15.7614 
G01 X15.7179 Y14.8003 
G01 X15.7152 Y14.8030 
G01 X15.5931 Y14.8846 
G01 X15.4574 Y14.9408 
G01 X15.3134 Y14.9694 
G01 X13.8458 Y14.9694 
G01 X13.7018 Y14.9408 
G01 X13.5661 Y14.8846 
G01 X13.4440 Y14.8030 
G01 X13.3402 Y14.6992 
G01 X13.2586 Y14.5771 
G01 X13.2528 Y14.5630 
G01 X10.0464 Y14.5630 
G01 X9.4583 Y15.1512 
G01 X9.5569 Y15.2171 
G01 X9.6749 Y15.3351 
G01 X9.7676 Y15.4738 
G01 X9.8314 Y15.6279 
G01 X9.8640 Y15.7916 
G01 X9.8640 Y15.9584 
G01 X9.8314 Y16.1221 
G01 X9.7676 Y16.2762 
G01 X9.6749 Y16.4149 
G01 X9.5569 Y16.5329 
G01 X9.4182 Y16.6256 
G01 X9.2641 Y16.6894 
G01 X9.1004 Y16.7220 
G01 X7.4096 Y16.7220 
G01 X7.2459 Y16.6894 
G01 X7.0918 Y16.6256 
G01 X6.9531 Y16.5329 
G01 X6.8351 Y16.4149 
G01 X6.7424 Y16.2762 
G01 X6.6786 Y16.1221 
G01 X6.6460 Y15.9584 
G01 X6.6460 Y15.7916 
G01 X6.6786 Y15.6279 
G01 X6.7424 Y15.4738 
G01 X6.8351 Y15.3351 
G01 X6.9531 Y15.2171 
G01 X7.0918 Y15.1244 
G01 X7.2459 Y15.0606 
G01 X7.4096 Y15.0280 
G01 X8.6226 Y15.0280 
G01 X9.6978 Y13.9527 
G01 X9.7752 Y13.9081 
G01 X9.8614 Y13.8850 
G01 X13.2528 Y13.8850 
G01 X13.2586 Y13.8709 
G01 X13.3402 Y13.7488 
G01 X13.4440 Y13.6450 
G01 X13.5661 Y13.5634 
G01 X13.7018 Y13.5072 
G01 X13.8458 Y13.4786 
G01 X15.3134 Y13.4786 
G01 X15.4574 Y13.5072 
G01 X15.5931 Y13.5634 
G01 X15.7152 Y13.6450 
G01 X15.8190 Y13.7488 
G01 X15.9006 Y13.8709 
G01 X15.9568 Y14.0066 
G01 X15.9751 Y14.0987 
G01 X17.2893 Y15.4128 
G01 X17.3339 Y15.4901 
G01 X17.3570 Y15.5764 
G01 X17.3570 Y19.9836 
G01 X17.3339 Y20.0698 
G01 X17.2893 Y20.1471 
G01 X17.2262 Y20.2103 
G01 X15.7022 Y21.7343 
G01 X15.6248 Y21.7789 
G01 X15.5386 Y21.8020 
G01 X13.0334 Y21.8020 
G01 X12.4420 Y22.3934 
G01 X12.4420 Y23.4659 
G01 X12.4291 Y23.4971 
G01 X12.4051 Y23.5211 
G01 X12.3739 Y23.5340 
G01 X10.7401 Y23.5340 
G01 X10.7088 Y23.5211 
G01 X10.6849 Y23.4971 
G01 X10.6720 Y23.4659 
G01 X10.6720 Y22.1321 
G01 X10.6849 Y22.1009 
G01 X10.7088 Y22.0769 
G01 X10.7401 Y22.0640 
G00 Z2.5400 
G00 X38.4420 Y10.7229 
G01 Z-0.1000 F254.00 
G01 X38.4420 Y9.0891 F200.00 
G01 X38.4549 Y9.0579 
G01 X38.4789 Y9.0339 
G01 X38.5101 Y9.0210 
G01 X39.8439 Y9.0210 
G01 X39.8751 Y9.0339 
G01 X39.8991 Y9.0579 
G01 X39.9120 Y9.0891 
G01 X39.9120 Y9.4146 
G01 X42.1390 Y9.4146 
G01 X42.1390 Y7.3383 
G01 X42.1519 Y7.3071 
G01 X42.1759 Y7.2831 
G01 X42.2071 Y7.2702 
G01 X46.3175 Y7.2702 
G01 X47.4306 Y6.1570 
G01 X47.6325 Y6.0104 
G01 X47.8548 Y5.8971 
G01 X48.0920 Y5.8200 
G01 X48.3385 Y5.7810 
G01 X58.1637 Y5.7810 
G01 X58.4102 Y5.8200 
G01 X58.6474 Y5.8971 
G01 X58.8697 Y6.0104 
G01 X59.0716 Y6.1570 
G01 X59.2220 Y6.3075 
G01 X59.2815 Y6.3169 
G01 X59.4425 Y6.3692 
G01 X59.5933 Y6.4461 
G01 X59.7303 Y6.5456 
G01 X59.8500 Y6.6653 
G01 X59.9495 Y6.8023 
G01 X60.0264 Y6.9531 
G01 X60.0787 Y7.1141 
G01 X60.1052 Y7.2813 
G01 X60.1052 Y7.4507 
G01 X60.0787 Y7.6179 
G01 X60.0264 Y7.7789 
G01 X59.9495 Y7.9297 
G01 X59.8500 Y8.0667 
G01 X59.7303 Y8.1864 
G01 X59.5933 Y8.2859 
G01 X59.4425 Y8.3628 
G01 X59.2815 Y8.4151 
G01 X59.2220 Y8.4245 
G01 X59.0716 Y8.5750 
G01 X58.8697 Y8.7216 
G01 X58.6474 Y8.8349 
G01 X58.4102 Y8.9120 
G01 X58.1637 Y8.9510 
G01 X49.8090 Y8.9510 
G01 X49.8090 Y12.3721 
G01 X49.7961 Y12.4033 
G01 X49.7721 Y12.4273 
G01 X49.7409 Y12.4402 
G01 X42.2071 Y12.4402 
G01 X42.1759 Y12.4273 
G01 X42.1519 Y12.4033 
G01 X42.1390 Y12.3721 
G01 X42.1390 Y10.3974 
G01 X39.9120 Y10.3974 
G01 X39.9120 Y10.7229 
G01 X39.8991 Y10.7541 
G01 X39.8751 Y10.7781 
G01 X39.8439 Y10.7910 
G01 X38.5101 Y10.7910 
G01 X38.4789 Y10.7781 
G01 X38.4549 Y10.7541 
G01 X38.4420 Y10.7229 
G00 Z2.5400 
G00 X34.5989 Y11.4640 
G01 Z-0.1000 F254.00 
G01 X33.5647 Y11.4640 F200.00 
G01 X33.2320 Y11.5944 
G01 X33.2320 Y12.9960 
G01 X33.7989 Y12.9960 
G01 X33.8301 Y13.0089 
G01 X33.8541 Y13.0328 
G01 X33.8670 Y13.0641 
G01 X33.8670 Y14.8759 
G01 X33.8541 Y14.9071 
G01 X33.8301 Y14.9311 
G01 X33.7989 Y14.9440 
G01 X31.9871 Y14.9440 
G01 X31.9559 Y14.9311 
G01 X31.9319 Y14.9071 
G01 X31.9190 Y14.8759 
G01 X31.9190 Y13.0641 
G01 X31.9319 Y13.0328 
G01 X31.9559 Y13.0089 
G01 X31.9871 Y12.9960 
G01 X32.5540 Y12.9960 
G01 X32.5540 Y11.3821 
G01 X32.5511 Y11.3565 
G01 X32.5540 Y11.3376 
G01 X32.5540 Y11.3185 
G01 X32.5606 Y11.2937 
G01 X32.5645 Y11.2683 
G01 X32.5722 Y11.2507 
G01 X32.5771 Y11.2323 
G01 X32.5899 Y11.2100 
G01 X32.6002 Y11.1865 
G01 X32.6122 Y11.1715 
G01 X32.6217 Y11.1550 
G01 X32.6399 Y11.1368 
G01 X32.6559 Y11.1167 
G01 X32.6713 Y11.1054 
G01 X32.6848 Y11.0918 
G01 X32.7071 Y11.0790 
G01 X32.7278 Y11.0638 
G01 X32.7456 Y11.0568 
G01 X32.7621 Y11.0472 
G01 X32.7869 Y11.0406 
G01 X32.8970 Y10.9974 
G01 X32.8970 Y10.0621 
G01 X32.9099 Y10.0309 
G01 X32.9338 Y10.0069 
G01 X32.9651 Y9.9940 
G01 X34.5989 Y9.9940 
G01 X34.6301 Y10.0069 
G01 X34.6541 Y10.0309 
G01 X34.6670 Y10.0621 
G01 X34.6670 Y11.3959 
G01 X34.6541 Y11.4271 
G01 X34.6301 Y11.4511 
G01 X34.5989 Y11.4640 
G00 Z2.5400 
G00 X42.2570 Y28.3759 
G01 Z-0.1000 F254.00 
G01 X42.2570 Y28.0504 F200.00 
G01 X39.9120 Y28.0504 
G01 X39.9120 Y28.3759 
G01 X39.8991 Y28.4071 
G01 X39.8751 Y28.4311 
G01 X39.8439 Y28.4440 
G01 X38.5101 Y28.4440 
G01 X38.4789 Y28.4311 
G01 X38.4549 Y28.4071 
G01 X38.4420 Y28.3759 
G01 X38.4420 Y26.7421 
G01 X38.4549 Y26.7109 
G01 X38.4789 Y26.6869 
G01 X38.5101 Y26.6740 
G01 X39.8439 Y26.6740 
G01 X39.8751 Y26.6869 
G01 X39.8991 Y26.7109 
G01 X39.9120 Y26.7421 
G01 X39.9120 Y27.0676 
G01 X42.2570 Y27.0676 
G01 X42.2570 Y26.7421 
G01 X42.2699 Y26.7109 
G01 X42.2938 Y26.6869 
G01 X42.3251 Y26.6740 
G01 X43.6589 Y26.6740 
G01 X43.6901 Y26.6869 
G01 X43.7141 Y26.7109 
G01 X43.7270 Y26.7421 
G01 X43.7270 Y28.3759 
G01 X43.7141 Y28.4071 
G01 X43.6901 Y28.4311 
G01 X43.6589 Y28.4440 
G01 X42.3251 Y28.4440 
G01 X42.2938 Y28.4311 
G01 X42.2699 Y28.4071 
G01 X42.2570 Y28.3759 
G00 Z2.5400 
G00 X7.4096 Y20.1080 
G01 Z-0.1000 F254.00 
G01 X9.1004 Y20.1080 F200.00 
G01 X9.2641 Y20.1406 
G01 X9.4182 Y20.2044 
G01 X9.5569 Y20.2971 
G01 X9.6749 Y20.4151 
G01 X9.7676 Y20.5538 
G01 X9.8314 Y20.7079 
G01 X9.8640 Y20.8716 
G01 X9.8640 Y21.0384 
G01 X9.8314 Y21.2021 
G01 X9.7676 Y21.3562 
G01 X9.6749 Y21.4949 
G01 X9.5569 Y21.6129 
G01 X9.4182 Y21.7056 
G01 X9.2641 Y21.7694 
G01 X9.1004 Y21.8020 
G01 X7.4096 Y21.8020 
G01 X7.2459 Y21.7694 
G01 X7.0918 Y21.7056 
G01 X6.9531 Y21.6129 
G01 X6.8351 Y21.4949 
G01 X6.7424 Y21.3562 
G01 X6.6786 Y21.2021 
G01 X6.6460 Y21.0384 
G01 X6.6460 Y20.8716 
G01 X6.6786 Y20.7079 
G01 X6.7424 Y20.5538 
G01 X6.8351 Y20.4151 
G01 X6.9531 Y20.2971 
G01 X7.0918 Y20.2044 
G01 X7.2459 Y20.1406 
G01 X7.4096 Y20.1080 
G00 Z2.5400 
G00 X7.4096 Y22.6480 
G01 Z-0.1000 F254.00 
G01 X9.1004 Y22.6480 F200.00 
G01 X9.2641 Y22.6806 
G01 X9.4182 Y22.7444 
G01 X9.5569 Y22.8371 
G01 X9.6749 Y22.9551 
G01 X9.7676 Y23.0938 
G01 X9.8314 Y23.2479 
G01 X9.8640 Y23.4116 
G01 X9.8640 Y23.5784 
G01 X9.8314 Y23.7421 
G01 X9.7685 Y23.8941 
G01 X10.1074 Y24.2330 
G01 X10.6720 Y24.2330 
G01 X10.6720 Y24.0321 
G01 X10.6849 Y24.0008 
G01 X10.7088 Y23.9769 
G01 X10.7401 Y23.9640 
G01 X12.3739 Y23.9640 
G01 X12.4051 Y23.9769 
G01 X12.4291 Y24.0008 
G01 X12.4420 Y24.0321 
G01 X12.4420 Y25.1046 
G01 X13.1375 Y25.8001 
G01 X13.2132 Y25.6868 
G01 X13.3170 Y25.5830 
G01 X13.4391 Y25.5014 
G01 X13.5748 Y25.4452 
G01 X13.7188 Y25.4166 
G01 X15.1864 Y25.4166 
G01 X15.3304 Y25.4452 
G01 X15.4661 Y25.5014 
G01 X15.5882 Y25.5830 
G01 X15.6920 Y25.6868 
G01 X15.7736 Y25.8089 
G01 X15.8298 Y25.9446 
G01 X15.8584 Y26.0886 
G01 X15.8584 Y26.2354 
G01 X15.8298 Y26.3794 
G01 X15.7736 Y26.5151 
G01 X15.6920 Y26.6372 
G01 X15.5882 Y26.7410 
G01 X15.4661 Y26.8226 
G01 X15.3304 Y26.8788 
G01 X15.1864 Y26.9074 
G01 X13.7188 Y26.9074 
G01 X13.5748 Y26.8788 
G01 X13.4391 Y26.8226 
G01 X13.3170 Y26.7410 
G01 X13.2132 Y26.6372 
G01 X13.1316 Y26.5151 
G01 X13.1258 Y26.5010 
G01 X12.9754 Y26.5010 
G01 X12.8892 Y26.4779 
G01 X12.8118 Y26.4333 
G01 X11.8126 Y25.4340 
G01 X10.7401 Y25.4340 
G01 X10.7088 Y25.4211 
G01 X10.6849 Y25.3971 
G01 X10.6720 Y25.3659 
G01 X10.6720 Y24.9110 
G01 X9.9224 Y24.9110 
G01 X9.8361 Y24.8879 
G01 X9.7588 Y24.8433 
G01 X9.2315 Y24.3159 
G01 X9.1004 Y24.3420 
G01 X7.4096 Y24.3420 
G01 X7.2459 Y24.3094 
G01 X7.0918 Y24.2456 
G01 X6.9531 Y24.1529 
G01 X6.8351 Y24.0349 
G01 X6.7424 Y23.8962 
G01 X6.6786 Y23.7421 
G01 X6.6460 Y23.5784 
G01 X6.6460 Y23.4116 
G01 X6.6786 Y23.2479 
G01 X6.7424 Y23.0938 
G01 X6.8351 Y22.9551 
G01 X6.9531 Y22.8371 
G01 X7.0918 Y22.7444 
G01 X7.2459 Y22.6806 
G01 X7.4096 Y22.6480 
G00 Z2.5400 
G00 X7.4096 Y25.1880 
G01 Z-0.1000 F254.00 
G01 X9.1004 Y25.1880 F200.00 
G01 X9.2641 Y25.2206 
G01 X9.4182 Y25.2844 
G01 X9.5569 Y25.3771 
G01 X9.6749 Y25.4951 
G01 X9.7676 Y25.6338 
G01 X9.8314 Y25.7879 
G01 X9.8640 Y25.9516 
G01 X9.8640 Y26.1184 
G01 X9.8314 Y26.2821 
G01 X9.7676 Y26.4362 
G01 X9.6749 Y26.5749 
G01 X9.5569 Y26.6929 
G01 X9.4583 Y26.7588 
G01 X10.1734 Y27.4740 
G01 X16.2426 Y27.4740 
G01 X16.8060 Y26.9106 
G01 X16.8060 Y25.4134 
G01 X15.5909 Y24.1983 
G01 X15.5882 Y24.2010 
G01 X15.4661 Y24.2826 
G01 X15.3304 Y24.3388 
G01 X15.1864 Y24.3674 
G01 X13.7188 Y24.3674 
G01 X13.5748 Y24.3388 
G01 X13.4391 Y24.2826 
G01 X13.3170 Y24.2010 
G01 X13.2132 Y24.0972 
G01 X13.1316 Y23.9751 
G01 X13.0754 Y23.8394 
G01 X13.0468 Y23.6954 
G01 X13.0468 Y23.5486 
G01 X13.0754 Y23.4046 
G01 X13.1316 Y23.2689 
G01 X13.2132 Y23.1468 
G01 X13.3170 Y23.0430 
G01 X13.4391 Y22.9614 
G01 X13.5748 Y22.9052 
G01 X13.7188 Y22.8766 
G01 X15.1864 Y22.8766 
G01 X15.3304 Y22.9052 
G01 X15.4661 Y22.9614 
G01 X15.5882 Y23.0430 
G01 X15.6920 Y23.1468 
G01 X15.7736 Y23.2689 
G01 X15.8298 Y23.4046 
G01 X15.8481 Y23.4967 
G01 X17.3531 Y25.0017 
G01 X17.4163 Y25.0648 
G01 X17.4609 Y25.1422 
G01 X17.4840 Y25.2284 
G01 X17.4840 Y27.0956 
G01 X17.4609 Y27.1818 
G01 X17.4163 Y27.2592 
G01 X16.5912 Y28.0843 
G01 X16.5138 Y28.1289 
G01 X16.4276 Y28.1520 
G01 X9.9884 Y28.1520 
G01 X9.9022 Y28.1289 
G01 X9.8248 Y28.0843 
G01 X8.6226 Y26.8820 
G01 X7.4096 Y26.8820 
G01 X7.2459 Y26.8494 
G01 X7.0918 Y26.7856 
G01 X6.9531 Y26.6929 
G01 X6.8351 Y26.5749 
G01 X6.7424 Y26.4362 
G01 X6.6786 Y26.2821 
G01 X6.6460 Y26.1184 
G01 X6.6460 Y25.9516 
G01 X6.6786 Y25.7879 
G01 X6.7424 Y25.6338 
G01 X6.8351 Y25.4951 
G01 X6.9531 Y25.3771 
G01 X7.0918 Y25.2844 
G01 X7.2459 Y25.2206 
G01 X7.4096 Y25.1880 
G00 Z2.5400 
G00 X9.2274 Y12.2770 
G01 Z-0.1000 F254.00 
G01 X7.5366 Y12.2770 F200.00 
G01 X7.3729 Y12.2444 
G01 X7.2188 Y12.1806 
G01 X7.0801 Y12.0879 
G01 X6.9621 Y11.9699 
G01 X6.8694 Y11.8312 
G01 X6.8056 Y11.6771 
G01 X6.7730 Y11.5134 
G01 X6.7730 Y11.3466 
G01 X6.8056 Y11.1829 
G01 X6.8694 Y11.0288 
G01 X6.9621 Y10.8901 
G01 X7.0801 Y10.7721 
G01 X7.2188 Y10.6794 
G01 X7.3729 Y10.6156 
G01 X7.5366 Y10.5830 
G01 X9.2274 Y10.5830 
G01 X9.3911 Y10.6156 
G01 X9.5452 Y10.6794 
G01 X9.6839 Y10.7721 
G01 X9.8019 Y10.8901 
G01 X9.8343 Y10.9386 
G01 X10.9725 Y10.9386 
G01 X12.9198 Y8.9913 
G01 X12.9198 Y7.9079 
G01 X12.9327 Y7.8767 
G01 X12.9566 Y7.8527 
G01 X12.9879 Y7.8398 
G01 X14.6981 Y7.8398 
G01 X14.7293 Y7.8527 
G01 X14.7533 Y7.8767 
G01 X14.7662 Y7.9079 
G01 X14.7662 Y9.6181 
G01 X14.7533 Y9.6493 
G01 X14.7293 Y9.6733 
G01 X14.6981 Y9.6862 
G01 X13.6147 Y9.6862 
G01 X11.5692 Y11.7317 
G01 X11.4777 Y11.8232 
G01 X11.3657 Y11.8879 
G01 X11.2407 Y11.9214 
G01 X9.8343 Y11.9214 
G01 X9.8019 Y11.9699 
G01 X9.6839 Y12.0879 
G01 X9.5452 Y12.1806 
G01 X9.3911 Y12.2444 
G01 X9.2274 Y12.2770 
G00 Z2.5400 
G00 X9.2274 Y9.7370 
G01 Z-0.1000 F254.00 
G01 X7.5366 Y9.7370 F200.00 
G01 X7.3729 Y9.7044 
G01 X7.2188 Y9.6406 
G01 X7.0801 Y9.5479 
G01 X6.9621 Y9.4299 
G01 X6.8694 Y9.2912 
G01 X6.8056 Y9.1371 
G01 X6.7730 Y8.9734 
G01 X6.7730 Y8.8066 
G01 X6.8056 Y8.6429 
G01 X6.8694 Y8.4888 
G01 X6.9621 Y8.3501 
G01 X7.0801 Y8.2321 
G01 X7.2188 Y8.1394 
G01 X7.3729 Y8.0755 
G01 X7.5366 Y8.0430 
G01 X9.2274 Y8.0430 
G01 X9.3911 Y8.0755 
G01 X9.5452 Y8.1394 
G01 X9.6839 Y8.2321 
G01 X9.8019 Y8.3501 
G01 X9.8946 Y8.4888 
G01 X9.9584 Y8.6429 
G01 X9.9910 Y8.8066 
G01 X9.9910 Y8.9734 
G01 X9.9584 Y9.1371 
G01 X9.8946 Y9.2912 
G01 X9.8019 Y9.4299 
G01 X9.6839 Y9.5479 
G01 X9.5452 Y9.6406 
G01 X9.3911 Y9.7044 
G01 X9.2274 Y9.7370 
G00 Z2.5400 
G00 X9.2274 Y7.1970 
G01 Z-0.1000 F254.00 
G01 X7.5366 Y7.1970 F200.00 
G01 X7.3729 Y7.1644 
G01 X7.2188 Y7.1006 
G01 X7.0801 Y7.0079 
G01 X6.9621 Y6.8899 
G01 X6.8694 Y6.7512 
G01 X6.8056 Y6.5971 
G01 X6.7730 Y6.4334 
G01 X6.7730 Y6.2666 
G01 X6.8056 Y6.1029 
G01 X6.8694 Y5.9488 
G01 X6.9621 Y5.8101 
G01 X7.0801 Y5.6921 
G01 X7.2188 Y5.5994 
G01 X7.3729 Y5.5356 
G01 X7.5366 Y5.5030 
G01 X9.2274 Y5.5030 
G01 X9.3911 Y5.5356 
G01 X9.5452 Y5.5994 
G01 X9.6839 Y5.6921 
G01 X9.8019 Y5.8101 
G01 X9.8343 Y5.8586 
G01 X14.0347 Y5.8586 
G01 X14.1597 Y5.8921 
G01 X14.2717 Y5.9568 
G01 X14.3632 Y6.0483 
G01 X16.1547 Y7.8398 
G01 X17.2381 Y7.8398 
G01 X17.2693 Y7.8527 
G01 X17.2933 Y7.8767 
G01 X17.3062 Y7.9079 
G01 X17.3062 Y9.6181 
G01 X17.2933 Y9.6493 
G01 X17.2693 Y9.6733 
G01 X17.2381 Y9.6862 
G01 X15.5279 Y9.6862 
G01 X15.4967 Y9.6733 
G01 X15.4727 Y9.6493 
G01 X15.4598 Y9.6181 
G01 X15.4598 Y8.5347 
G01 X13.7665 Y6.8414 
G01 X9.8343 Y6.8414 
G01 X9.8019 Y6.8899 
G01 X9.6839 Y7.0079 
G01 X9.5452 Y7.1006 
G01 X9.3911 Y7.1644 
G01 X9.2274 Y7.1970 
G00 Z2.5400 
G00 X33.0539 Y18.2920 
G01 Z-0.1000 F254.00 
G01 X30.8201 Y18.2920 F200.00 
G01 X30.7889 Y18.2791 
G01 X30.7649 Y18.2551 
G01 X30.7520 Y18.2239 
G01 X30.7520 Y17.5901 
G01 X30.7649 Y17.5588 
G01 X30.7889 Y17.5349 
G01 X30.8201 Y17.5220 
G01 X33.0539 Y17.5220 
G01 X33.0851 Y17.5349 
G01 X33.1091 Y17.5588 
G01 X33.1128 Y17.5680 
G01 X34.0226 Y17.5680 
G01 X34.7130 Y16.8776 
G01 X34.7130 Y13.1634 
G01 X34.7361 Y13.0772 
G01 X34.7807 Y12.9998 
G01 X36.0478 Y11.7327 
G01 X36.1252 Y11.6881 
G01 X36.2114 Y11.6650 
G01 X36.3760 Y11.6650 
G01 X36.3760 Y11.3371 
G01 X36.3889 Y11.3059 
G01 X36.4128 Y11.2819 
G01 X36.4441 Y11.2690 
G01 X36.7856 Y11.2690 
G01 X36.7856 Y10.7910 
G01 X36.6101 Y10.7910 
G01 X36.5789 Y10.7781 
G01 X36.5549 Y10.7541 
G01 X36.5420 Y10.7229 
G01 X36.5420 Y9.0891 
G01 X36.5549 Y9.0579 
G01 X36.5789 Y9.0339 
G01 X36.6101 Y9.0210 
G01 X37.9439 Y9.0210 
G01 X37.9751 Y9.0339 
G01 X37.9991 Y9.0579 
G01 X38.0120 Y9.0891 
G01 X38.0120 Y10.7229 
G01 X37.9991 Y10.7541 
G01 X37.9751 Y10.7781 
G01 X37.9439 Y10.7910 
G01 X37.7684 Y10.7910 
G01 X37.7684 Y11.2690 
G01 X37.9779 Y11.2690 
G01 X38.0091 Y11.2819 
G01 X38.0331 Y11.3059 
G01 X38.0460 Y11.3371 
G01 X38.0460 Y12.6709 
G01 X38.0331 Y12.7021 
G01 X38.0091 Y12.7261 
G01 X37.9779 Y12.7390 
G01 X36.4441 Y12.7390 
G01 X36.4128 Y12.7261 
G01 X36.3889 Y12.7021 
G01 X36.3760 Y12.6709 
G01 X36.3760 Y12.3634 
G01 X35.3910 Y13.3484 
G01 X35.3910 Y17.0626 
G01 X35.3679 Y17.1488 
G01 X35.3233 Y17.2262 
G01 X34.4343 Y18.1151 
G01 X34.3712 Y18.1783 
G01 X34.2938 Y18.2229 
G01 X34.2076 Y18.2460 
G01 X33.1128 Y18.2460 
G01 X33.1091 Y18.2551 
G01 X33.0851 Y18.2791 
G01 X33.0539 Y18.2920 
G00 Z2.5400 
G00 X27.8539 Y18.2920 
G01 Z-0.1000 F254.00 
G01 X25.6201 Y18.2920 F200.00 
G01 X25.5889 Y18.2791 
G01 X25.5649 Y18.2551 
G01 X25.5520 Y18.2239 
G01 X25.5520 Y17.5901 
G01 X25.5649 Y17.5588 
G01 X25.5889 Y17.5349 
G01 X25.6201 Y17.5220 
G01 X27.8539 Y17.5220 
G01 X27.8851 Y17.5349 
G01 X27.9091 Y17.5588 
G01 X27.9128 Y17.5680 
G01 X29.5696 Y17.5680 
G01 X29.6558 Y17.5911 
G01 X29.7332 Y17.6357 
G01 X29.7963 Y17.6988 
G01 X29.8409 Y17.7762 
G01 X29.8640 Y17.8624 
G01 X29.8640 Y22.7370 
G01 X30.1919 Y22.7370 
G01 X30.2231 Y22.7499 
G01 X30.2471 Y22.7738 
G01 X30.2600 Y22.8051 
G01 X30.2600 Y24.4389 
G01 X30.2471 Y24.4701 
G01 X30.2231 Y24.4941 
G01 X30.1919 Y24.5070 
G01 X28.8581 Y24.5070 
G01 X28.8269 Y24.4941 
G01 X28.8029 Y24.4701 
G01 X28.7900 Y24.4389 
G01 X28.7900 Y22.8051 
G01 X28.8029 Y22.7738 
G01 X28.8269 Y22.7499 
G01 X28.8581 Y22.7370 
G01 X29.1860 Y22.7370 
G01 X29.1860 Y18.2460 
G01 X27.9128 Y18.2460 
G01 X27.9091 Y18.2551 
G01 X27.8851 Y18.2791 
G01 X27.8539 Y18.2920 
G00 Z2.5400 
G00 X33.0539 Y19.5620 
G01 Z-0.1000 F254.00 
G01 X30.8201 Y19.5620 F200.00 
G01 X30.7889 Y19.5491 
G01 X30.7649 Y19.5251 
G01 X30.7520 Y19.4939 
G01 X30.7520 Y18.8601 
G01 X30.7649 Y18.8288 
G01 X30.7889 Y18.8049 
G01 X30.8201 Y18.7920 
G01 X31.8837 Y18.7920 
G01 X31.9584 Y18.7720 
G01 X36.0546 Y18.7720 
G01 X36.3760 Y18.4506 
G01 X36.3760 Y17.4281 
G01 X36.3889 Y17.3969 
G01 X36.4128 Y17.3729 
G01 X36.4441 Y17.3600 
G01 X37.9779 Y17.3600 
G01 X38.0091 Y17.3729 
G01 X38.0331 Y17.3969 
G01 X38.0460 Y17.4281 
G01 X38.0460 Y18.7619 
G01 X38.0331 Y18.7931 
G01 X38.0091 Y18.8171 
G01 X37.9779 Y18.8300 
G01 X37.7684 Y18.8300 
G01 X37.7684 Y19.3080 
G01 X37.9439 Y19.3080 
G01 X37.9751 Y19.3209 
G01 X37.9991 Y19.3449 
G01 X38.0120 Y19.3761 
G01 X38.0120 Y21.0099 
G01 X37.9991 Y21.0411 
G01 X37.9751 Y21.0651 
G01 X37.9439 Y21.0780 
G01 X36.6101 Y21.0780 
G01 X36.5789 Y21.0651 
G01 X36.5549 Y21.0411 
G01 X36.5420 Y21.0099 
G01 X36.5420 Y19.3761 
G01 X36.5549 Y19.3449 
G01 X36.5789 Y19.3209 
G01 X36.6101 Y19.3080 
G01 X36.7856 Y19.3080 
G01 X36.7856 Y18.9998 
G01 X36.4032 Y19.3823 
G01 X36.3258 Y19.4269 
G01 X36.2396 Y19.4500 
G01 X33.1220 Y19.4500 
G01 X33.1220 Y19.4939 
G01 X33.1091 Y19.5251 
G01 X33.0851 Y19.5491 
G01 X33.0539 Y19.5620 
G00 Z2.5400 
G00 X27.8539 Y17.0220 
G01 Z-0.1000 F254.00 
G01 X25.6201 Y17.0220 F200.00 
G01 X25.5889 Y17.0091 
G01 X25.5649 Y16.9851 
G01 X25.5520 Y16.9539 
G01 X25.5520 Y16.3201 
G01 X25.5649 Y16.2889 
G01 X25.5889 Y16.2649 
G01 X25.6201 Y16.2520 
G01 X26.3310 Y16.2520 
G01 X26.3310 Y15.2740 
G01 X25.8531 Y15.2740 
G01 X25.8219 Y15.2611 
G01 X25.7979 Y15.2371 
G01 X25.7850 Y15.2059 
G01 X25.7850 Y14.5630 
G01 X24.8472 Y14.5630 
G01 X24.8414 Y14.5771 
G01 X24.7598 Y14.6992 
G01 X24.6560 Y14.8030 
G01 X24.5339 Y14.8846 
G01 X24.3982 Y14.9408 
G01 X24.2542 Y14.9694 
G01 X22.7866 Y14.9694 
G01 X22.6426 Y14.9408 
G01 X22.5069 Y14.8846 
G01 X22.3848 Y14.8030 
G01 X22.2810 Y14.6992 
G01 X22.1994 Y14.5771 
G01 X22.1432 Y14.4414 
G01 X22.1146 Y14.2974 
G01 X22.1146 Y14.1506 
G01 X22.1432 Y14.0066 
G01 X22.1994 Y13.8709 
G01 X22.2810 Y13.7488 
G01 X22.3848 Y13.6450 
G01 X22.5069 Y13.5634 
G01 X22.6426 Y13.5072 
G01 X22.7866 Y13.4786 
G01 X24.2542 Y13.4786 
G01 X24.3982 Y13.5072 
G01 X24.5339 Y13.5634 
G01 X24.6560 Y13.6450 
G01 X24.7598 Y13.7488 
G01 X24.8414 Y13.8709 
G01 X24.8472 Y13.8850 
G01 X25.7850 Y13.8850 
G01 X25.7850 Y13.8721 
G01 X25.7979 Y13.8409 
G01 X25.8219 Y13.8169 
G01 X25.8531 Y13.8040 
G01 X27.4869 Y13.8040 
G01 X27.5181 Y13.8169 
G01 X27.5421 Y13.8409 
G01 X27.5550 Y13.8721 
G01 X27.5550 Y15.2059 
G01 X27.5421 Y15.2371 
G01 X27.5181 Y15.2611 
G01 X27.4869 Y15.2740 
G01 X27.0090 Y15.2740 
G01 X27.0090 Y16.2520 
G01 X27.8539 Y16.2520 
G01 X27.8851 Y16.2649 
G01 X27.9091 Y16.2889 
G01 X27.9220 Y16.3201 
G01 X27.9220 Y16.9539 
G01 X27.9091 Y16.9851 
G01 X27.8851 Y17.0091 
G01 X27.8539 Y17.0220 
G00 Z2.5400 
G00 X27.8539 Y19.5620 
G01 Z-0.1000 F254.00 
G01 X25.6201 Y19.5620 F200.00 
G01 X25.5889 Y19.5491 
G01 X25.5649 Y19.5251 
G01 X25.5520 Y19.4939 
G01 X25.5520 Y18.8601 
G01 X25.5649 Y18.8288 
G01 X25.5889 Y18.8049 
G01 X25.6201 Y18.7920 
G01 X27.8539 Y18.7920 
G01 X27.8851 Y18.8049 
G01 X27.9091 Y18.8288 
G01 X27.9220 Y18.8601 
G01 X27.9220 Y19.4939 
G01 X27.9091 Y19.5251 
G01 X27.8851 Y19.5491 
G01 X27.8539 Y19.5620 
G00 Z2.5400 
G00 X59.7303 Y16.5532 
G01 Z-0.1000 F254.00 
G01 X59.8500 Y16.6729 F200.00 
G01 X59.9495 Y16.8099 
G01 X60.0264 Y16.9607 
G01 X60.0504 Y17.0346 
G01 X60.3442 Y17.0346 
G01 X60.4304 Y17.0577 
G01 X60.5078 Y17.1023 
G01 X63.5812 Y20.1757 
G01 X63.6443 Y20.2388 
G01 X63.6889 Y20.3162 
G01 X63.7120 Y20.4024 
G01 X63.7120 Y25.3176 
G01 X63.6889 Y25.4038 
G01 X63.6443 Y25.4811 
G01 X63.5812 Y25.5443 
G01 X61.4853 Y27.6402 
G01 X61.4222 Y27.7033 
G01 X61.3448 Y27.7479 
G01 X61.2586 Y27.7710 
G01 X60.1050 Y27.7710 
G01 X60.1050 Y28.2489 
G01 X60.0921 Y28.2801 
G01 X60.0681 Y28.3041 
G01 X60.0369 Y28.3170 
G01 X58.7031 Y28.3170 
G01 X58.6719 Y28.3041 
G01 X58.6479 Y28.2801 
G01 X58.6350 Y28.2489 
G01 X58.6350 Y26.6151 
G01 X58.6479 Y26.5839 
G01 X58.6719 Y26.5599 
G01 X58.7031 Y26.5470 
G01 X60.0369 Y26.5470 
G01 X60.0681 Y26.5599 
G01 X60.0921 Y26.5839 
G01 X60.1050 Y26.6151 
G01 X60.1050 Y27.0930 
G01 X61.0736 Y27.0930 
G01 X63.0340 Y25.1326 
G01 X63.0340 Y20.5874 
G01 X60.1592 Y17.7126 
G01 X60.0504 Y17.7126 
G01 X60.0264 Y17.7865 
G01 X59.9495 Y17.9373 
G01 X59.8500 Y18.0743 
G01 X59.7303 Y18.1940 
G01 X59.5933 Y18.2935 
G01 X59.4425 Y18.3704 
G01 X59.2815 Y18.4227 
G01 X59.2220 Y18.4321 
G01 X59.0716 Y18.5826 
G01 X58.8697 Y18.7292 
G01 X58.6474 Y18.8425 
G01 X58.4102 Y18.9196 
G01 X58.1637 Y18.9586 
G01 X57.9143 Y18.9586 
G01 X57.6678 Y18.9196 
G01 X57.4306 Y18.8425 
G01 X57.2083 Y18.7292 
G01 X57.0064 Y18.5826 
G01 X56.8560 Y18.4321 
G01 X56.7965 Y18.4227 
G01 X56.6355 Y18.3704 
G01 X56.4847 Y18.2935 
G01 X56.3477 Y18.1940 
G01 X56.2280 Y18.0743 
G01 X56.1285 Y17.9373 
G01 X56.0516 Y17.7865 
G01 X55.9993 Y17.6255 
G01 X55.9728 Y17.4582 
G01 X55.9728 Y17.2889 
G01 X55.9993 Y17.1217 
G01 X56.0516 Y16.9607 
G01 X56.1285 Y16.8099 
G01 X56.2280 Y16.6729 
G01 X56.3477 Y16.5532 
G01 X56.4540 Y16.4759 
G01 X56.4540 Y13.2421 
G01 X56.3477 Y13.1648 
G01 X56.2280 Y13.0451 
G01 X56.1285 Y12.9081 
G01 X56.0516 Y12.7573 
G01 X55.9993 Y12.5963 
G01 X55.9728 Y12.4291 
G01 X55.9728 Y12.2597 
G01 X55.9993 Y12.0925 
G01 X56.0516 Y11.9315 
G01 X56.1285 Y11.7807 
G01 X56.2280 Y11.6437 
G01 X56.3477 Y11.5240 
G01 X56.4847 Y11.4245 
G01 X56.6355 Y11.3476 
G01 X56.7965 Y11.2953 
G01 X56.8560 Y11.2859 
G01 X57.0064 Y11.1354 
G01 X57.2083 Y10.9888 
G01 X57.4306 Y10.8755 
G01 X57.6678 Y10.7984 
G01 X57.9143 Y10.7594 
G01 X58.1637 Y10.7594 
G01 X58.4102 Y10.7984 
G01 X58.6474 Y10.8755 
G01 X58.8697 Y10.9888 
G01 X59.0716 Y11.1354 
G01 X59.2220 Y11.2859 
G01 X59.2815 Y11.2953 
G01 X59.4425 Y11.3476 
G01 X59.5933 Y11.4245 
G01 X59.7303 Y11.5240 
G01 X59.8500 Y11.6437 
G01 X59.9495 Y11.7807 
G01 X60.0264 Y11.9315 
G01 X60.0787 Y12.0925 
G01 X60.1052 Y12.2597 
G01 X60.1052 Y12.4291 
G01 X60.0787 Y12.5963 
G01 X60.0264 Y12.7573 
G01 X59.9495 Y12.9081 
G01 X59.8500 Y13.0451 
G01 X59.7303 Y13.1648 
G01 X59.6240 Y13.2421 
G01 X59.6240 Y16.4759 
G01 X59.7303 Y16.5532 
G00 Z2.5400 
G00 X42.2071 Y22.4478 
G01 Z-0.1000 F254.00 
G01 X42.1759 Y22.4349 F200.00 
G01 X42.1519 Y22.4109 
G01 X42.1390 Y22.3797 
G01 X42.1390 Y20.5574 
G01 X39.9120 Y20.5574 
G01 X39.9120 Y21.0099 
G01 X39.8991 Y21.0411 
G01 X39.8751 Y21.0651 
G01 X39.8439 Y21.0780 
G01 X39.6684 Y21.0780 
G01 X39.6684 Y21.7710 
G01 X39.8439 Y21.7710 
G01 X39.8751 Y21.7839 
G01 X39.8991 Y21.8079 
G01 X39.9120 Y21.8391 
G01 X39.9120 Y23.3729 
G01 X39.8991 Y23.4041 
G01 X39.8751 Y23.4281 
G01 X39.8439 Y23.4410 
G01 X39.6684 Y23.4410 
G01 X39.6684 Y24.1340 
G01 X39.8439 Y24.1340 
G01 X39.8751 Y24.1469 
G01 X39.8991 Y24.1709 
G01 X39.9120 Y24.2021 
G01 X39.9120 Y25.8359 
G01 X39.8991 Y25.8671 
G01 X39.8751 Y25.8911 
G01 X39.8439 Y25.9040 
G01 X38.5101 Y25.9040 
G01 X38.4789 Y25.8911 
G01 X38.4549 Y25.8671 
G01 X38.4420 Y25.8359 
G01 X38.4420 Y24.2021 
G01 X38.4549 Y24.1709 
G01 X38.4789 Y24.1469 
G01 X38.5101 Y24.1340 
G01 X38.6856 Y24.1340 
G01 X38.6856 Y23.4410 
G01 X38.5101 Y23.4410 
G01 X38.4789 Y23.4281 
G01 X38.4549 Y23.4041 
G01 X38.4420 Y23.3729 
G01 X38.4420 Y21.8391 
G01 X38.4549 Y21.8079 
G01 X38.4789 Y21.7839 
G01 X38.5101 Y21.7710 
G01 X38.6856 Y21.7710 
G01 X38.6856 Y21.0780 
G01 X38.5101 Y21.0780 
G01 X38.4789 Y21.0651 
G01 X38.4549 Y21.0411 
G01 X38.4420 Y21.0099 
G01 X38.4420 Y19.3761 
G01 X38.4549 Y19.3449 
G01 X38.4789 Y19.3209 
G01 X38.5101 Y19.3080 
G01 X39.1580 Y19.3080 
G01 X39.1580 Y17.5394 
G01 X38.1526 Y16.5340 
G01 X38.0460 Y16.5340 
G01 X38.0460 Y16.8619 
G01 X38.0331 Y16.8931 
G01 X38.0091 Y16.9171 
G01 X37.9779 Y16.9300 
G01 X36.4441 Y16.9300 
G01 X36.4128 Y16.9171 
G01 X36.3889 Y16.8931 
G01 X36.3760 Y16.8619 
G01 X36.3760 Y15.5281 
G01 X36.3889 Y15.4969 
G01 X36.4128 Y15.4729 
G01 X36.4441 Y15.4600 
G01 X36.7196 Y15.4600 
G01 X36.7196 Y14.6390 
G01 X36.4441 Y14.6390 
G01 X36.4128 Y14.6261 
G01 X36.3889 Y14.6021 
G01 X36.3760 Y14.5709 
G01 X36.3760 Y13.2371 
G01 X36.3889 Y13.2058 
G01 X36.4128 Y13.1819 
G01 X36.4441 Y13.1690 
G01 X37.9779 Y13.1690 
G01 X38.0091 Y13.1819 
G01 X38.0331 Y13.2058 
G01 X38.0460 Y13.2371 
G01 X38.0460 Y14.5709 
G01 X38.0331 Y14.6021 
G01 X38.0091 Y14.6261 
G01 X37.9779 Y14.6390 
G01 X37.7024 Y14.6390 
G01 X37.7024 Y15.4600 
G01 X37.9779 Y15.4600 
G01 X38.0091 Y15.4729 
G01 X38.0331 Y15.4969 
G01 X38.0460 Y15.5281 
G01 X38.0460 Y15.5766 
G01 X39.0160 Y14.6066 
G01 X39.0160 Y13.6841 
G01 X39.0289 Y13.6529 
G01 X39.0528 Y13.6289 
G01 X39.0841 Y13.6160 
G01 X40.4179 Y13.6160 
G01 X40.4491 Y13.6289 
G01 X40.4731 Y13.6529 
G01 X40.4860 Y13.6841 
G01 X40.4860 Y15.0179 
G01 X40.4731 Y15.0491 
G01 X40.4491 Y15.0731 
G01 X40.4179 Y15.0860 
G01 X39.4954 Y15.0860 
G01 X38.5794 Y16.0020 
G01 X39.7052 Y17.1277 
G01 X39.7683 Y17.1908 
G01 X39.8129 Y17.2682 
G01 X39.8360 Y17.3544 
G01 X39.8360 Y19.3080 
G01 X39.8439 Y19.3080 
G01 X39.8751 Y19.3209 
G01 X39.8991 Y19.3449 
G01 X39.9120 Y19.3761 
G01 X39.9120 Y19.5746 
G01 X42.1390 Y19.5746 
G01 X42.1390 Y17.3459 
G01 X42.1519 Y17.3147 
G01 X42.1759 Y17.2907 
G01 X42.2071 Y17.2778 
G01 X49.7409 Y17.2778 
G01 X49.7721 Y17.2907 
G01 X49.7961 Y17.3147 
G01 X49.8090 Y17.3459 
G01 X49.8090 Y20.7670 
G01 X58.1637 Y20.7670 
G01 X58.4102 Y20.8060 
G01 X58.6474 Y20.8831 
G01 X58.8697 Y20.9964 
G01 X59.0716 Y21.1430 
G01 X59.2220 Y21.2935 
G01 X59.2815 Y21.3029 
G01 X59.4425 Y21.3552 
G01 X59.5933 Y21.4321 
G01 X59.7303 Y21.5316 
G01 X59.8500 Y21.6513 
G01 X59.9495 Y21.7883 
G01 X60.0264 Y21.9391 
G01 X60.0787 Y22.1001 
G01 X60.1052 Y22.2673 
G01 X60.1052 Y22.4367 
G01 X60.0787 Y22.6039 
G01 X60.0264 Y22.7649 
G01 X59.9495 Y22.9157 
G01 X59.8500 Y23.0527 
G01 X59.7303 Y23.1724 
G01 X59.5933 Y23.2719 
G01 X59.4425 Y23.3488 
G01 X59.2815 Y23.4011 
G01 X59.2220 Y23.4105 
G01 X59.0716 Y23.5610 
G01 X58.8697 Y23.7076 
G01 X58.6474 Y23.8209 
G01 X58.4102 Y23.8980 
G01 X58.1637 Y23.9370 
G01 X48.3385 Y23.9370 
G01 X48.0920 Y23.8980 
G01 X47.8548 Y23.8209 
G01 X47.6325 Y23.7076 
G01 X47.4306 Y23.5610 
G01 X46.3175 Y22.4478 
G01 X42.2071 Y22.4478 
G00 Z2.5400 
G00 X36.8030 Y6.0641 
G01 Z-0.1000 F254.00 
G01 X36.8030 Y7.3979 F200.00 
G01 X36.7901 Y7.4291 
G01 X36.7661 Y7.4531 
G01 X36.7349 Y7.4660 
G01 X35.6244 Y7.4660 
G01 X34.6670 Y8.4234 
G01 X34.6670 Y9.4959 
G01 X34.6541 Y9.5271 
G01 X34.6301 Y9.5511 
G01 X34.5989 Y9.5640 
G01 X32.9651 Y9.5640 
G01 X32.9338 Y9.5511 
G01 X32.9099 Y9.5271 
G01 X32.8970 Y9.4959 
G01 X32.8970 Y9.1680 
G01 X31.2854 Y9.1680 
G01 X31.1992 Y9.1449 
G01 X31.1218 Y9.1003 
G01 X31.0587 Y9.0372 
G01 X30.5884 Y8.5668 
G01 X30.5661 Y8.5891 
G01 X30.5349 Y8.6020 
G01 X28.9011 Y8.6020 
G01 X28.8699 Y8.5891 
G01 X28.8459 Y8.5651 
G01 X28.8330 Y8.5339 
G01 X28.8330 Y7.5424 
G01 X26.7430 Y7.5424 
G01 X26.7430 Y8.2259 
G01 X26.7301 Y8.2571 
G01 X26.7061 Y8.2811 
G01 X26.6749 Y8.2940 
G01 X25.1411 Y8.2940 
G01 X25.1099 Y8.2811 
G01 X25.0859 Y8.2571 
G01 X25.0730 Y8.2259 
G01 X25.0730 Y7.4764 
G01 X19.5414 Y7.4764 
G01 X19.5414 Y7.8398 
G01 X19.7781 Y7.8398 
G01 X19.8093 Y7.8527 
G01 X19.8333 Y7.8767 
G01 X19.8462 Y7.9079 
G01 X19.8462 Y9.6181 
G01 X19.8333 Y9.6493 
G01 X19.8093 Y9.6733 
G01 X19.7781 Y9.6862 
G01 X19.7753 Y9.6862 
G01 X19.7753 Y12.9844 
G01 X22.8095 Y16.0186 
G01 X24.2542 Y16.0186 
G01 X24.3982 Y16.0472 
G01 X24.5339 Y16.1034 
G01 X24.6560 Y16.1850 
G01 X24.7598 Y16.2888 
G01 X24.8414 Y16.4109 
G01 X24.8976 Y16.5466 
G01 X24.9262 Y16.6906 
G01 X24.9262 Y16.8374 
G01 X24.8976 Y16.9814 
G01 X24.8414 Y17.1171 
G01 X24.7598 Y17.2392 
G01 X24.6560 Y17.3430 
G01 X24.5339 Y17.4246 
G01 X24.3982 Y17.4808 
G01 X24.2542 Y17.5094 
G01 X23.2625 Y17.5094 
G01 X23.2625 Y19.4811 
G01 X23.8894 Y20.1080 
G01 X25.5612 Y20.1080 
G01 X25.5649 Y20.0989 
G01 X25.5889 Y20.0749 
G01 X25.6201 Y20.0620 
G01 X27.8539 Y20.0620 
G01 X27.8851 Y20.0749 
G01 X27.9091 Y20.0989 
G01 X27.9220 Y20.1301 
G01 X27.9220 Y20.1566 
G01 X27.9551 Y20.1757 
G01 X28.0183 Y20.2388 
G01 X28.0629 Y20.3162 
G01 X28.0860 Y20.4024 
G01 X28.0860 Y20.4916 
G01 X28.0629 Y20.5778 
G01 X28.0183 Y20.6552 
G01 X27.9551 Y20.7183 
G01 X27.9220 Y20.7374 
G01 X27.9220 Y20.7639 
G01 X27.9091 Y20.7951 
G01 X27.8851 Y20.8191 
G01 X27.8539 Y20.8320 
G01 X25.6201 Y20.8320 
G01 X25.5889 Y20.8191 
G01 X25.5649 Y20.7951 
G01 X25.5612 Y20.7860 
G01 X23.7044 Y20.7860 
G01 X23.6181 Y20.7629 
G01 X23.5408 Y20.7183 
G01 X22.7153 Y19.8928 
G01 X22.6522 Y19.8297 
G01 X22.6076 Y19.7523 
G01 X22.5845 Y19.6661 
G01 X22.5845 Y17.4567 
G01 X22.5069 Y17.4246 
G01 X22.3848 Y17.3430 
G01 X22.2810 Y17.2392 
G01 X22.1994 Y17.1171 
G01 X22.1432 Y16.9814 
G01 X22.1146 Y16.8374 
G01 X22.1146 Y16.7135 
G01 X18.8907 Y13.4897 
G01 X18.8260 Y13.3776 
G01 X18.7925 Y13.2526 
G01 X18.7925 Y9.6862 
G01 X18.0679 Y9.6862 
G01 X18.0367 Y9.6733 
G01 X18.0127 Y9.6493 
G01 X17.9998 Y9.6181 
G01 X17.9998 Y7.9079 
G01 X18.0127 Y7.8767 
G01 X18.0367 Y7.8527 
G01 X18.0679 Y7.8398 
G01 X18.5586 Y7.8398 
G01 X18.5586 Y6.9203 
G01 X18.5921 Y6.7953 
G01 X18.6568 Y6.6833 
G01 X18.7483 Y6.5918 
G01 X18.8603 Y6.5271 
G01 X18.9853 Y6.4936 
G01 X25.9727 Y6.4936 
G01 X26.0977 Y6.5271 
G01 X26.2097 Y6.5918 
G01 X26.2166 Y6.5987 
G01 X26.2263 Y6.5931 
G01 X26.3513 Y6.5596 
G01 X28.8330 Y6.5596 
G01 X28.8330 Y5.9001 
G01 X28.8459 Y5.8689 
G01 X28.8699 Y5.8449 
G01 X28.9011 Y5.8320 
G01 X29.6180 Y5.8320 
G01 X29.6458 Y5.8239 
G01 X29.7351 Y5.8222 
G01 X29.7748 Y5.8320 
G01 X30.5349 Y5.8320 
G01 X30.5661 Y5.8449 
G01 X30.5901 Y5.8689 
G01 X30.6030 Y5.9001 
G01 X30.6030 Y7.6226 
G01 X31.4704 Y8.4900 
G01 X32.8970 Y8.4900 
G01 X32.8970 Y8.1621 
G01 X32.9099 Y8.1309 
G01 X32.9338 Y8.1069 
G01 X32.9651 Y8.0940 
G01 X34.0376 Y8.0940 
G01 X35.3330 Y6.7986 
G01 X35.3330 Y6.0641 
G01 X35.3459 Y6.0329 
G01 X35.3698 Y6.0089 
G01 X35.4011 Y5.9960 
G01 X36.7349 Y5.9960 
G01 X36.7661 Y6.0089 
G01 X36.7901 Y6.0329 
G01 X36.8030 Y6.0641 
G00 Z2.5400 
G00 X22.1980 Y10.7631 
G01 Z-0.1000 F254.00 
G01 X22.1980 Y12.0969 F200.00 
G01 X22.1851 Y12.1281 
G01 X22.1611 Y12.1521 
G01 X22.1299 Y12.1650 
G01 X20.7961 Y12.1650 
G01 X20.7649 Y12.1521 
G01 X20.7409 Y12.1281 
G01 X20.7280 Y12.0969 
G01 X20.7280 Y10.7631 
G01 X20.7409 Y10.7318 
G01 X20.7649 Y10.7079 
G01 X20.7961 Y10.6950 
G01 X20.9716 Y10.6950 
G01 X20.9716 Y9.6862 
G01 X20.6079 Y9.6862 
G01 X20.5767 Y9.6733 
G01 X20.5527 Y9.6493 
G01 X20.5398 Y9.6181 
G01 X20.5398 Y7.9079 
G01 X20.5527 Y7.8767 
G01 X20.5767 Y7.8527 
G01 X20.6079 Y7.8398 
G01 X22.3181 Y7.8398 
G01 X22.3493 Y7.8527 
G01 X22.3733 Y7.8767 
G01 X22.3862 Y7.9079 
G01 X22.3862 Y8.6526 
G01 X25.6577 Y8.6526 
G01 X25.7827 Y8.6861 
G01 X25.8483 Y8.7240 
G01 X26.6749 Y8.7240 
G01 X26.7061 Y8.7369 
G01 X26.7301 Y8.7608 
G01 X26.7430 Y8.7921 
G01 X26.7430 Y10.1259 
G01 X26.7301 Y10.1571 
G01 X26.7061 Y10.1811 
G01 X26.6749 Y10.1940 
G01 X26.6149 Y10.1940 
G01 X26.6195 Y10.1986 
G01 X26.7347 Y10.1986 
G01 X26.8597 Y10.2321 
G01 X26.9717 Y10.2968 
G01 X27.0005 Y10.3256 
G01 X28.8330 Y10.3256 
G01 X28.8330 Y9.5001 
G01 X28.8459 Y9.4688 
G01 X28.8699 Y9.4449 
G01 X28.9011 Y9.4320 
G01 X30.5349 Y9.4320 
G01 X30.5661 Y9.4449 
G01 X30.5901 Y9.4688 
G01 X30.6030 Y9.5001 
G01 X30.6030 Y12.1339 
G01 X30.5901 Y12.1651 
G01 X30.5661 Y12.1891 
G01 X30.5349 Y12.2020 
G01 X30.0570 Y12.2020 
G01 X30.0570 Y12.9960 
G01 X31.2589 Y12.9960 
G01 X31.2901 Y13.0089 
G01 X31.3141 Y13.0328 
G01 X31.3270 Y13.0641 
G01 X31.3270 Y14.8759 
G01 X31.3141 Y14.9071 
G01 X31.2901 Y14.9311 
G01 X31.2589 Y14.9440 
G01 X31.2343 Y14.9440 
G01 X31.7736 Y15.9942 
G01 X32.0314 Y16.2520 
G01 X33.0539 Y16.2520 
G01 X33.0851 Y16.2649 
G01 X33.1091 Y16.2889 
G01 X33.1220 Y16.3201 
G01 X33.1220 Y16.9539 
G01 X33.1091 Y16.9851 
G01 X33.0851 Y17.0091 
G01 X33.0539 Y17.0220 
G01 X30.8201 Y17.0220 
G01 X30.7889 Y17.0091 
G01 X30.7649 Y16.9851 
G01 X30.7520 Y16.9539 
G01 X30.7520 Y16.3201 
G01 X30.7649 Y16.2889 
G01 X30.7889 Y16.2649 
G01 X30.8201 Y16.2520 
G01 X31.1438 Y16.2520 
G01 X30.4721 Y14.9440 
G01 X29.4471 Y14.9440 
G01 X29.4159 Y14.9311 
G01 X29.3919 Y14.9071 
G01 X29.3790 Y14.8759 
G01 X29.3790 Y12.2020 
G01 X28.9011 Y12.2020 
G01 X28.8699 Y12.1891 
G01 X28.8459 Y12.1651 
G01 X28.8330 Y12.1339 
G01 X28.8330 Y11.3084 
G01 X27.1614 Y11.3084 
G01 X27.1614 Y11.9040 
G01 X27.4869 Y11.9040 
G01 X27.5181 Y11.9169 
G01 X27.5421 Y11.9409 
G01 X27.5550 Y11.9721 
G01 X27.5550 Y13.3059 
G01 X27.5421 Y13.3371 
G01 X27.5181 Y13.3611 
G01 X27.4869 Y13.3740 
G01 X26.3985 Y13.3740 
G01 X26.3588 Y13.3969 
G01 X26.2726 Y13.4200 
G01 X26.1834 Y13.4200 
G01 X26.0972 Y13.3969 
G01 X26.0575 Y13.3740 
G01 X25.8531 Y13.3740 
G01 X25.8219 Y13.3611 
G01 X25.7979 Y13.3371 
G01 X25.7850 Y13.3059 
G01 X25.7850 Y11.9721 
G01 X25.7979 Y11.9409 
G01 X25.8219 Y11.9169 
G01 X25.8531 Y11.9040 
G01 X26.1786 Y11.9040 
G01 X26.1786 Y11.1475 
G01 X26.1498 Y11.1187 
G01 X25.6063 Y10.5752 
G01 X25.5148 Y10.4837 
G01 X25.4501 Y10.3717 
G01 X25.4166 Y10.2467 
G01 X25.4166 Y10.1940 
G01 X25.1411 Y10.1940 
G01 X25.1099 Y10.1811 
G01 X25.0859 Y10.1571 
G01 X25.0730 Y10.1259 
G01 X25.0730 Y9.6354 
G01 X22.3790 Y9.6354 
G01 X22.3733 Y9.6493 
G01 X22.3493 Y9.6733 
G01 X22.3181 Y9.6862 
G01 X21.9544 Y9.6862 
G01 X21.9544 Y10.6950 
G01 X22.1299 Y10.6950 
G01 X22.1611 Y10.7079 
G01 X22.1851 Y10.7318 
G01 X22.1980 Y10.7631 
G00 Z2.5400 
G00 X24.9830 Y8.4371 
G01 Z-0.1000 F254.00 
G01 X24.9299 Y8.3840 F200.00 
G01 X24.8924 Y8.3190 
G01 X24.8730 Y8.2465 
G01 X24.8730 Y7.6764 
G01 X22.4409 Y7.6764 
G01 X22.4762 Y7.6967 
G01 X22.5293 Y7.7498 
G01 X22.5668 Y7.8148 
G01 X22.5862 Y7.8873 
G01 X22.5862 Y8.4526 
G01 X25.0099 Y8.4526 
G01 X24.9830 Y8.4371 
G00 Z2.5400 
G00 X4.5430 Y28.6687 
G01 Z-0.1000 F254.00 
G01 X4.5430 Y28.8553 F200.00 
G01 X4.5138 Y29.0395 
G01 X4.4562 Y29.2169 
G01 X4.3715 Y29.3831 
G01 X4.2619 Y29.5340 
G01 X4.1300 Y29.6659 
G01 X3.9791 Y29.7755 
G01 X3.8129 Y29.8602 
G01 X3.6355 Y29.9178 
G01 X3.4513 Y29.9470 
G01 X3.2647 Y29.9470 
G01 X3.0805 Y29.9178 
G01 X2.9031 Y29.8602 
G01 X2.7369 Y29.7755 
G01 X2.5860 Y29.6659 
G01 X2.4541 Y29.5340 
G01 X2.3445 Y29.3831 
G01 X2.2598 Y29.2169 
G01 X2.2022 Y29.0395 
G01 X2.1730 Y28.8553 
G01 X2.1730 Y28.6687 
G01 X2.2022 Y28.4845 
G01 X2.2598 Y28.3071 
G01 X2.3445 Y28.1409 
G01 X2.4541 Y27.9900 
G01 X2.5860 Y27.8581 
G01 X2.7369 Y27.7485 
G01 X2.9031 Y27.6638 
G01 X3.0805 Y27.6062 
G01 X3.2647 Y27.5770 
G01 X3.4513 Y27.5770 
G01 X3.6355 Y27.6062 
G01 X3.8129 Y27.6638 
G01 X3.9791 Y27.7485 
G01 X4.1300 Y27.8581 
G01 X4.2619 Y27.9900 
G01 X4.3715 Y28.1409 
G01 X4.4562 Y28.3071 
G01 X4.5138 Y28.4845 
G01 X4.5430 Y28.6687 
G00 Z2.5400 
G00 X4.5430 Y3.6687 
G01 Z-0.1000 F254.00 
G01 X4.5430 Y3.8553 F200.00 
G01 X4.5138 Y4.0395 
G01 X4.4562 Y4.2169 
G01 X4.3715 Y4.3831 
G01 X4.2619 Y4.5340 
G01 X4.1300 Y4.6659 
G01 X3.9791 Y4.7755 
G01 X3.8129 Y4.8602 
G01 X3.6355 Y4.9178 
G01 X3.4513 Y4.9470 
G01 X3.2647 Y4.9470 
G01 X3.0805 Y4.9178 
G01 X2.9031 Y4.8602 
G01 X2.7369 Y4.7755 
G01 X2.5860 Y4.6659 
G01 X2.4541 Y4.5340 
G01 X2.3445 Y4.3831 
G01 X2.2598 Y4.2169 
G01 X2.2022 Y4.0395 
G01 X2.1730 Y3.8553 
G01 X2.1730 Y3.6687 
G01 X2.2022 Y3.4845 
G01 X2.2598 Y3.3071 
G01 X2.3445 Y3.1409 
G01 X2.4541 Y2.9900 
G01 X2.5860 Y2.8581 
G01 X2.7369 Y2.7485 
G01 X2.9031 Y2.6638 
G01 X3.0805 Y2.6062 
G01 X3.2647 Y2.5770 
G01 X3.4513 Y2.5770 
G01 X3.6355 Y2.6062 
G01 X3.8129 Y2.6638 
G01 X3.9791 Y2.7485 
G01 X4.1300 Y2.8581 
G01 X4.2619 Y2.9900 
G01 X4.3715 Y3.1409 
G01 X4.4562 Y3.3071 
G01 X4.5138 Y3.4845 
G01 X4.5430 Y3.6687 
G00 Z2.5400 
G00 X68.5430 Y28.6687 
G01 Z-0.1000 F254.00 
G01 X68.5430 Y28.8553 F200.00 
G01 X68.5138 Y29.0395 
G01 X68.4562 Y29.2169 
G01 X68.3715 Y29.3831 
G01 X68.2619 Y29.5340 
G01 X68.1300 Y29.6659 
G01 X67.9791 Y29.7755 
G01 X67.8129 Y29.8602 
G01 X67.6355 Y29.9178 
G01 X67.4513 Y29.9470 
G01 X67.2647 Y29.9470 
G01 X67.0805 Y29.9178 
G01 X66.9031 Y29.8602 
G01 X66.7369 Y29.7755 
G01 X66.5860 Y29.6659 
G01 X66.4541 Y29.5340 
G01 X66.3445 Y29.3831 
G01 X66.2598 Y29.2169 
G01 X66.2022 Y29.0395 
G01 X66.1730 Y28.8553 
G01 X66.1730 Y28.6687 
G01 X66.2022 Y28.4845 
G01 X66.2598 Y28.3071 
G01 X66.3445 Y28.1409 
G01 X66.4541 Y27.9900 
G01 X66.5860 Y27.8581 
G01 X66.7369 Y27.7485 
G01 X66.9031 Y27.6638 
G01 X67.0805 Y27.6062 
G01 X67.2647 Y27.5770 
G01 X67.4513 Y27.5770 
G01 X67.6355 Y27.6062 
G01 X67.8129 Y27.6638 
G01 X67.9791 Y27.7485 
G01 X68.1300 Y27.8581 
G01 X68.2619 Y27.9900 
G01 X68.3715 Y28.1409 
G01 X68.4562 Y28.3071 
G01 X68.5138 Y28.4845 
G01 X68.5430 Y28.6687 
G00 Z2.5400 
G00 X68.5430 Y3.6687 
G01 Z-0.1000 F254.00 
G01 X68.5430 Y3.8553 F200.00 
G01 X68.5138 Y4.0395 
G01 X68.4562 Y4.2169 
G01 X68.3715 Y4.3831 
G01 X68.2619 Y4.5340 
G01 X68.1300 Y4.6659 
G01 X67.9791 Y4.7755 
G01 X67.8129 Y4.8602 
G01 X67.6355 Y4.9178 
G01 X67.4513 Y4.9470 
G01 X67.2647 Y4.9470 
G01 X67.0805 Y4.9178 
G01 X66.9031 Y4.8602 
G01 X66.7369 Y4.7755 
G01 X66.5860 Y4.6659 
G01 X66.4541 Y4.5340 
G01 X66.3445 Y4.3831 
G01 X66.2598 Y4.2169 
G01 X66.2022 Y4.0395 
G01 X66.1730 Y3.8553 
G01 X66.1730 Y3.6687 
G01 X66.2022 Y3.4845 
G01 X66.2598 Y3.3071 
G01 X66.3445 Y3.1409 
G01 X66.4541 Y2.9900 
G01 X66.5860 Y2.8581 
G01 X66.7369 Y2.7485 
G01 X66.9031 Y2.6638 
G01 X67.0805 Y2.6062 
G01 X67.2647 Y2.5770 
G01 X67.4513 Y2.5770 
G01 X67.6355 Y2.6062 
G01 X67.8129 Y2.6638 
G01 X67.9791 Y2.7485 
G01 X68.1300 Y2.8581 
G01 X68.2619 Y2.9900 
G01 X68.3715 Y3.1409 
G01 X68.4562 Y3.3071 
G01 X68.5138 Y3.4845 
G01 X68.5430 Y3.6687 
G00 Z2.5400 
G00 X42.1865 Y22.6478 
G01 Z-0.1000 F254.00 
G01 X42.1140 Y22.6284 F200.00 
G01 X42.0490 Y22.5909 
G01 X41.9959 Y22.5378 
G01 X41.9584 Y22.4728 
G01 X41.9390 Y22.4003 
G01 X41.9390 Y20.7574 
G01 X40.1120 Y20.7574 
G01 X40.1120 Y21.0305 
G01 X40.0926 Y21.1030 
G01 X40.0551 Y21.1680 
G01 X40.0020 Y21.2211 
G01 X39.9370 Y21.2586 
G01 X39.8684 Y21.2770 
G01 X39.8684 Y21.5720 
G01 X39.9370 Y21.5904 
G01 X40.0020 Y21.6279 
G01 X40.0551 Y21.6810 
G01 X40.0926 Y21.7460 
G01 X40.1120 Y21.8185 
G01 X40.1120 Y23.3935 
G01 X40.0926 Y23.4660 
G01 X40.0551 Y23.5310 
G01 X40.0020 Y23.5841 
G01 X39.9370 Y23.6216 
G01 X39.8684 Y23.6400 
G01 X39.8684 Y23.9350 
G01 X39.9370 Y23.9534 
G01 X40.0020 Y23.9909 
G01 X40.0551 Y24.0440 
G01 X40.0926 Y24.1090 
G01 X40.1120 Y24.1815 
G01 X40.1120 Y25.8565 
G01 X40.0926 Y25.9290 
G01 X40.0551 Y25.9940 
G01 X40.0020 Y26.0471 
G01 X39.9370 Y26.0846 
G01 X39.8645 Y26.1040 
G01 X38.4895 Y26.1040 
G01 X38.4170 Y26.0846 
G01 X38.3520 Y26.0471 
G01 X38.2989 Y25.9940 
G01 X38.2614 Y25.9290 
G01 X38.2420 Y25.8565 
G01 X38.2420 Y24.1815 
G01 X38.2614 Y24.1090 
G01 X38.2989 Y24.0440 
G01 X38.3520 Y23.9909 
G01 X38.4170 Y23.9534 
G01 X38.4856 Y23.9350 
G01 X38.4856 Y23.6400 
G01 X38.4170 Y23.6216 
G01 X38.3520 Y23.5841 
G01 X38.2989 Y23.5310 
G01 X38.2614 Y23.4660 
G01 X38.2420 Y23.3935 
G01 X38.2420 Y21.8185 
G01 X38.2614 Y21.7460 
G01 X38.2989 Y21.6810 
G01 X38.3520 Y21.6279 
G01 X38.4170 Y21.5904 
G01 X38.4856 Y21.5720 
G01 X38.4856 Y21.2770 
G01 X38.4170 Y21.2586 
G01 X38.3520 Y21.2211 
G01 X38.2989 Y21.1680 
G01 X38.2614 Y21.1030 
G01 X38.2420 Y21.0305 
G01 X38.2420 Y19.3555 
G01 X38.2614 Y19.2830 
G01 X38.2989 Y19.2180 
G01 X38.3520 Y19.1649 
G01 X38.4170 Y19.1274 
G01 X38.4895 Y19.1080 
G01 X38.9580 Y19.1080 
G01 X38.9580 Y17.6223 
G01 X38.2401 Y16.9044 
G01 X38.2266 Y16.9550 
G01 X38.1891 Y17.0200 
G01 X38.1360 Y17.0731 
G01 X38.0710 Y17.1106 
G01 X37.9985 Y17.1300 
G01 X36.4235 Y17.1300 
G01 X36.3510 Y17.1106 
G01 X36.2860 Y17.0731 
G01 X36.2329 Y17.0200 
G01 X36.1954 Y16.9550 
G01 X36.1760 Y16.8825 
G01 X36.1760 Y15.5075 
G01 X36.1954 Y15.4350 
G01 X36.2329 Y15.3700 
G01 X36.2860 Y15.3169 
G01 X36.3510 Y15.2794 
G01 X36.4235 Y15.2600 
G01 X36.5196 Y15.2600 
G01 X36.5196 Y14.8390 
G01 X36.4235 Y14.8390 
G01 X36.3510 Y14.8196 
G01 X36.2860 Y14.7821 
G01 X36.2329 Y14.7290 
G01 X36.1954 Y14.6640 
G01 X36.1760 Y14.5915 
G01 X36.1760 Y13.2165 
G01 X36.1954 Y13.1440 
G01 X36.2329 Y13.0790 
G01 X36.2860 Y13.0259 
G01 X36.3510 Y12.9884 
G01 X36.4235 Y12.9690 
G01 X37.9985 Y12.9690 
G01 X38.0710 Y12.9884 
G01 X38.1360 Y13.0259 
G01 X38.1891 Y13.0790 
G01 X38.2266 Y13.1440 
G01 X38.2460 Y13.2165 
G01 X38.2460 Y14.5915 
G01 X38.2266 Y14.6640 
G01 X38.1891 Y14.7290 
G01 X38.1360 Y14.7821 
G01 X38.0710 Y14.8196 
G01 X37.9985 Y14.8390 
G01 X37.9024 Y14.8390 
G01 X37.9024 Y15.2600 
G01 X37.9985 Y15.2600 
G01 X38.0626 Y15.2772 
G01 X38.8160 Y14.5237 
G01 X38.8160 Y13.6635 
G01 X38.8354 Y13.5910 
G01 X38.8729 Y13.5260 
G01 X38.9260 Y13.4729 
G01 X38.9910 Y13.4354 
G01 X39.0635 Y13.4160 
G01 X40.4385 Y13.4160 
G01 X40.5110 Y13.4354 
G01 X40.5760 Y13.4729 
G01 X40.6291 Y13.5260 
G01 X40.6666 Y13.5910 
G01 X40.6860 Y13.6635 
G01 X40.6860 Y15.0385 
G01 X40.6666 Y15.1110 
G01 X40.6291 Y15.1760 
G01 X40.5760 Y15.2291 
G01 X40.5110 Y15.2666 
G01 X40.4385 Y15.2860 
G01 X39.5783 Y15.2860 
G01 X38.8623 Y16.0020 
G01 X39.8280 Y16.9677 
G01 X39.9283 Y17.0680 
G01 X39.9993 Y17.1910 
G01 X40.0360 Y17.3280 
G01 X40.0360 Y19.1990 
G01 X40.0551 Y19.2180 
G01 X40.0926 Y19.2830 
G01 X40.1120 Y19.3555 
G01 X40.1120 Y19.3746 
G01 X41.9390 Y19.3746 
G01 X41.9390 Y17.3253 
G01 X41.9584 Y17.2528 
G01 X41.9959 Y17.1878 
G01 X42.0490 Y17.1347 
G01 X42.1140 Y17.0972 
G01 X42.1865 Y17.0778 
G01 X49.7615 Y17.0778 
G01 X49.8340 Y17.0972 
G01 X49.8990 Y17.1347 
G01 X49.9521 Y17.1878 
G01 X49.9896 Y17.2528 
G01 X50.0090 Y17.3253 
G01 X50.0090 Y20.5670 
G01 X58.1560 Y20.5670 
G01 X58.3880 Y20.5975 
G01 X58.6140 Y20.6581 
G01 X58.8302 Y20.7476 
G01 X59.0328 Y20.8646 
G01 X59.2185 Y21.0071 
G01 X59.3175 Y21.1061 
G01 X59.3283 Y21.1078 
G01 X59.5193 Y21.1699 
G01 X59.6982 Y21.2610 
G01 X59.8606 Y21.3790 
G01 X60.0026 Y21.5210 
G01 X60.1206 Y21.6834 
G01 X60.2117 Y21.8623 
G01 X60.2738 Y22.0533 
G01 X60.3052 Y22.2516 
G01 X60.3052 Y22.4524 
G01 X60.2738 Y22.6507 
G01 X60.2117 Y22.8417 
G01 X60.1206 Y23.0206 
G01 X60.0026 Y23.1830 
G01 X59.8606 Y23.3250 
G01 X59.6982 Y23.4430 
G01 X59.5193 Y23.5341 
G01 X59.3283 Y23.5962 
G01 X59.3175 Y23.5979 
G01 X59.2185 Y23.6969 
G01 X59.0328 Y23.8394 
G01 X58.8302 Y23.9564 
G01 X58.6140 Y24.0459 
G01 X58.3880 Y24.1065 
G01 X58.1560 Y24.1370 
G01 X48.3462 Y24.1370 
G01 X48.1142 Y24.1065 
G01 X47.8882 Y24.0459 
G01 X47.6720 Y23.9564 
G01 X47.4694 Y23.8394 
G01 X47.2837 Y23.6969 
G01 X46.2346 Y22.6478 
G01 X42.1865 Y22.6478 
G00 Z2.5400 
G00 X59.3283 Y11.1002 
G01 Z-0.1000 F254.00 
G01 X59.5193 Y11.1623 F200.00 
G01 X59.6982 Y11.2534 
G01 X59.8606 Y11.3714 
G01 X60.0026 Y11.5134 
G01 X60.1206 Y11.6758 
G01 X60.2117 Y11.8547 
G01 X60.2738 Y12.0457 
G01 X60.3052 Y12.2440 
G01 X60.3052 Y12.4448 
G01 X60.2738 Y12.6431 
G01 X60.2117 Y12.8341 
G01 X60.1206 Y13.0130 
G01 X60.0026 Y13.1754 
G01 X59.8606 Y13.3174 
G01 X59.8240 Y13.3440 
G01 X59.8240 Y16.3740 
G01 X59.8606 Y16.4006 
G01 X60.0026 Y16.5426 
G01 X60.1206 Y16.7050 
G01 X60.1866 Y16.8346 
G01 X60.3706 Y16.8346 
G01 X60.5076 Y16.8713 
G01 X60.6306 Y16.9423 
G01 X63.7040 Y20.0157 
G01 X63.8043 Y20.1160 
G01 X63.8753 Y20.2390 
G01 X63.9120 Y20.3760 
G01 X63.9120 Y25.3440 
G01 X63.8753 Y25.4810 
G01 X63.8043 Y25.6040 
G01 X63.7040 Y25.7043 
G01 X61.6453 Y27.7630 
G01 X61.5450 Y27.8633 
G01 X61.4220 Y27.9343 
G01 X61.2850 Y27.9710 
G01 X60.3050 Y27.9710 
G01 X60.3050 Y28.2695 
G01 X60.2856 Y28.3420 
G01 X60.2481 Y28.4070 
G01 X60.1950 Y28.4601 
G01 X60.1300 Y28.4976 
G01 X60.0575 Y28.5170 
G01 X58.6825 Y28.5170 
G01 X58.6100 Y28.4976 
G01 X58.5450 Y28.4601 
G01 X58.4919 Y28.4070 
G01 X58.4544 Y28.3420 
G01 X58.4350 Y28.2695 
G01 X58.4350 Y26.5945 
G01 X58.4544 Y26.5220 
G01 X58.4919 Y26.4570 
G01 X58.5450 Y26.4039 
G01 X58.6100 Y26.3664 
G01 X58.6825 Y26.3470 
G01 X60.0575 Y26.3470 
G01 X60.1300 Y26.3664 
G01 X60.1950 Y26.4039 
G01 X60.2481 Y26.4570 
G01 X60.2856 Y26.5220 
G01 X60.3050 Y26.5945 
G01 X60.3050 Y26.8930 
G01 X60.9907 Y26.8930 
G01 X62.8340 Y25.0497 
G01 X62.8340 Y20.6703 
G01 X60.1494 Y17.9856 
G01 X60.1206 Y18.0422 
G01 X60.0026 Y18.2046 
G01 X59.8606 Y18.3466 
G01 X59.6982 Y18.4646 
G01 X59.5193 Y18.5557 
G01 X59.3283 Y18.6178 
G01 X59.3175 Y18.6195 
G01 X59.2185 Y18.7185 
G01 X59.0328 Y18.8610 
G01 X58.8302 Y18.9779 
G01 X58.6140 Y19.0675 
G01 X58.3880 Y19.1281 
G01 X58.1560 Y19.1586 
G01 X57.9220 Y19.1586 
G01 X57.6900 Y19.1281 
G01 X57.4640 Y19.0675 
G01 X57.2478 Y18.9779 
G01 X57.0452 Y18.8610 
G01 X56.8595 Y18.7185 
G01 X56.7605 Y18.6195 
G01 X56.7497 Y18.6178 
G01 X56.5587 Y18.5557 
G01 X56.3798 Y18.4646 
G01 X56.2174 Y18.3466 
G01 X56.0754 Y18.2046 
G01 X55.9574 Y18.0422 
G01 X55.8663 Y17.8633 
G01 X55.8042 Y17.6723 
G01 X55.7728 Y17.4740 
G01 X55.7728 Y17.2732 
G01 X55.8042 Y17.0749 
G01 X55.8663 Y16.8839 
G01 X55.9574 Y16.7050 
G01 X56.0754 Y16.5426 
G01 X56.2174 Y16.4006 
G01 X56.2540 Y16.3740 
G01 X56.2540 Y13.3440 
G01 X56.2174 Y13.3174 
G01 X56.0754 Y13.1754 
G01 X55.9574 Y13.0130 
G01 X55.8663 Y12.8341 
G01 X55.8042 Y12.6431 
G01 X55.7728 Y12.4448 
G01 X55.7728 Y12.2440 
G01 X55.8042 Y12.0457 
G01 X55.8663 Y11.8547 
G01 X55.9574 Y11.6758 
G01 X56.0754 Y11.5134 
G01 X56.2174 Y11.3714 
G01 X56.3798 Y11.2534 
G01 X56.5587 Y11.1623 
G01 X56.7497 Y11.1002 
G01 X56.7605 Y11.0985 
G01 X56.8595 Y10.9995 
G01 X57.0452 Y10.8570 
G01 X57.2478 Y10.7400 
G01 X57.4640 Y10.6505 
G01 X57.6900 Y10.5899 
G01 X57.9220 Y10.5594 
G01 X58.1560 Y10.5594 
G01 X58.3880 Y10.5899 
G01 X58.6140 Y10.6505 
G01 X58.8302 Y10.7400 
G01 X59.0328 Y10.8570 
G01 X59.2185 Y10.9995 
G01 X59.3175 Y11.0985 
G01 X59.3283 Y11.1002 
G00 Z2.5400 
G00 X27.8745 Y19.7620 
G01 Z-0.1000 F254.00 
G01 X25.5995 Y19.7620 F200.00 
G01 X25.5270 Y19.7426 
G01 X25.4620 Y19.7051 
G01 X25.4089 Y19.6520 
G01 X25.3714 Y19.5870 
G01 X25.3520 Y19.5145 
G01 X25.3520 Y18.8395 
G01 X25.3714 Y18.7670 
G01 X25.4089 Y18.7020 
G01 X25.4620 Y18.6489 
G01 X25.5270 Y18.6114 
G01 X25.5995 Y18.5920 
G01 X27.8745 Y18.5920 
G01 X27.9470 Y18.6114 
G01 X28.0120 Y18.6489 
G01 X28.0651 Y18.7020 
G01 X28.1026 Y18.7670 
G01 X28.1220 Y18.8395 
G01 X28.1220 Y19.5145 
G01 X28.1026 Y19.5870 
G01 X28.0651 Y19.6520 
G01 X28.0120 Y19.7051 
G01 X27.9470 Y19.7426 
G01 X27.8745 Y19.7620 
G00 Z2.5400 
G00 X33.0745 Y19.7620 
G01 Z-0.1000 F254.00 
G01 X30.7995 Y19.7620 F200.00 
G01 X30.7270 Y19.7426 
G01 X30.6620 Y19.7051 
G01 X30.6089 Y19.6520 
G01 X30.5714 Y19.5870 
G01 X30.5520 Y19.5145 
G01 X30.5520 Y18.8395 
G01 X30.5714 Y18.7670 
G01 X30.6089 Y18.7020 
G01 X30.6620 Y18.6489 
G01 X30.7270 Y18.6114 
G01 X30.7995 Y18.5920 
G01 X31.8574 Y18.5920 
G01 X31.9320 Y18.5720 
G01 X35.9717 Y18.5720 
G01 X36.1760 Y18.3677 
G01 X36.1760 Y17.4075 
G01 X36.1954 Y17.3350 
G01 X36.2329 Y17.2700 
G01 X36.2860 Y17.2169 
G01 X36.3510 Y17.1794 
G01 X36.4235 Y17.1600 
G01 X37.9985 Y17.1600 
G01 X38.0710 Y17.1794 
G01 X38.1360 Y17.2169 
G01 X38.1891 Y17.2700 
G01 X38.2266 Y17.3350 
G01 X38.2460 Y17.4075 
G01 X38.2460 Y18.7825 
G01 X38.2266 Y18.8550 
G01 X38.1891 Y18.9200 
G01 X38.1360 Y18.9731 
G01 X38.0710 Y19.0106 
G01 X37.9985 Y19.0300 
G01 X37.9684 Y19.0300 
G01 X37.9684 Y19.1090 
G01 X38.0370 Y19.1274 
G01 X38.1020 Y19.1649 
G01 X38.1551 Y19.2180 
G01 X38.1926 Y19.2830 
G01 X38.2120 Y19.3555 
G01 X38.2120 Y21.0305 
G01 X38.1926 Y21.1030 
G01 X38.1551 Y21.1680 
G01 X38.1020 Y21.2211 
G01 X38.0370 Y21.2586 
G01 X37.9645 Y21.2780 
G01 X36.5895 Y21.2780 
G01 X36.5170 Y21.2586 
G01 X36.4520 Y21.2211 
G01 X36.3989 Y21.1680 
G01 X36.3614 Y21.1030 
G01 X36.3420 Y21.0305 
G01 X36.3420 Y19.6296 
G01 X36.2660 Y19.6500 
G01 X33.2662 Y19.6500 
G01 X33.2120 Y19.7051 
G01 X33.1470 Y19.7426 
G01 X33.0745 Y19.7620 
G00 Z2.5400 
G00 X33.0745 Y18.4920 
G01 Z-0.1000 F254.00 
G01 X30.7995 Y18.4920 F200.00 
G01 X30.7270 Y18.4726 
G01 X30.6620 Y18.4351 
G01 X30.6089 Y18.3820 
G01 X30.5714 Y18.3170 
G01 X30.5520 Y18.2445 
G01 X30.5520 Y17.5695 
G01 X30.5714 Y17.4970 
G01 X30.6089 Y17.4320 
G01 X30.6620 Y17.3789 
G01 X30.7270 Y17.3414 
G01 X30.7995 Y17.3220 
G01 X33.0745 Y17.3220 
G01 X33.1470 Y17.3414 
G01 X33.1930 Y17.3680 
G01 X33.9397 Y17.3680 
G01 X34.5130 Y16.7947 
G01 X34.5130 Y13.1370 
G01 X34.5497 Y13.0000 
G01 X34.6207 Y12.8770 
G01 X35.9250 Y11.5727 
G01 X36.0480 Y11.5017 
G01 X36.1760 Y11.4674 
G01 X36.1760 Y11.3165 
G01 X36.1954 Y11.2440 
G01 X36.2329 Y11.1790 
G01 X36.2860 Y11.1259 
G01 X36.3510 Y11.0884 
G01 X36.4235 Y11.0690 
G01 X36.5856 Y11.0690 
G01 X36.5856 Y10.9900 
G01 X36.5170 Y10.9716 
G01 X36.4520 Y10.9341 
G01 X36.3989 Y10.8810 
G01 X36.3614 Y10.8160 
G01 X36.3420 Y10.7435 
G01 X36.3420 Y9.0685 
G01 X36.3614 Y8.9960 
G01 X36.3989 Y8.9310 
G01 X36.4520 Y8.8779 
G01 X36.5170 Y8.8404 
G01 X36.5895 Y8.8210 
G01 X37.9645 Y8.8210 
G01 X38.0370 Y8.8404 
G01 X38.1020 Y8.8779 
G01 X38.1551 Y8.9310 
G01 X38.1926 Y8.9960 
G01 X38.2120 Y9.0685 
G01 X38.2120 Y10.7435 
G01 X38.1926 Y10.8160 
G01 X38.1551 Y10.8810 
G01 X38.1020 Y10.9341 
G01 X38.0370 Y10.9716 
G01 X37.9684 Y10.9900 
G01 X37.9684 Y11.0690 
G01 X37.9985 Y11.0690 
G01 X38.0710 Y11.0884 
G01 X38.1360 Y11.1259 
G01 X38.1891 Y11.1790 
G01 X38.2266 Y11.2440 
G01 X38.2460 Y11.3165 
G01 X38.2460 Y12.6915 
G01 X38.2266 Y12.7640 
G01 X38.1891 Y12.8290 
G01 X38.1360 Y12.8821 
G01 X38.0710 Y12.9196 
G01 X37.9985 Y12.9390 
G01 X36.4235 Y12.9390 
G01 X36.3510 Y12.9196 
G01 X36.2860 Y12.8821 
G01 X36.2329 Y12.8290 
G01 X36.2184 Y12.8038 
G01 X35.5910 Y13.4313 
G01 X35.5910 Y17.0890 
G01 X35.5543 Y17.2260 
G01 X35.4833 Y17.3490 
G01 X34.5943 Y18.2380 
G01 X34.4940 Y18.3383 
G01 X34.3710 Y18.4093 
G01 X34.2340 Y18.4460 
G01 X33.1930 Y18.4460 
G01 X33.1470 Y18.4726 
G01 X33.0745 Y18.4920 
G00 Z2.5400 
G00 X9.2264 Y7.3970 
G01 Z-0.1000 F254.00 
G01 X7.5376 Y7.3970 F200.00 
G01 X7.3748 Y7.3712 
G01 X7.2181 Y7.3203 
G01 X7.0713 Y7.2455 
G01 X6.9379 Y7.1486 
G01 X6.8214 Y7.0321 
G01 X6.7245 Y6.8987 
G01 X6.6497 Y6.7519 
G01 X6.5988 Y6.5952 
G01 X6.5730 Y6.4324 
G01 X6.5730 Y6.2676 
G01 X6.5988 Y6.1048 
G01 X6.6497 Y5.9481 
G01 X6.7245 Y5.8013 
G01 X6.8214 Y5.6679 
G01 X6.9379 Y5.5514 
G01 X7.0713 Y5.4545 
G01 X7.2181 Y5.3797 
G01 X7.3748 Y5.3288 
G01 X7.5376 Y5.3030 
G01 X9.2264 Y5.3030 
G01 X9.3892 Y5.3288 
G01 X9.5459 Y5.3797 
G01 X9.6927 Y5.4545 
G01 X9.8261 Y5.5514 
G01 X9.9333 Y5.6586 
G01 X14.0381 Y5.6586 
G01 X14.1717 Y5.6852 
G01 X14.2975 Y5.7373 
G01 X14.4107 Y5.8130 
G01 X14.5070 Y5.9093 
G01 X16.2376 Y7.6398 
G01 X17.2587 Y7.6398 
G01 X17.3312 Y7.6592 
G01 X17.3962 Y7.6967 
G01 X17.4493 Y7.7498 
G01 X17.4868 Y7.8148 
G01 X17.5062 Y7.8873 
G01 X17.5062 Y9.6387 
G01 X17.4868 Y9.7112 
G01 X17.4493 Y9.7762 
G01 X17.3962 Y9.8293 
G01 X17.3312 Y9.8668 
G01 X17.2587 Y9.8862 
G01 X15.5073 Y9.8862 
G01 X15.4348 Y9.8668 
G01 X15.3698 Y9.8293 
G01 X15.3167 Y9.7762 
G01 X15.2792 Y9.7112 
G01 X15.2598 Y9.6387 
G01 X15.2598 Y8.6176 
G01 X14.9662 Y8.3240 
G01 X14.9662 Y9.6387 
G01 X14.9468 Y9.7112 
G01 X14.9093 Y9.7762 
G01 X14.8562 Y9.8293 
G01 X14.7912 Y9.8668 
G01 X14.7187 Y9.8862 
G01 X13.6976 Y9.8862 
G01 X11.7130 Y11.8707 
G01 X11.6167 Y11.9670 
G01 X11.5035 Y12.0427 
G01 X11.3777 Y12.0948 
G01 X11.2441 Y12.1214 
G01 X9.9333 Y12.1214 
G01 X9.8261 Y12.2286 
G01 X9.6927 Y12.3255 
G01 X9.5459 Y12.4003 
G01 X9.3892 Y12.4512 
G01 X9.2264 Y12.4770 
G01 X7.5376 Y12.4770 
G01 X7.3748 Y12.4512 
G01 X7.2181 Y12.4003 
G01 X7.0713 Y12.3255 
G01 X6.9379 Y12.2286 
G01 X6.8214 Y12.1121 
G01 X6.7245 Y11.9787 
G01 X6.6497 Y11.8319 
G01 X6.5988 Y11.6752 
G01 X6.5730 Y11.5124 
G01 X6.5730 Y11.3476 
G01 X6.5988 Y11.1848 
G01 X6.6497 Y11.0281 
G01 X6.7245 Y10.8812 
G01 X6.8214 Y10.7479 
G01 X6.9379 Y10.6314 
G01 X7.0713 Y10.5345 
G01 X7.2181 Y10.4597 
G01 X7.3748 Y10.4088 
G01 X7.5376 Y10.3830 
G01 X9.2264 Y10.3830 
G01 X9.3892 Y10.4088 
G01 X9.5459 Y10.4597 
G01 X9.6927 Y10.5345 
G01 X9.8261 Y10.6314 
G01 X9.9333 Y10.7386 
G01 X10.8896 Y10.7386 
G01 X12.7198 Y8.9084 
G01 X12.7198 Y7.8873 
G01 X12.7392 Y7.8148 
G01 X12.7767 Y7.7498 
G01 X12.8298 Y7.6967 
G01 X12.8948 Y7.6592 
G01 X12.9673 Y7.6398 
G01 X14.2820 Y7.6398 
G01 X13.6836 Y7.0414 
G01 X9.9333 Y7.0414 
G01 X9.8261 Y7.1486 
G01 X9.6927 Y7.2455 
G01 X9.5459 Y7.3203 
G01 X9.3892 Y7.3712 
G01 X9.2264 Y7.3970 
G00 Z2.5400 
G00 X9.2264 Y9.9370 
G01 Z-0.1000 F254.00 
G01 X7.5376 Y9.9370 F200.00 
G01 X7.3748 Y9.9112 
G01 X7.2181 Y9.8603 
G01 X7.0713 Y9.7855 
G01 X6.9379 Y9.6886 
G01 X6.8214 Y9.5721 
G01 X6.7245 Y9.4387 
G01 X6.6497 Y9.2919 
G01 X6.5988 Y9.1352 
G01 X6.5730 Y8.9724 
G01 X6.5730 Y8.8076 
G01 X6.5988 Y8.6448 
G01 X6.6497 Y8.4881 
G01 X6.7245 Y8.3413 
G01 X6.8214 Y8.2079 
G01 X6.9379 Y8.0914 
G01 X7.0713 Y7.9945 
G01 X7.2181 Y7.9197 
G01 X7.3748 Y7.8688 
G01 X7.5376 Y7.8430 
G01 X9.2264 Y7.8430 
G01 X9.3892 Y7.8688 
G01 X9.5459 Y7.9197 
G01 X9.6927 Y7.9945 
G01 X9.8261 Y8.0914 
G01 X9.9426 Y8.2079 
G01 X10.0395 Y8.3413 
G01 X10.1143 Y8.4881 
G01 X10.1652 Y8.6448 
G01 X10.1910 Y8.8076 
G01 X10.1910 Y8.9724 
G01 X10.1652 Y9.1352 
G01 X10.1143 Y9.2919 
G01 X10.0395 Y9.4387 
G01 X9.9426 Y9.5721 
G01 X9.8261 Y9.6886 
G01 X9.6927 Y9.7855 
G01 X9.5459 Y9.8603 
G01 X9.3892 Y9.9112 
G01 X9.2264 Y9.9370 
G00 Z2.5400 
G00 X7.4106 Y24.9880 
G01 Z-0.1000 F254.00 
G01 X9.0994 Y24.9880 F200.00 
G01 X9.2622 Y25.0138 
G01 X9.4189 Y25.0647 
G01 X9.5657 Y25.1395 
G01 X9.6991 Y25.2364 
G01 X9.8156 Y25.3529 
G01 X9.9125 Y25.4863 
G01 X9.9873 Y25.6331 
G01 X10.0382 Y25.7898 
G01 X10.0640 Y25.9526 
G01 X10.0640 Y26.1174 
G01 X10.0382 Y26.2802 
G01 X9.9873 Y26.4369 
G01 X9.9125 Y26.5837 
G01 X9.8156 Y26.7171 
G01 X9.7575 Y26.7752 
G01 X10.2563 Y27.2740 
G01 X16.1597 Y27.2740 
G01 X16.6060 Y26.8277 
G01 X16.6060 Y25.4963 
G01 X15.5660 Y24.4563 
G01 X15.5608 Y24.4598 
G01 X15.3888 Y24.5311 
G01 X15.2061 Y24.5674 
G01 X13.6991 Y24.5674 
G01 X13.5164 Y24.5311 
G01 X13.3444 Y24.4598 
G01 X13.1895 Y24.3563 
G01 X13.0579 Y24.2247 
G01 X12.9544 Y24.0698 
G01 X12.8831 Y23.8978 
G01 X12.8468 Y23.7151 
G01 X12.8468 Y23.5289 
G01 X12.8831 Y23.3462 
G01 X12.9544 Y23.1742 
G01 X13.0579 Y23.0193 
G01 X13.1895 Y22.8877 
G01 X13.3444 Y22.7842 
G01 X13.5164 Y22.7129 
G01 X13.6991 Y22.6766 
G01 X15.2061 Y22.6766 
G01 X15.3888 Y22.7129 
G01 X15.5608 Y22.7842 
G01 X15.7157 Y22.8877 
G01 X15.8473 Y23.0193 
G01 X15.9508 Y23.1742 
G01 X16.0221 Y23.3462 
G01 X16.0324 Y23.3981 
G01 X17.4760 Y24.8417 
G01 X17.5763 Y24.9420 
G01 X17.6473 Y25.0650 
G01 X17.6840 Y25.2020 
G01 X17.6840 Y27.1220 
G01 X17.6473 Y27.2590 
G01 X17.5763 Y27.3820 
G01 X16.7140 Y28.2443 
G01 X16.5910 Y28.3153 
G01 X16.4540 Y28.3520 
G01 X9.9620 Y28.3520 
G01 X9.8250 Y28.3153 
G01 X9.7020 Y28.2443 
G01 X8.5397 Y27.0820 
G01 X7.4106 Y27.0820 
G01 X7.2478 Y27.0562 
G01 X7.0911 Y27.0053 
G01 X6.9443 Y26.9305 
G01 X6.8109 Y26.8336 
G01 X6.6944 Y26.7171 
G01 X6.5975 Y26.5837 
G01 X6.5227 Y26.4369 
G01 X6.4718 Y26.2802 
G01 X6.4460 Y26.1174 
G01 X6.4460 Y25.9526 
G01 X6.4718 Y25.7898 
G01 X6.5227 Y25.6331 
G01 X6.5975 Y25.4863 
G01 X6.6944 Y25.3529 
G01 X6.8109 Y25.2364 
G01 X6.9443 Y25.1395 
G01 X7.0911 Y25.0647 
G01 X7.2478 Y25.0138 
G01 X7.4106 Y24.9880 
G00 Z2.5400 
G00 X7.4106 Y19.9080 
G01 Z-0.1000 F254.00 
G01 X9.0994 Y19.9080 F200.00 
G01 X9.2622 Y19.9338 
G01 X9.4189 Y19.9847 
G01 X9.5657 Y20.0595 
G01 X9.6991 Y20.1564 
G01 X9.8156 Y20.2729 
G01 X9.9125 Y20.4063 
G01 X9.9873 Y20.5531 
G01 X10.0382 Y20.7098 
G01 X10.0640 Y20.8726 
G01 X10.0640 Y21.0374 
G01 X10.0382 Y21.2002 
G01 X9.9873 Y21.3569 
G01 X9.9125 Y21.5037 
G01 X9.8156 Y21.6371 
G01 X9.6991 Y21.7536 
G01 X9.5657 Y21.8505 
G01 X9.4189 Y21.9253 
G01 X9.2622 Y21.9762 
G01 X9.0994 Y22.0020 
G01 X7.4106 Y22.0020 
G01 X7.2478 Y21.9762 
G01 X7.0911 Y21.9253 
G01 X6.9443 Y21.8505 
G01 X6.8109 Y21.7536 
G01 X6.6944 Y21.6371 
G01 X6.5975 Y21.5037 
G01 X6.5227 Y21.3569 
G01 X6.4718 Y21.2002 
G01 X6.4460 Y21.0374 
G01 X6.4460 Y20.8726 
G01 X6.4718 Y20.7098 
G01 X6.5227 Y20.5531 
G01 X6.5975 Y20.4063 
G01 X6.6944 Y20.2729 
G01 X6.8109 Y20.1564 
G01 X6.9443 Y20.0595 
G01 X7.0911 Y19.9847 
G01 X7.2478 Y19.9338 
G01 X7.4106 Y19.9080 
G00 Z2.5400 
G00 X7.4106 Y17.3680 
G01 Z-0.1000 F254.00 
G01 X9.0994 Y17.3680 F200.00 
G01 X9.2622 Y17.3938 
G01 X9.4189 Y17.4447 
G01 X9.5657 Y17.5195 
G01 X9.6991 Y17.6164 
G01 X9.8156 Y17.7329 
G01 X9.9125 Y17.8663 
G01 X9.9174 Y17.8760 
G01 X11.0590 Y17.8760 
G01 X11.1960 Y17.9127 
G01 X11.2866 Y17.9650 
G01 X12.3105 Y17.9650 
G01 X12.3830 Y17.9844 
G01 X12.4480 Y18.0219 
G01 X12.5011 Y18.0750 
G01 X12.5386 Y18.1400 
G01 X12.5580 Y18.2125 
G01 X12.5580 Y19.8875 
G01 X12.5386 Y19.9600 
G01 X12.5011 Y20.0250 
G01 X12.4480 Y20.0781 
G01 X12.3830 Y20.1156 
G01 X12.3105 Y20.1350 
G01 X10.9355 Y20.1350 
G01 X10.8630 Y20.1156 
G01 X10.7980 Y20.0781 
G01 X10.7449 Y20.0250 
G01 X10.7074 Y19.9600 
G01 X10.6880 Y19.8875 
G01 X10.6880 Y18.9540 
G01 X9.9174 Y18.9540 
G01 X9.9125 Y18.9637 
G01 X9.8156 Y19.0971 
G01 X9.6991 Y19.2136 
G01 X9.5657 Y19.3105 
G01 X9.4189 Y19.3853 
G01 X9.2622 Y19.4362 
G01 X9.0994 Y19.4620 
G01 X7.4106 Y19.4620 
G01 X7.2478 Y19.4362 
G01 X7.0911 Y19.3853 
G01 X6.9443 Y19.3105 
G01 X6.8109 Y19.2136 
G01 X6.6944 Y19.0971 
G01 X6.5975 Y18.9637 
G01 X6.5227 Y18.8169 
G01 X6.4718 Y18.6602 
G01 X6.4460 Y18.4974 
G01 X6.4460 Y18.3326 
G01 X6.4718 Y18.1698 
G01 X6.5227 Y18.0131 
G01 X6.5975 Y17.8663 
G01 X6.6944 Y17.7329 
G01 X6.8109 Y17.6164 
G01 X6.9443 Y17.5195 
G01 X7.0911 Y17.4447 
G01 X7.2478 Y17.3938 
G01 X7.4106 Y17.3680 
G00 Z2.5400 
G00 X43.9570 Y28.3965 
G01 Z-0.1000 F254.00 
G01 X43.9570 Y26.7215 F200.00 
G01 X43.9764 Y26.6490 
G01 X44.0139 Y26.5840 
G01 X44.0670 Y26.5309 
G01 X44.1320 Y26.4934 
G01 X44.2045 Y26.4740 
G01 X45.5795 Y26.4740 
G01 X45.6520 Y26.4934 
G01 X45.7170 Y26.5309 
G01 X45.7701 Y26.5840 
G01 X45.8076 Y26.6490 
G01 X45.8270 Y26.7215 
G01 X45.8270 Y26.8676 
G01 X46.8830 Y26.8676 
G01 X46.8830 Y26.7215 
G01 X46.9024 Y26.6490 
G01 X46.9399 Y26.5840 
G01 X46.9930 Y26.5309 
G01 X47.0580 Y26.4934 
G01 X47.1305 Y26.4740 
G01 X48.5055 Y26.4740 
G01 X48.5780 Y26.4934 
G01 X48.6430 Y26.5309 
G01 X48.6961 Y26.5840 
G01 X48.7336 Y26.6490 
G01 X48.7530 Y26.7215 
G01 X48.7530 Y28.3965 
G01 X48.7336 Y28.4690 
G01 X48.6961 Y28.5340 
G01 X48.6430 Y28.5871 
G01 X48.5780 Y28.6246 
G01 X48.5055 Y28.6440 
G01 X47.1305 Y28.6440 
G01 X47.0580 Y28.6246 
G01 X46.9930 Y28.5871 
G01 X46.9399 Y28.5340 
G01 X46.9024 Y28.4690 
G01 X46.8830 Y28.3965 
G01 X46.8830 Y28.2504 
G01 X45.8270 Y28.2504 
G01 X45.8270 Y28.3965 
G01 X45.8076 Y28.4690 
G01 X45.7701 Y28.5340 
G01 X45.7170 Y28.5871 
G01 X45.6520 Y28.6246 
G01 X45.5795 Y28.6440 
G01 X44.2045 Y28.6440 
G01 X44.1320 Y28.6246 
G01 X44.0670 Y28.5871 
G01 X44.0139 Y28.5340 
G01 X43.9764 Y28.4690 
G01 X43.9570 Y28.3965 
G00 Z2.5400 
G00 X36.3420 Y28.3965 
G01 Z-0.1000 F254.00 
G01 X36.3420 Y26.9550 F200.00 
G01 X35.9970 Y26.9550 
G01 X35.8600 Y26.9183 
G01 X35.7370 Y26.8473 
G01 X35.6367 Y26.7470 
G01 X33.7050 Y24.8153 
G01 X33.6047 Y24.7150 
G01 X33.5337 Y24.5920 
G01 X33.4970 Y24.4550 
G01 X33.4970 Y22.7693 
G01 X31.7597 Y21.0320 
G01 X30.7995 Y21.0320 
G01 X30.7270 Y21.0126 
G01 X30.6620 Y20.9751 
G01 X30.6089 Y20.9220 
G01 X30.5714 Y20.8570 
G01 X30.5520 Y20.7845 
G01 X30.5520 Y20.1095 
G01 X30.5714 Y20.0370 
G01 X30.6089 Y19.9720 
G01 X30.6620 Y19.9189 
G01 X30.7270 Y19.8814 
G01 X30.7995 Y19.8620 
G01 X33.0745 Y19.8620 
G01 X33.1470 Y19.8814 
G01 X33.2120 Y19.9189 
G01 X33.2651 Y19.9720 
G01 X33.3026 Y20.0370 
G01 X33.3220 Y20.1095 
G01 X33.3220 Y20.7845 
G01 X33.3026 Y20.8570 
G01 X33.2651 Y20.9220 
G01 X33.2197 Y20.9674 
G01 X34.3670 Y22.1147 
G01 X34.4673 Y22.2150 
G01 X34.5383 Y22.3380 
G01 X34.5750 Y22.4750 
G01 X34.5750 Y24.1607 
G01 X36.2913 Y25.8770 
G01 X36.3475 Y25.8770 
G01 X36.3420 Y25.8565 
G01 X36.3420 Y24.1815 
G01 X36.3614 Y24.1090 
G01 X36.3989 Y24.0440 
G01 X36.4520 Y23.9909 
G01 X36.5170 Y23.9534 
G01 X36.5856 Y23.9350 
G01 X36.5856 Y23.6400 
G01 X36.5170 Y23.6216 
G01 X36.4520 Y23.5841 
G01 X36.3989 Y23.5310 
G01 X36.3614 Y23.4660 
G01 X36.3420 Y23.3935 
G01 X36.3420 Y21.8185 
G01 X36.3614 Y21.7460 
G01 X36.3989 Y21.6810 
G01 X36.4520 Y21.6279 
G01 X36.5170 Y21.5904 
G01 X36.5895 Y21.5710 
G01 X37.9645 Y21.5710 
G01 X38.0370 Y21.5904 
G01 X38.1020 Y21.6279 
G01 X38.1551 Y21.6810 
G01 X38.1926 Y21.7460 
G01 X38.2120 Y21.8185 
G01 X38.2120 Y23.3935 
G01 X38.1926 Y23.4660 
G01 X38.1551 Y23.5310 
G01 X38.1020 Y23.5841 
G01 X38.0370 Y23.6216 
G01 X37.9684 Y23.6400 
G01 X37.9684 Y23.9350 
G01 X38.0370 Y23.9534 
G01 X38.1020 Y23.9909 
G01 X38.1551 Y24.0440 
G01 X38.1926 Y24.1090 
G01 X38.2120 Y24.1815 
G01 X38.2120 Y25.8565 
G01 X38.1926 Y25.9290 
G01 X38.1551 Y25.9940 
G01 X38.1020 Y26.0471 
G01 X38.0370 Y26.0846 
G01 X37.9684 Y26.1030 
G01 X37.9684 Y26.4750 
G01 X38.0370 Y26.4934 
G01 X38.1020 Y26.5309 
G01 X38.1551 Y26.5840 
G01 X38.1926 Y26.6490 
G01 X38.2120 Y26.7215 
G01 X38.2120 Y28.3965 
G01 X38.1926 Y28.4690 
G01 X38.1551 Y28.5340 
G01 X38.1020 Y28.5871 
G01 X38.0370 Y28.6246 
G01 X37.9645 Y28.6440 
G01 X36.5895 Y28.6440 
G01 X36.5170 Y28.6246 
G01 X36.4520 Y28.5871 
G01 X36.3989 Y28.5340 
G01 X36.3614 Y28.4690 
G01 X36.3420 Y28.3965 
G00 Z2.5400 
G00 X38.2420 Y28.3965 
G01 Z-0.1000 F254.00 
G01 X38.2420 Y26.7215 F200.00 
G01 X38.2614 Y26.6490 
G01 X38.2989 Y26.5840 
G01 X38.3520 Y26.5309 
G01 X38.4170 Y26.4934 
G01 X38.4895 Y26.4740 
G01 X39.8645 Y26.4740 
G01 X39.9370 Y26.4934 
G01 X40.0020 Y26.5309 
G01 X40.0551 Y26.5840 
G01 X40.0926 Y26.6490 
G01 X40.1120 Y26.7215 
G01 X40.1120 Y26.8676 
G01 X42.0570 Y26.8676 
G01 X42.0570 Y26.7215 
G01 X42.0764 Y26.6490 
G01 X42.1139 Y26.5840 
G01 X42.1670 Y26.5309 
G01 X42.2320 Y26.4934 
G01 X42.3045 Y26.4740 
G01 X43.6795 Y26.4740 
G01 X43.7520 Y26.4934 
G01 X43.8170 Y26.5309 
G01 X43.8701 Y26.5840 
G01 X43.9076 Y26.6490 
G01 X43.9270 Y26.7215 
G01 X43.9270 Y28.3965 
G01 X43.9076 Y28.4690 
G01 X43.8701 Y28.5340 
G01 X43.8170 Y28.5871 
G01 X43.7520 Y28.6246 
G01 X43.6795 Y28.6440 
G01 X42.3045 Y28.6440 
G01 X42.2320 Y28.6246 
G01 X42.1670 Y28.5871 
G01 X42.1139 Y28.5340 
G01 X42.0764 Y28.4690 
G01 X42.0570 Y28.3965 
G01 X42.0570 Y28.2504 
G01 X40.1120 Y28.2504 
G01 X40.1120 Y28.3965 
G01 X40.0926 Y28.4690 
G01 X40.0551 Y28.5340 
G01 X40.0020 Y28.5871 
G01 X39.9370 Y28.6246 
G01 X39.8645 Y28.6440 
G01 X38.4895 Y28.6440 
G01 X38.4170 Y28.6246 
G01 X38.3520 Y28.5871 
G01 X38.2989 Y28.5340 
G01 X38.2614 Y28.4690 
G01 X38.2420 Y28.3965 
G00 Z2.5400 
G00 X38.2420 Y10.7435 
G01 Z-0.1000 F254.00 
G01 X38.2420 Y9.0685 F200.00 
G01 X38.2614 Y8.9960 
G01 X38.2989 Y8.9310 
G01 X38.3520 Y8.8779 
G01 X38.4170 Y8.8404 
G01 X38.4895 Y8.8210 
G01 X39.8645 Y8.8210 
G01 X39.9370 Y8.8404 
G01 X40.0020 Y8.8779 
G01 X40.0551 Y8.9310 
G01 X40.0926 Y8.9960 
G01 X40.1120 Y9.0685 
G01 X40.1120 Y9.2146 
G01 X41.9390 Y9.2146 
G01 X41.9390 Y7.3177 
G01 X41.9584 Y7.2452 
G01 X41.9959 Y7.1802 
G01 X42.0490 Y7.1271 
G01 X42.1140 Y7.0896 
G01 X42.1865 Y7.0702 
G01 X46.2346 Y7.0702 
G01 X47.2837 Y6.0211 
G01 X47.4694 Y5.8786 
G01 X47.6720 Y5.7616 
G01 X47.8882 Y5.6721 
G01 X48.1142 Y5.6115 
G01 X48.3462 Y5.5810 
G01 X58.1560 Y5.5810 
G01 X58.3880 Y5.6115 
G01 X58.6140 Y5.6721 
G01 X58.8302 Y5.7616 
G01 X59.0328 Y5.8786 
G01 X59.2185 Y6.0211 
G01 X59.3175 Y6.1201 
G01 X59.3283 Y6.1218 
G01 X59.5193 Y6.1839 
G01 X59.6982 Y6.2750 
G01 X59.8606 Y6.3930 
G01 X60.0026 Y6.5350 
G01 X60.1206 Y6.6974 
G01 X60.2117 Y6.8763 
G01 X60.2738 Y7.0673 
G01 X60.3052 Y7.2656 
G01 X60.3052 Y7.4664 
G01 X60.2738 Y7.6647 
G01 X60.2117 Y7.8557 
G01 X60.1206 Y8.0346 
G01 X60.0026 Y8.1970 
G01 X59.8606 Y8.3390 
G01 X59.6982 Y8.4570 
G01 X59.5193 Y8.5481 
G01 X59.3283 Y8.6102 
G01 X59.3175 Y8.6119 
G01 X59.2185 Y8.7109 
G01 X59.0328 Y8.8534 
G01 X58.8302 Y8.9703 
G01 X58.6140 Y9.0599 
G01 X58.3880 Y9.1205 
G01 X58.1560 Y9.1510 
G01 X50.0090 Y9.1510 
G01 X50.0090 Y12.3927 
G01 X49.9896 Y12.4652 
G01 X49.9521 Y12.5302 
G01 X49.8990 Y12.5833 
G01 X49.8340 Y12.6208 
G01 X49.7615 Y12.6402 
G01 X42.1865 Y12.6402 
G01 X42.1140 Y12.6208 
G01 X42.0490 Y12.5833 
G01 X41.9959 Y12.5302 
G01 X41.9584 Y12.4652 
G01 X41.9390 Y12.3927 
G01 X41.9390 Y10.5974 
G01 X40.1120 Y10.5974 
G01 X40.1120 Y10.7435 
G01 X40.0926 Y10.8160 
G01 X40.0551 Y10.8810 
G01 X40.0020 Y10.9341 
G01 X39.9370 Y10.9716 
G01 X39.8645 Y10.9910 
G01 X38.4895 Y10.9910 
G01 X38.4170 Y10.9716 
G01 X38.3520 Y10.9341 
G01 X38.2989 Y10.8810 
G01 X38.2614 Y10.8160 
G01 X38.2420 Y10.7435 
G00 Z2.5400 
G00 X10.7195 Y21.8640 
G01 Z-0.1000 F254.00 
G01 X11.7297 Y21.8640 F200.00 
G01 X12.4617 Y21.1320 
G01 X12.5620 Y21.0317 
G01 X12.6850 Y20.9607 
G01 X12.8220 Y20.9240 
G01 X15.2707 Y20.9240 
G01 X16.4790 Y19.7157 
G01 X16.4790 Y15.8443 
G01 X15.6930 Y15.0583 
G01 X15.6878 Y15.0618 
G01 X15.5158 Y15.1331 
G01 X15.3331 Y15.1694 
G01 X13.8261 Y15.1694 
G01 X13.6434 Y15.1331 
G01 X13.4714 Y15.0618 
G01 X13.3165 Y14.9583 
G01 X13.1849 Y14.8267 
G01 X13.1423 Y14.7630 
G01 X10.1293 Y14.7630 
G01 X9.7575 Y15.1348 
G01 X9.8156 Y15.1929 
G01 X9.9125 Y15.3262 
G01 X9.9873 Y15.4731 
G01 X10.0382 Y15.6298 
G01 X10.0640 Y15.7926 
G01 X10.0640 Y15.9574 
G01 X10.0382 Y16.1202 
G01 X9.9873 Y16.2769 
G01 X9.9125 Y16.4237 
G01 X9.8156 Y16.5571 
G01 X9.6991 Y16.6736 
G01 X9.5657 Y16.7705 
G01 X9.4189 Y16.8453 
G01 X9.2622 Y16.8962 
G01 X9.0994 Y16.9220 
G01 X7.4106 Y16.9220 
G01 X7.2478 Y16.8962 
G01 X7.0911 Y16.8453 
G01 X6.9443 Y16.7705 
G01 X6.8109 Y16.6736 
G01 X6.6944 Y16.5571 
G01 X6.5975 Y16.4237 
G01 X6.5227 Y16.2769 
G01 X6.4718 Y16.1202 
G01 X6.4460 Y15.9574 
G01 X6.4460 Y15.7926 
G01 X6.4718 Y15.6298 
G01 X6.5227 Y15.4731 
G01 X6.5975 Y15.3262 
G01 X6.6944 Y15.1929 
G01 X6.8109 Y15.0764 
G01 X6.9443 Y14.9795 
G01 X7.0911 Y14.9047 
G01 X7.2478 Y14.8538 
G01 X7.4106 Y14.8280 
G01 X8.5397 Y14.8280 
G01 X9.5750 Y13.7927 
G01 X9.6980 Y13.7217 
G01 X9.8350 Y13.6850 
G01 X13.1423 Y13.6850 
G01 X13.1849 Y13.6213 
G01 X13.3165 Y13.4897 
G01 X13.4714 Y13.3862 
G01 X13.6434 Y13.3149 
G01 X13.8261 Y13.2786 
G01 X15.3331 Y13.2786 
G01 X15.5158 Y13.3149 
G01 X15.6878 Y13.3862 
G01 X15.8427 Y13.4897 
G01 X15.9743 Y13.6213 
G01 X16.0778 Y13.7762 
G01 X16.1491 Y13.9482 
G01 X16.1594 Y14.0001 
G01 X17.4493 Y15.2900 
G01 X17.5203 Y15.4130 
G01 X17.5570 Y15.5500 
G01 X17.5570 Y20.0100 
G01 X17.5203 Y20.1470 
G01 X17.4493 Y20.2700 
G01 X17.3490 Y20.3703 
G01 X15.8250 Y21.8943 
G01 X15.7020 Y21.9653 
G01 X15.5650 Y22.0020 
G01 X13.1163 Y22.0020 
G01 X12.6420 Y22.4763 
G01 X12.6420 Y23.4865 
G01 X12.6226 Y23.5590 
G01 X12.5851 Y23.6240 
G01 X12.5320 Y23.6771 
G01 X12.4670 Y23.7146 
G01 X12.3945 Y23.7340 
G01 X10.7195 Y23.7340 
G01 X10.6470 Y23.7146 
G01 X10.5820 Y23.6771 
G01 X10.5289 Y23.6240 
G01 X10.4914 Y23.5590 
G01 X10.4720 Y23.4865 
G01 X10.4720 Y22.1115 
G01 X10.4914 Y22.0390 
G01 X10.5289 Y21.9740 
G01 X10.5820 Y21.9209 
G01 X10.6470 Y21.8834 
G01 X10.7195 Y21.8640 
G00 Z2.5400 
G00 X10.7195 Y23.7640 
G01 Z-0.1000 F254.00 
G01 X12.3945 Y23.7640 F200.00 
G01 X12.4670 Y23.7834 
G01 X12.5320 Y23.8209 
G01 X12.5851 Y23.8740 
G01 X12.6226 Y23.9390 
G01 X12.6420 Y24.0115 
G01 X12.6420 Y25.0217 
G01 X13.1187 Y25.4985 
G01 X13.1895 Y25.4277 
G01 X13.3444 Y25.3242 
G01 X13.5164 Y25.2529 
G01 X13.6991 Y25.2166 
G01 X15.2061 Y25.2166 
G01 X15.3888 Y25.2529 
G01 X15.5608 Y25.3242 
G01 X15.7157 Y25.4277 
G01 X15.8473 Y25.5593 
G01 X15.9508 Y25.7142 
G01 X16.0221 Y25.8862 
G01 X16.0584 Y26.0689 
G01 X16.0584 Y26.2551 
G01 X16.0221 Y26.4378 
G01 X15.9508 Y26.6098 
G01 X15.8473 Y26.7647 
G01 X15.7157 Y26.8963 
G01 X15.5608 Y26.9998 
G01 X15.3888 Y27.0711 
G01 X15.2061 Y27.1074 
G01 X13.6991 Y27.1074 
G01 X13.5164 Y27.0711 
G01 X13.3444 Y26.9998 
G01 X13.1895 Y26.8963 
G01 X13.0579 Y26.7647 
G01 X13.0153 Y26.7010 
G01 X12.9490 Y26.7010 
G01 X12.8120 Y26.6643 
G01 X12.6890 Y26.5933 
G01 X11.7297 Y25.6340 
G01 X10.7195 Y25.6340 
G01 X10.6470 Y25.6146 
G01 X10.5820 Y25.5771 
G01 X10.5289 Y25.5240 
G01 X10.4914 Y25.4590 
G01 X10.4720 Y25.3865 
G01 X10.4720 Y25.1110 
G01 X9.8960 Y25.1110 
G01 X9.7590 Y25.0743 
G01 X9.6360 Y25.0033 
G01 X9.1644 Y24.5317 
G01 X9.0994 Y24.5420 
G01 X7.4106 Y24.5420 
G01 X7.2478 Y24.5162 
G01 X7.0911 Y24.4653 
G01 X6.9443 Y24.3905 
G01 X6.8109 Y24.2936 
G01 X6.6944 Y24.1771 
G01 X6.5975 Y24.0437 
G01 X6.5227 Y23.8969 
G01 X6.4718 Y23.7402 
G01 X6.4460 Y23.5774 
G01 X6.4460 Y23.4126 
G01 X6.4718 Y23.2498 
G01 X6.5227 Y23.0931 
G01 X6.5975 Y22.9463 
G01 X6.6944 Y22.8129 
G01 X6.8109 Y22.6964 
G01 X6.9443 Y22.5995 
G01 X7.0911 Y22.5247 
G01 X7.2478 Y22.4738 
G01 X7.4106 Y22.4480 
G01 X9.0994 Y22.4480 
G01 X9.2622 Y22.4738 
G01 X9.4189 Y22.5247 
G01 X9.5657 Y22.5995 
G01 X9.6991 Y22.6964 
G01 X9.8156 Y22.8129 
G01 X9.9125 Y22.9463 
G01 X9.9873 Y23.0931 
G01 X10.0382 Y23.2498 
G01 X10.0640 Y23.4126 
G01 X10.0640 Y23.5774 
G01 X10.0382 Y23.7402 
G01 X10.0037 Y23.8464 
G01 X10.1903 Y24.0330 
G01 X10.4720 Y24.0330 
G01 X10.4720 Y24.0115 
G01 X10.4914 Y23.9390 
G01 X10.5289 Y23.8740 
G01 X10.5820 Y23.8209 
G01 X10.6470 Y23.7834 
G01 X10.7195 Y23.7640 
G00 Z2.5400 
G00 X26.6900 Y24.4595 
G01 Z-0.1000 F254.00 
G01 X26.6900 Y24.3134 F200.00 
G01 X24.6994 Y24.3134 
G01 X24.6565 Y24.3563 
G01 X24.5016 Y24.4598 
G01 X24.3296 Y24.5311 
G01 X24.1469 Y24.5674 
G01 X22.6399 Y24.5674 
G01 X22.4572 Y24.5311 
G01 X22.2852 Y24.4598 
G01 X22.1303 Y24.3563 
G01 X21.9987 Y24.2247 
G01 X21.8952 Y24.0698 
G01 X21.8239 Y23.8978 
G01 X21.7876 Y23.7151 
G01 X21.7876 Y23.5289 
G01 X21.8239 Y23.3462 
G01 X21.8952 Y23.1742 
G01 X21.9987 Y23.0193 
G01 X22.1303 Y22.8877 
G01 X22.2852 Y22.7842 
G01 X22.4572 Y22.7129 
G01 X22.6399 Y22.6766 
G01 X24.1469 Y22.6766 
G01 X24.3296 Y22.7129 
G01 X24.5016 Y22.7842 
G01 X24.6565 Y22.8877 
G01 X24.6994 Y22.9306 
G01 X26.6900 Y22.9306 
G01 X26.6900 Y22.7845 
G01 X26.7094 Y22.7120 
G01 X26.7469 Y22.6470 
G01 X26.8000 Y22.5939 
G01 X26.8650 Y22.5564 
G01 X26.9375 Y22.5370 
G01 X28.3125 Y22.5370 
G01 X28.3850 Y22.5564 
G01 X28.4500 Y22.5939 
G01 X28.5031 Y22.6470 
G01 X28.5406 Y22.7120 
G01 X28.5600 Y22.7845 
G01 X28.5600 Y24.4595 
G01 X28.5406 Y24.5320 
G01 X28.5031 Y24.5970 
G01 X28.4500 Y24.6501 
G01 X28.3850 Y24.6876 
G01 X28.3125 Y24.7070 
G01 X26.9375 Y24.7070 
G01 X26.8650 Y24.6876 
G01 X26.8000 Y24.6501 
G01 X26.7469 Y24.5970 
G01 X26.7094 Y24.5320 
G01 X26.6900 Y24.4595 
G00 Z2.5400 
G00 X28.5900 Y24.4595 
G01 Z-0.1000 F254.00 
G01 X28.5900 Y22.7845 F200.00 
G01 X28.6094 Y22.7120 
G01 X28.6469 Y22.6470 
G01 X28.7000 Y22.5939 
G01 X28.7650 Y22.5564 
G01 X28.8375 Y22.5370 
G01 X28.9860 Y22.5370 
G01 X28.9860 Y18.4460 
G01 X27.9930 Y18.4460 
G01 X27.9470 Y18.4726 
G01 X27.8745 Y18.4920 
G01 X25.5995 Y18.4920 
G01 X25.5270 Y18.4726 
G01 X25.4620 Y18.4351 
G01 X25.4089 Y18.3820 
G01 X25.3714 Y18.3170 
G01 X25.3520 Y18.2445 
G01 X25.3520 Y17.5695 
G01 X25.3714 Y17.4970 
G01 X25.4089 Y17.4320 
G01 X25.4620 Y17.3789 
G01 X25.5270 Y17.3414 
G01 X25.5995 Y17.3220 
G01 X27.8745 Y17.3220 
G01 X27.9470 Y17.3414 
G01 X27.9930 Y17.3680 
G01 X29.5960 Y17.3680 
G01 X29.7330 Y17.4047 
G01 X29.8560 Y17.4757 
G01 X29.9563 Y17.5760 
G01 X30.0273 Y17.6990 
G01 X30.0640 Y17.8360 
G01 X30.0640 Y22.5370 
G01 X30.2125 Y22.5370 
G01 X30.2850 Y22.5564 
G01 X30.3500 Y22.5939 
G01 X30.4031 Y22.6470 
G01 X30.4406 Y22.7120 
G01 X30.4600 Y22.7845 
G01 X30.4600 Y24.4595 
G01 X30.4406 Y24.5320 
G01 X30.4031 Y24.5970 
G01 X30.3500 Y24.6501 
G01 X30.2850 Y24.6876 
G01 X30.2125 Y24.7070 
G01 X28.8375 Y24.7070 
G01 X28.7650 Y24.6876 
G01 X28.7000 Y24.6501 
G01 X28.6469 Y24.5970 
G01 X28.6094 Y24.5320 
G01 X28.5900 Y24.4595 
G00 Z2.5400 
G00 X56.5350 Y28.2695 
G01 Z-0.1000 F254.00 
G01 X56.5350 Y28.1234 F200.00 
G01 X55.6060 Y28.1234 
G01 X55.6060 Y28.2695 
G01 X55.5866 Y28.3420 
G01 X55.5491 Y28.4070 
G01 X55.4960 Y28.4601 
G01 X55.4310 Y28.4976 
G01 X55.3585 Y28.5170 
G01 X53.9835 Y28.5170 
G01 X53.9110 Y28.4976 
G01 X53.8460 Y28.4601 
G01 X53.7929 Y28.4070 
G01 X53.7554 Y28.3420 
G01 X53.7360 Y28.2695 
G01 X53.7360 Y26.5945 
G01 X53.7554 Y26.5220 
G01 X53.7929 Y26.4570 
G01 X53.8460 Y26.4039 
G01 X53.9110 Y26.3664 
G01 X53.9835 Y26.3470 
G01 X55.3585 Y26.3470 
G01 X55.4310 Y26.3664 
G01 X55.4960 Y26.4039 
G01 X55.5491 Y26.4570 
G01 X55.5866 Y26.5220 
G01 X55.6060 Y26.5945 
G01 X55.6060 Y26.7406 
G01 X56.5350 Y26.7406 
G01 X56.5350 Y26.5945 
G01 X56.5544 Y26.5220 
G01 X56.5919 Y26.4570 
G01 X56.6450 Y26.4039 
G01 X56.7100 Y26.3664 
G01 X56.7825 Y26.3470 
G01 X58.1575 Y26.3470 
G01 X58.2300 Y26.3664 
G01 X58.2950 Y26.4039 
G01 X58.3481 Y26.4570 
G01 X58.3856 Y26.5220 
G01 X58.4050 Y26.5945 
G01 X58.4050 Y28.2695 
G01 X58.3856 Y28.3420 
G01 X58.3481 Y28.4070 
G01 X58.2950 Y28.4601 
G01 X58.2300 Y28.4976 
G01 X58.1575 Y28.5170 
G01 X56.7825 Y28.5170 
G01 X56.7100 Y28.4976 
G01 X56.6450 Y28.4601 
G01 X56.5919 Y28.4070 
G01 X56.5544 Y28.3420 
G01 X56.5350 Y28.2695 
G00 Z2.5400 
G00 X48.7830 Y28.3965 
G01 Z-0.1000 F254.00 
G01 X48.7830 Y26.7215 F200.00 
G01 X48.8024 Y26.6490 
G01 X48.8399 Y26.5840 
G01 X48.8930 Y26.5309 
G01 X48.9580 Y26.4934 
G01 X49.0305 Y26.4740 
G01 X50.4055 Y26.4740 
G01 X50.4780 Y26.4934 
G01 X50.5430 Y26.5309 
G01 X50.5961 Y26.5840 
G01 X50.6336 Y26.6490 
G01 X50.6530 Y26.7215 
G01 X50.6530 Y26.8676 
G01 X51.8360 Y26.8676 
G01 X51.8360 Y26.5945 
G01 X51.8554 Y26.5220 
G01 X51.8929 Y26.4570 
G01 X51.9460 Y26.4039 
G01 X52.0110 Y26.3664 
G01 X52.0835 Y26.3470 
G01 X53.4585 Y26.3470 
G01 X53.5310 Y26.3664 
G01 X53.5960 Y26.4039 
G01 X53.6491 Y26.4570 
G01 X53.6866 Y26.5220 
G01 X53.7060 Y26.5945 
G01 X53.7060 Y28.2695 
G01 X53.6866 Y28.3420 
G01 X53.6491 Y28.4070 
G01 X53.5960 Y28.4601 
G01 X53.5310 Y28.4976 
G01 X53.4585 Y28.5170 
G01 X52.0835 Y28.5170 
G01 X52.0110 Y28.4976 
G01 X51.9460 Y28.4601 
G01 X51.8929 Y28.4070 
G01 X51.8554 Y28.3420 
G01 X51.8360 Y28.2695 
G01 X51.8360 Y28.2504 
G01 X50.6530 Y28.2504 
G01 X50.6530 Y28.3965 
G01 X50.6336 Y28.4690 
G01 X50.5961 Y28.5340 
G01 X50.5430 Y28.5871 
G01 X50.4780 Y28.6246 
G01 X50.4055 Y28.6440 
G01 X49.0305 Y28.6440 
G01 X48.9580 Y28.6246 
G01 X48.8930 Y28.5871 
G01 X48.8399 Y28.5340 
G01 X48.8024 Y28.4690 
G01 X48.7830 Y28.3965 
G00 Z2.5400 
G00 X13.8261 Y15.8186 
G01 Z-0.1000 F254.00 
G01 X15.3331 Y15.8186 F200.00 
G01 X15.5158 Y15.8549 
G01 X15.6878 Y15.9262 
G01 X15.8427 Y16.0297 
G01 X15.9743 Y16.1613 
G01 X16.0778 Y16.3162 
G01 X16.1491 Y16.4882 
G01 X16.1854 Y16.6709 
G01 X16.1854 Y16.8571 
G01 X16.1491 Y17.0398 
G01 X16.0778 Y17.2118 
G01 X15.9743 Y17.3667 
G01 X15.8427 Y17.4983 
G01 X15.7194 Y17.5807 
G01 X15.6713 Y17.6640 
G01 X15.5710 Y17.7643 
G01 X14.4580 Y18.8773 
G01 X14.4580 Y19.8875 
G01 X14.4386 Y19.9600 
G01 X14.4011 Y20.0250 
G01 X14.3480 Y20.0781 
G01 X14.2830 Y20.1156 
G01 X14.2105 Y20.1350 
G01 X12.8355 Y20.1350 
G01 X12.7630 Y20.1156 
G01 X12.6980 Y20.0781 
G01 X12.6449 Y20.0250 
G01 X12.6074 Y19.9600 
G01 X12.5880 Y19.8875 
G01 X12.5880 Y18.2125 
G01 X12.6074 Y18.1400 
G01 X12.6449 Y18.0750 
G01 X12.6980 Y18.0219 
G01 X12.7630 Y17.9844 
G01 X12.8355 Y17.9650 
G01 X13.8457 Y17.9650 
G01 X14.1013 Y17.7094 
G01 X13.8261 Y17.7094 
G01 X13.6434 Y17.6731 
G01 X13.4714 Y17.6018 
G01 X13.3165 Y17.4983 
G01 X13.1849 Y17.3667 
G01 X13.0814 Y17.2118 
G01 X13.0101 Y17.0398 
G01 X12.9738 Y16.8571 
G01 X12.9738 Y16.6709 
G01 X13.0101 Y16.4882 
G01 X13.0814 Y16.3162 
G01 X13.1849 Y16.1613 
G01 X13.3165 Y16.0297 
G01 X13.4714 Y15.9262 
G01 X13.6434 Y15.8549 
G01 X13.8261 Y15.8186 
G00 Z2.5400 
G00 X34.0670 Y13.0435 
G01 Z-0.1000 F254.00 
G01 X34.0670 Y14.8965 F200.00 
G01 X34.0476 Y14.9690 
G01 X34.0101 Y15.0340 
G01 X33.9570 Y15.0871 
G01 X33.8920 Y15.1246 
G01 X33.8195 Y15.1440 
G01 X31.9665 Y15.1440 
G01 X31.8940 Y15.1246 
G01 X31.8290 Y15.0871 
G01 X31.7759 Y15.0340 
G01 X31.7384 Y14.9690 
G01 X31.7190 Y14.8965 
G01 X31.7190 Y13.0435 
G01 X31.7384 Y12.9710 
G01 X31.7759 Y12.9060 
G01 X31.8290 Y12.8529 
G01 X31.8940 Y12.8154 
G01 X31.9665 Y12.7960 
G01 X32.3540 Y12.7960 
G01 X32.3540 Y11.3932 
G01 X32.3495 Y11.3527 
G01 X32.3540 Y11.3226 
G01 X32.3540 Y11.2921 
G01 X32.3646 Y11.2527 
G01 X32.3707 Y11.2123 
G01 X32.3829 Y11.1845 
G01 X32.3907 Y11.1551 
G01 X32.4112 Y11.1197 
G01 X32.4275 Y11.0823 
G01 X32.4465 Y11.0585 
G01 X32.4617 Y11.0322 
G01 X32.4906 Y11.0033 
G01 X32.5160 Y10.9714 
G01 X32.5405 Y10.9533 
G01 X32.5620 Y10.9318 
G01 X32.5974 Y10.9114 
G01 X32.6303 Y10.8872 
G01 X32.6586 Y10.8761 
G01 X32.6850 Y10.8608 
G01 X32.6970 Y10.8576 
G01 X32.6970 Y10.0415 
G01 X32.7164 Y9.9690 
G01 X32.7539 Y9.9040 
G01 X32.8070 Y9.8509 
G01 X32.8720 Y9.8134 
G01 X32.9445 Y9.7940 
G01 X34.6195 Y9.7940 
G01 X34.6920 Y9.8134 
G01 X34.7570 Y9.8509 
G01 X34.8101 Y9.9040 
G01 X34.8476 Y9.9690 
G01 X34.8670 Y10.0415 
G01 X34.8670 Y11.4165 
G01 X34.8476 Y11.4890 
G01 X34.8101 Y11.5540 
G01 X34.7570 Y11.6071 
G01 X34.6920 Y11.6446 
G01 X34.6195 Y11.6640 
G01 X33.6025 Y11.6640 
G01 X33.4320 Y11.7308 
G01 X33.4320 Y12.7960 
G01 X33.8195 Y12.7960 
G01 X33.8920 Y12.8154 
G01 X33.9570 Y12.8529 
G01 X34.0101 Y12.9060 
G01 X34.0476 Y12.9710 
G01 X34.0670 Y13.0435 
G00 Z2.5400 
G00 X22.3980 Y10.7425 
G01 Z-0.1000 F254.00 
G01 X22.3980 Y12.1175 F200.00 
G01 X22.3786 Y12.1900 
G01 X22.3411 Y12.2550 
G01 X22.2880 Y12.3081 
G01 X22.2230 Y12.3456 
G01 X22.1505 Y12.3650 
G01 X20.7755 Y12.3650 
G01 X20.7030 Y12.3456 
G01 X20.6380 Y12.3081 
G01 X20.5849 Y12.2550 
G01 X20.5474 Y12.1900 
G01 X20.5280 Y12.1175 
G01 X20.5280 Y10.7425 
G01 X20.5474 Y10.6700 
G01 X20.5849 Y10.6050 
G01 X20.6380 Y10.5519 
G01 X20.7030 Y10.5144 
G01 X20.7716 Y10.4960 
G01 X20.7716 Y9.8862 
G01 X20.5873 Y9.8862 
G01 X20.5148 Y9.8668 
G01 X20.4498 Y9.8293 
G01 X20.3967 Y9.7762 
G01 X20.3592 Y9.7112 
G01 X20.3398 Y9.6387 
G01 X20.3398 Y7.8873 
G01 X20.3592 Y7.8148 
G01 X20.3967 Y7.7498 
G01 X20.4498 Y7.6967 
G01 X20.4851 Y7.6764 
G01 X19.9009 Y7.6764 
G01 X19.9362 Y7.6967 
G01 X19.9893 Y7.7498 
G01 X20.0268 Y7.8148 
G01 X20.0462 Y7.8873 
G01 X20.0462 Y9.6387 
G01 X20.0268 Y9.7112 
G01 X19.9893 Y9.7762 
G01 X19.9753 Y9.7901 
G01 X19.9753 Y12.9016 
G01 X22.8924 Y15.8186 
G01 X24.2739 Y15.8186 
G01 X24.4566 Y15.8549 
G01 X24.6286 Y15.9262 
G01 X24.7835 Y16.0297 
G01 X24.9151 Y16.1613 
G01 X25.0186 Y16.3162 
G01 X25.0899 Y16.4882 
G01 X25.1262 Y16.6709 
G01 X25.1262 Y16.8571 
G01 X25.0899 Y17.0398 
G01 X25.0186 Y17.2118 
G01 X24.9151 Y17.3667 
G01 X24.7835 Y17.4983 
G01 X24.6286 Y17.6018 
G01 X24.4566 Y17.6731 
G01 X24.2739 Y17.7094 
G01 X23.4625 Y17.7094 
G01 X23.4625 Y19.3982 
G01 X23.9723 Y19.9080 
G01 X25.4810 Y19.9080 
G01 X25.5270 Y19.8814 
G01 X25.5995 Y19.8620 
G01 X27.8745 Y19.8620 
G01 X27.9470 Y19.8814 
G01 X28.0120 Y19.9189 
G01 X28.0651 Y19.9720 
G01 X28.1026 Y20.0370 
G01 X28.1038 Y20.0415 
G01 X28.1783 Y20.1160 
G01 X28.2493 Y20.2390 
G01 X28.2860 Y20.3760 
G01 X28.2860 Y20.5180 
G01 X28.2493 Y20.6550 
G01 X28.1783 Y20.7780 
G01 X28.1038 Y20.8525 
G01 X28.1026 Y20.8570 
G01 X28.0651 Y20.9220 
G01 X28.0120 Y20.9751 
G01 X27.9470 Y21.0126 
G01 X27.8745 Y21.0320 
G01 X25.5995 Y21.0320 
G01 X25.5270 Y21.0126 
G01 X25.4810 Y20.9860 
G01 X23.6780 Y20.9860 
G01 X23.5410 Y20.9493 
G01 X23.4180 Y20.8783 
G01 X22.5925 Y20.0528 
G01 X22.4922 Y19.9525 
G01 X22.4212 Y19.8295 
G01 X22.3980 Y19.7428 
G01 X22.3980 Y21.0075 
G01 X22.3786 Y21.0800 
G01 X22.3411 Y21.1450 
G01 X22.2880 Y21.1981 
G01 X22.2230 Y21.2356 
G01 X22.1505 Y21.2550 
G01 X21.3670 Y21.2550 
G01 X21.3670 Y25.1767 
G01 X21.8133 Y25.6230 
G01 X21.9561 Y25.6230 
G01 X21.9987 Y25.5593 
G01 X22.1303 Y25.4277 
G01 X22.2852 Y25.3242 
G01 X22.4572 Y25.2529 
G01 X22.6399 Y25.2166 
G01 X24.1469 Y25.2166 
G01 X24.3296 Y25.2529 
G01 X24.5016 Y25.3242 
G01 X24.6565 Y25.4277 
G01 X24.7881 Y25.5593 
G01 X24.8916 Y25.7142 
G01 X24.9629 Y25.8862 
G01 X24.9992 Y26.0689 
G01 X24.9992 Y26.2551 
G01 X24.9629 Y26.4378 
G01 X24.8916 Y26.6098 
G01 X24.7881 Y26.7647 
G01 X24.6565 Y26.8963 
G01 X24.5016 Y26.9998 
G01 X24.3296 Y27.0711 
G01 X24.1469 Y27.1074 
G01 X22.6399 Y27.1074 
G01 X22.4572 Y27.0711 
G01 X22.2852 Y26.9998 
G01 X22.1303 Y26.8963 
G01 X21.9987 Y26.7647 
G01 X21.9561 Y26.7010 
G01 X21.5190 Y26.7010 
G01 X21.3820 Y26.6643 
G01 X21.2590 Y26.5933 
G01 X21.1587 Y26.4930 
G01 X20.3967 Y25.7310 
G01 X20.3257 Y25.6080 
G01 X20.2890 Y25.4710 
G01 X20.2890 Y20.8840 
G01 X20.3257 Y20.7470 
G01 X20.3967 Y20.6240 
G01 X20.4970 Y20.5237 
G01 X20.5280 Y20.4927 
G01 X20.5280 Y19.6325 
G01 X20.5474 Y19.5600 
G01 X20.5849 Y19.4950 
G01 X20.6380 Y19.4419 
G01 X20.7030 Y19.4044 
G01 X20.7755 Y19.3850 
G01 X22.1505 Y19.3850 
G01 X22.2230 Y19.4044 
G01 X22.2880 Y19.4419 
G01 X22.3411 Y19.4950 
G01 X22.3786 Y19.5600 
G01 X22.3845 Y19.5821 
G01 X22.3845 Y17.5833 
G01 X22.2573 Y17.4983 
G01 X22.1257 Y17.3667 
G01 X22.0222 Y17.2118 
G01 X21.9509 Y17.0398 
G01 X21.9146 Y16.8571 
G01 X21.9146 Y16.7964 
G01 X18.7469 Y13.6287 
G01 X18.6712 Y13.5154 
G01 X18.6191 Y13.3896 
G01 X18.5925 Y13.2560 
G01 X18.5925 Y9.8862 
G01 X18.0473 Y9.8862 
G01 X17.9748 Y9.8668 
G01 X17.9098 Y9.8293 
G01 X17.8567 Y9.7762 
G01 X17.8192 Y9.7112 
G01 X17.7998 Y9.6387 
G01 X17.7998 Y7.8873 
G01 X17.8192 Y7.8148 
G01 X17.8567 Y7.7498 
G01 X17.9098 Y7.6967 
G01 X17.9748 Y7.6592 
G01 X18.0473 Y7.6398 
G01 X18.3586 Y7.6398 
G01 X18.3586 Y6.9169 
G01 X18.3852 Y6.7833 
G01 X18.4373 Y6.6575 
G01 X18.5130 Y6.5443 
G01 X18.6093 Y6.4480 
G01 X18.7225 Y6.3723 
G01 X18.8483 Y6.3202 
G01 X18.9819 Y6.2936 
G01 X25.9761 Y6.2936 
G01 X26.1097 Y6.3202 
G01 X26.2355 Y6.3723 
G01 X26.2467 Y6.3797 
G01 X26.3479 Y6.3596 
G01 X28.6330 Y6.3596 
G01 X28.6330 Y5.8795 
G01 X28.6524 Y5.8070 
G01 X28.6899 Y5.7420 
G01 X28.7430 Y5.6889 
G01 X28.8080 Y5.6514 
G01 X28.8805 Y5.6320 
G01 X29.5897 Y5.6320 
G01 X29.6156 Y5.6245 
G01 X29.7575 Y5.6217 
G01 X29.7992 Y5.6320 
G01 X30.5555 Y5.6320 
G01 X30.6280 Y5.6514 
G01 X30.6930 Y5.6889 
G01 X30.7461 Y5.7420 
G01 X30.7836 Y5.8070 
G01 X30.8030 Y5.8795 
G01 X30.8030 Y7.5397 
G01 X31.5533 Y8.2900 
G01 X32.6970 Y8.2900 
G01 X32.6970 Y8.1415 
G01 X32.7164 Y8.0690 
G01 X32.7539 Y8.0040 
G01 X32.8070 Y7.9509 
G01 X32.8720 Y7.9134 
G01 X32.9445 Y7.8940 
G01 X33.9547 Y7.8940 
G01 X35.1330 Y6.7157 
G01 X35.1330 Y6.0435 
G01 X35.1524 Y5.9710 
G01 X35.1899 Y5.9060 
G01 X35.2430 Y5.8529 
G01 X35.3080 Y5.8154 
G01 X35.3805 Y5.7960 
G01 X36.7555 Y5.7960 
G01 X36.8280 Y5.8154 
G01 X36.8930 Y5.8529 
G01 X36.9461 Y5.9060 
G01 X36.9836 Y5.9710 
G01 X37.0030 Y6.0435 
G01 X37.0030 Y7.4185 
G01 X36.9836 Y7.4910 
G01 X36.9461 Y7.5560 
G01 X36.8930 Y7.6091 
G01 X36.8280 Y7.6466 
G01 X36.7555 Y7.6660 
G01 X35.7073 Y7.6660 
G01 X34.8670 Y8.5063 
G01 X34.8670 Y9.5165 
G01 X34.8476 Y9.5890 
G01 X34.8101 Y9.6540 
G01 X34.7570 Y9.7071 
G01 X34.6920 Y9.7446 
G01 X34.6195 Y9.7640 
G01 X32.9445 Y9.7640 
G01 X32.8720 Y9.7446 
G01 X32.8070 Y9.7071 
G01 X32.7539 Y9.6540 
G01 X32.7164 Y9.5890 
G01 X32.6970 Y9.5165 
G01 X32.6970 Y9.3680 
G01 X31.2590 Y9.3680 
G01 X31.1220 Y9.3313 
G01 X30.9990 Y9.2603 
G01 X30.8987 Y9.1600 
G01 X30.5407 Y8.8020 
G01 X28.8805 Y8.8020 
G01 X28.8080 Y8.7826 
G01 X28.7430 Y8.7451 
G01 X28.6899 Y8.6920 
G01 X28.6524 Y8.6270 
G01 X28.6330 Y8.5545 
G01 X28.6330 Y7.7424 
G01 X26.9430 Y7.7424 
G01 X26.9430 Y8.2465 
G01 X26.9236 Y8.3190 
G01 X26.8861 Y8.3840 
G01 X26.8330 Y8.4371 
G01 X26.7680 Y8.4746 
G01 X26.6955 Y8.4940 
G01 X25.8305 Y8.4940 
G01 X25.9029 Y8.5240 
G01 X26.6955 Y8.5240 
G01 X26.7680 Y8.5434 
G01 X26.8330 Y8.5809 
G01 X26.8861 Y8.6340 
G01 X26.9236 Y8.6990 
G01 X26.9430 Y8.7715 
G01 X26.9430 Y10.0547 
G01 X26.9975 Y10.0773 
G01 X27.0698 Y10.1256 
G01 X28.6330 Y10.1256 
G01 X28.6330 Y9.4795 
G01 X28.6524 Y9.4070 
G01 X28.6899 Y9.3420 
G01 X28.7430 Y9.2889 
G01 X28.8080 Y9.2514 
G01 X28.8805 Y9.2320 
G01 X30.5555 Y9.2320 
G01 X30.6280 Y9.2514 
G01 X30.6930 Y9.2889 
G01 X30.7461 Y9.3420 
G01 X30.7836 Y9.4070 
G01 X30.8030 Y9.4795 
G01 X30.8030 Y12.1545 
G01 X30.7836 Y12.2270 
G01 X30.7461 Y12.2920 
G01 X30.6930 Y12.3451 
G01 X30.6280 Y12.3826 
G01 X30.5555 Y12.4020 
G01 X30.2570 Y12.4020 
G01 X30.2570 Y12.7960 
G01 X31.2795 Y12.7960 
G01 X31.3520 Y12.8154 
G01 X31.4170 Y12.8529 
G01 X31.4701 Y12.9060 
G01 X31.5076 Y12.9710 
G01 X31.5270 Y13.0435 
G01 X31.5270 Y14.8965 
G01 X31.5076 Y14.9690 
G01 X31.4887 Y15.0017 
G01 X31.9372 Y15.8749 
G01 X32.1143 Y16.0520 
G01 X33.0745 Y16.0520 
G01 X33.1470 Y16.0714 
G01 X33.2120 Y16.1089 
G01 X33.2651 Y16.1620 
G01 X33.3026 Y16.2270 
G01 X33.3220 Y16.2995 
G01 X33.3220 Y16.9745 
G01 X33.3026 Y17.0470 
G01 X33.2651 Y17.1120 
G01 X33.2120 Y17.1651 
G01 X33.1470 Y17.2026 
G01 X33.0745 Y17.2220 
G01 X30.7995 Y17.2220 
G01 X30.7270 Y17.2026 
G01 X30.6620 Y17.1651 
G01 X30.6089 Y17.1120 
G01 X30.5714 Y17.0470 
G01 X30.5520 Y16.9745 
G01 X30.5520 Y16.2995 
G01 X30.5714 Y16.2270 
G01 X30.6089 Y16.1620 
G01 X30.6620 Y16.1089 
G01 X30.7270 Y16.0714 
G01 X30.7995 Y16.0520 
G01 X30.8163 Y16.0520 
G01 X30.3500 Y15.1440 
G01 X29.4265 Y15.1440 
G01 X29.3540 Y15.1246 
G01 X29.2890 Y15.0871 
G01 X29.2359 Y15.0340 
G01 X29.1984 Y14.9690 
G01 X29.1790 Y14.8965 
G01 X29.1790 Y12.4020 
G01 X28.8805 Y12.4020 
G01 X28.8080 Y12.3826 
G01 X28.7430 Y12.3451 
G01 X28.6899 Y12.2920 
G01 X28.6524 Y12.2270 
G01 X28.6330 Y12.1545 
G01 X28.6330 Y11.5084 
G01 X27.3614 Y11.5084 
G01 X27.3614 Y11.7040 
G01 X27.5075 Y11.7040 
G01 X27.5800 Y11.7234 
G01 X27.6450 Y11.7609 
G01 X27.6981 Y11.8140 
G01 X27.7356 Y11.8790 
G01 X27.7550 Y11.9515 
G01 X27.7550 Y13.3265 
G01 X27.7356 Y13.3990 
G01 X27.6981 Y13.4640 
G01 X27.6450 Y13.5171 
G01 X27.5800 Y13.5546 
G01 X27.5075 Y13.5740 
G01 X26.4521 Y13.5740 
G01 X26.4360 Y13.5833 
G01 X26.3587 Y13.6040 
G01 X27.5075 Y13.6040 
G01 X27.5800 Y13.6234 
G01 X27.6450 Y13.6609 
G01 X27.6981 Y13.7140 
G01 X27.7356 Y13.7790 
G01 X27.7550 Y13.8515 
G01 X27.7550 Y15.2265 
G01 X27.7356 Y15.2990 
G01 X27.6981 Y15.3640 
G01 X27.6450 Y15.4171 
G01 X27.5800 Y15.4546 
G01 X27.5075 Y15.4740 
G01 X27.2090 Y15.4740 
G01 X27.2090 Y16.0520 
G01 X27.8745 Y16.0520 
G01 X27.9470 Y16.0714 
G01 X28.0120 Y16.1089 
G01 X28.0651 Y16.1620 
G01 X28.1026 Y16.2270 
G01 X28.1220 Y16.2995 
G01 X28.1220 Y16.9745 
G01 X28.1026 Y17.0470 
G01 X28.0651 Y17.1120 
G01 X28.0120 Y17.1651 
G01 X27.9470 Y17.2026 
G01 X27.8745 Y17.2220 
G01 X25.5995 Y17.2220 
G01 X25.5270 Y17.2026 
G01 X25.4620 Y17.1651 
G01 X25.4089 Y17.1120 
G01 X25.3714 Y17.0470 
G01 X25.3520 Y16.9745 
G01 X25.3520 Y16.2995 
G01 X25.3714 Y16.2270 
G01 X25.4089 Y16.1620 
G01 X25.4620 Y16.1089 
G01 X25.5270 Y16.0714 
G01 X25.5995 Y16.0520 
G01 X26.1310 Y16.0520 
G01 X26.1310 Y15.4740 
G01 X25.8325 Y15.4740 
G01 X25.7600 Y15.4546 
G01 X25.6950 Y15.4171 
G01 X25.6419 Y15.3640 
G01 X25.6044 Y15.2990 
G01 X25.5850 Y15.2265 
G01 X25.5850 Y14.7630 
G01 X24.9577 Y14.7630 
G01 X24.9151 Y14.8267 
G01 X24.7835 Y14.9583 
G01 X24.6286 Y15.0618 
G01 X24.4566 Y15.1331 
G01 X24.2739 Y15.1694 
G01 X22.7669 Y15.1694 
G01 X22.5842 Y15.1331 
G01 X22.4122 Y15.0618 
G01 X22.2573 Y14.9583 
G01 X22.1257 Y14.8267 
G01 X22.0222 Y14.6718 
G01 X21.9509 Y14.4998 
G01 X21.9146 Y14.3171 
G01 X21.9146 Y14.1309 
G01 X21.9509 Y13.9482 
G01 X22.0222 Y13.7762 
G01 X22.1257 Y13.6213 
G01 X22.2573 Y13.4897 
G01 X22.4122 Y13.3862 
G01 X22.5842 Y13.3149 
G01 X22.7669 Y13.2786 
G01 X24.2739 Y13.2786 
G01 X24.4566 Y13.3149 
G01 X24.6286 Y13.3862 
G01 X24.7835 Y13.4897 
G01 X24.9151 Y13.6213 
G01 X24.9577 Y13.6850 
G01 X25.6710 Y13.6850 
G01 X25.6950 Y13.6609 
G01 X25.7600 Y13.6234 
G01 X25.8325 Y13.6040 
G01 X26.0973 Y13.6040 
G01 X26.0200 Y13.5833 
G01 X26.0039 Y13.5740 
G01 X25.8325 Y13.5740 
G01 X25.7600 Y13.5546 
G01 X25.6950 Y13.5171 
G01 X25.6419 Y13.4640 
G01 X25.6044 Y13.3990 
G01 X25.5850 Y13.3265 
G01 X25.5850 Y11.9515 
G01 X25.6044 Y11.8790 
G01 X25.6419 Y11.8140 
G01 X25.6950 Y11.7609 
G01 X25.7600 Y11.7234 
G01 X25.8325 Y11.7040 
G01 X25.9786 Y11.7040 
G01 X25.9786 Y11.2304 
G01 X25.4673 Y10.7190 
G01 X25.3710 Y10.6227 
G01 X25.2953 Y10.5095 
G01 X25.2474 Y10.3940 
G01 X25.1205 Y10.3940 
G01 X25.0480 Y10.3746 
G01 X24.9830 Y10.3371 
G01 X24.9299 Y10.2840 
G01 X24.8924 Y10.2190 
G01 X24.8730 Y10.1465 
G01 X24.8730 Y9.8354 
G01 X22.4656 Y9.8354 
G01 X22.4112 Y9.8668 
G01 X22.3387 Y9.8862 
G01 X22.1544 Y9.8862 
G01 X22.1544 Y10.4960 
G01 X22.2230 Y10.5144 
G01 X22.2880 Y10.5519 
G01 X22.3411 Y10.6050 
G01 X22.3786 Y10.6700 
G01 X22.3980 Y10.7425 
G00 Z2.5400 
G00 X22.5980 Y10.7161 
G01 Z-0.1000 F254.00 
G01 X22.5980 Y12.1439 F200.00 
G01 X22.5649 Y12.2672 
G01 X22.5011 Y12.3778 
G01 X22.4108 Y12.4681 
G01 X22.3002 Y12.5319 
G01 X22.1769 Y12.5650 
G01 X20.7491 Y12.5650 
G01 X20.6258 Y12.5319 
G01 X20.5152 Y12.4681 
G01 X20.4249 Y12.3778 
G01 X20.3611 Y12.2672 
G01 X20.3280 Y12.1439 
G01 X20.3280 Y10.7161 
G01 X20.3611 Y10.5928 
G01 X20.4249 Y10.4822 
G01 X20.5152 Y10.3919 
G01 X20.5716 Y10.3593 
G01 X20.5716 Y10.0862 
G01 X20.5609 Y10.0862 
G01 X20.4376 Y10.0531 
G01 X20.3270 Y9.9893 
G01 X20.2367 Y9.8990 
G01 X20.1930 Y9.8233 
G01 X20.1753 Y9.8539 
G01 X20.1753 Y12.8187 
G01 X21.7229 Y14.3662 
G01 X21.7146 Y14.3141 
G01 X21.7146 Y14.1339 
G01 X21.7428 Y13.9558 
G01 X21.7985 Y13.7843 
G01 X21.8804 Y13.6237 
G01 X21.9863 Y13.4778 
G01 X22.1138 Y13.3503 
G01 X22.2597 Y13.2444 
G01 X22.4203 Y13.1625 
G01 X22.5918 Y13.1068 
G01 X22.7699 Y13.0786 
G01 X24.2709 Y13.0786 
G01 X24.4490 Y13.1068 
G01 X24.6205 Y13.1625 
G01 X24.7811 Y13.2444 
G01 X24.9270 Y13.3503 
G01 X25.0545 Y13.4778 
G01 X25.0597 Y13.4850 
G01 X25.4231 Y13.4850 
G01 X25.4181 Y13.4762 
G01 X25.3850 Y13.3529 
G01 X25.3850 Y11.9251 
G01 X25.4181 Y11.8018 
G01 X25.4819 Y11.6912 
G01 X25.5722 Y11.6009 
G01 X25.6828 Y11.5371 
G01 X25.7786 Y11.5114 
G01 X25.7786 Y11.3132 
G01 X25.3398 Y10.8744 
G01 X25.2156 Y10.7502 
G01 X25.1181 Y10.6042 
G01 X25.1138 Y10.5940 
G01 X25.0941 Y10.5940 
G01 X24.9708 Y10.5609 
G01 X24.8602 Y10.4971 
G01 X24.7699 Y10.4068 
G01 X24.7061 Y10.2962 
G01 X24.6730 Y10.1729 
G01 X24.6730 Y10.0354 
G01 X22.5191 Y10.0354 
G01 X22.4884 Y10.0531 
G01 X22.3651 Y10.0862 
G01 X22.3544 Y10.0862 
G01 X22.3544 Y10.3593 
G01 X22.4108 Y10.3919 
G01 X22.5011 Y10.4822 
G01 X22.5649 Y10.5928 
G01 X22.5980 Y10.7161 
G00 Z2.5400 
G00 X13.0988 Y27.0740 
G01 Z-0.1000 F254.00 
G01 X13.0460 Y27.0357 F200.00 
G01 X12.9185 Y26.9082 
G01 X12.9076 Y26.8931 
G01 X12.8044 Y26.8726 
G01 X12.6700 Y26.8169 
G01 X12.5489 Y26.7360 
G01 X11.6469 Y25.8340 
G01 X10.6931 Y25.8340 
G01 X10.5698 Y25.8009 
G01 X10.4592 Y25.7371 
G01 X10.3689 Y25.6468 
G01 X10.3051 Y25.5362 
