(.../romang/EAGLE/ulps/pcb-gcode.ulp)
(Copyright 2005 - 2012 by John Johnson)
(See readme.txt for licensing terms.)
(This file generated from the board:)
(.../HLS8012/hlw8012_test_board.brd)
(Current profile is .../EAGLE/ulps/profiles/generic.pp  )
(This file generated 19.08.19 19:37)
(Settings from pcb-machine.h)
(  Tool Size)
(0.1778 )
(Z Axis Settings)
(  High     Up        Down     Drill)
(12.7000 	2.5400 	-0.1000 	-2.0000 )
(spindle on time = 3.0000)
(milling depth = -2.0000)
(text depth = -0.1270)
(tool change at 12.7000 15.2400 25.4000 )
(feed rate xy = F200.00 )
(feed rate z  = F254.00 )
(Settings from pcb-defaults.h)
(isolate min = 0.0000)
(isolate max = 0.2000)
(isolate step = 0.2000)
(Generated top outlines, top drill, bottom outlines, bottom drill, )
(Unit of measure: mm)
(Metric Mode)
G21
(Absolute Coordinates)
G90
G00 X0.0000 Y0.0000 
M03
G04 P3.000000
G00 Z2.5400 
G00 X13.5461 Y21.0877 
G01 Z-0.1000 F254.00 
G01 X13.5461 Y19.5523 F200.00 
G01 X13.5596 Y19.5196 
G01 X13.5846 Y19.4946 
G01 X13.6173 Y19.4811 
G01 X14.9527 Y19.4811 
G01 X14.9854 Y19.4946 
G01 X15.0104 Y19.5196 
G01 X15.0239 Y19.5523 
G01 X15.0239 Y19.9771 
G01 X16.1671 Y19.9771 
G01 X16.1671 Y17.6020 
G01 X16.1290 Y17.5639 
G01 X15.0573 Y17.5639 
G01 X15.0246 Y17.5504 
G01 X14.9996 Y17.5254 
G01 X14.9861 Y17.4927 
G01 X14.9861 Y16.1573 
G01 X14.9996 Y16.1246 
G01 X15.0246 Y16.0996 
G01 X15.0573 Y16.0861 
G01 X16.6927 Y16.0861 
G01 X16.7254 Y16.0996 
G01 X16.7504 Y16.1246 
G01 X16.7639 Y16.1573 
G01 X16.7639 Y17.2290 
G01 X16.7844 Y17.2495 
G01 X16.8295 Y17.3276 
G01 X16.8529 Y17.4149 
G01 X16.8529 Y23.5265 
G01 X16.8604 Y23.5296 
G01 X16.8854 Y23.5546 
G01 X16.8989 Y23.5873 
G01 X16.8989 Y25.8227 
G01 X16.8854 Y25.8554 
G01 X16.8604 Y25.8804 
G01 X16.8277 Y25.8939 
G01 X16.1923 Y25.8939 
G01 X16.1596 Y25.8804 
G01 X16.1346 Y25.8554 
G01 X16.1211 Y25.8227 
G01 X16.1211 Y23.5873 
G01 X16.1346 Y23.5546 
G01 X16.1596 Y23.5296 
G01 X16.1671 Y23.5265 
G01 X16.1671 Y20.6629 
G01 X15.0239 Y20.6629 
G01 X15.0239 Y21.0877 
G01 X15.0104 Y21.1204 
G01 X14.9854 Y21.1454 
G01 X14.9527 Y21.1589 
G01 X13.6173 Y21.1589 
G01 X13.5846 Y21.1454 
G01 X13.5596 Y21.1204 
G01 X13.5461 Y21.0877 
G00 Z2.5400 
G00 X5.8229 Y46.9168 
G01 Z-0.1000 F254.00 
G01 X5.8229 Y47.0632 F200.00 
G01 X5.7943 Y47.2067 
G01 X5.7383 Y47.3419 
G01 X5.6570 Y47.4636 
G01 X5.5536 Y47.5670 
G01 X5.4319 Y47.6483 
G01 X5.4229 Y47.6521 
G01 X5.4229 Y61.4530 
G01 X9.1005 Y65.1306 
G01 X9.1644 Y65.1945 
G01 X9.2095 Y65.2726 
G01 X9.2329 Y65.3599 
G01 X9.2329 Y66.4040 
G01 X9.2931 Y66.4289 
G01 X9.4324 Y66.5221 
G01 X9.5509 Y66.6406 
G01 X9.6441 Y66.7799 
G01 X9.7082 Y66.9348 
G01 X9.7409 Y67.0992 
G01 X9.7409 Y68.7908 
G01 X9.7082 Y68.9552 
G01 X9.6441 Y69.1101 
G01 X9.5509 Y69.2494 
G01 X9.4324 Y69.3679 
G01 X9.2931 Y69.4611 
G01 X9.1382 Y69.5252 
G01 X8.9738 Y69.5579 
G01 X8.8062 Y69.5579 
G01 X8.6418 Y69.5252 
G01 X8.4869 Y69.4611 
G01 X8.3476 Y69.3679 
G01 X8.2291 Y69.2494 
G01 X8.1359 Y69.1101 
G01 X8.0718 Y68.9552 
G01 X8.0391 Y68.7908 
G01 X8.0391 Y67.0992 
G01 X8.0718 Y66.9348 
G01 X8.1359 Y66.7799 
G01 X8.2291 Y66.6406 
G01 X8.3476 Y66.5221 
G01 X8.4869 Y66.4289 
G01 X8.5471 Y66.4040 
G01 X8.5471 Y65.5470 
G01 X4.8056 Y61.8055 
G01 X4.7605 Y61.7274 
G01 X4.7371 Y61.6401 
G01 X4.7371 Y47.6521 
G01 X4.7281 Y47.6483 
G01 X4.6064 Y47.5670 
G01 X4.5030 Y47.4636 
G01 X4.4217 Y47.3419 
G01 X4.3657 Y47.2067 
G01 X4.3371 Y47.0632 
G01 X4.3371 Y46.9168 
G01 X4.3657 Y46.7733 
G01 X4.4217 Y46.6381 
G01 X4.5030 Y46.5164 
G01 X4.6064 Y46.4130 
G01 X4.7281 Y46.3317 
G01 X4.8633 Y46.2756 
G01 X5.0068 Y46.2471 
G01 X5.1532 Y46.2471 
G01 X5.2967 Y46.2756 
G01 X5.4319 Y46.3317 
G01 X5.5536 Y46.4130 
G01 X5.6570 Y46.5164 
G01 X5.7383 Y46.6381 
G01 X5.7943 Y46.7733 
G01 X5.8229 Y46.9168 
G00 Z2.5400 
G00 X5.8229 Y39.2968 
G01 Z-0.1000 F254.00 
G01 X5.8229 Y39.4432 F200.00 
G01 X5.7943 Y39.5867 
G01 X5.7383 Y39.7219 
G01 X5.6570 Y39.8436 
G01 X5.5536 Y39.9470 
G01 X5.4319 Y40.0283 
G01 X5.2967 Y40.0843 
G01 X5.1532 Y40.1129 
G01 X5.0068 Y40.1129 
G01 X4.8633 Y40.0843 
G01 X4.7281 Y40.0283 
G01 X4.6064 Y39.9470 
G01 X4.5030 Y39.8436 
G01 X4.4217 Y39.7219 
G01 X4.3657 Y39.5867 
G01 X4.3371 Y39.4432 
G01 X4.3371 Y39.2968 
G01 X4.3657 Y39.1533 
G01 X4.4217 Y39.0181 
G01 X4.5030 Y38.8964 
G01 X4.6064 Y38.7930 
G01 X4.7281 Y38.7116 
G01 X4.8633 Y38.6557 
G01 X5.0068 Y38.6271 
G01 X5.1532 Y38.6271 
G01 X5.2967 Y38.6557 
G01 X5.3057 Y38.6594 
G01 X6.0756 Y37.8895 
G01 X6.1395 Y37.8256 
G01 X6.2176 Y37.7805 
G01 X6.3049 Y37.7571 
G01 X10.3761 Y37.7571 
G01 X10.3761 Y37.2823 
G01 X10.3896 Y37.2496 
G01 X10.4146 Y37.2246 
G01 X10.4473 Y37.2111 
G01 X10.7721 Y37.2111 
G01 X10.7721 Y35.8139 
G01 X10.4473 Y35.8139 
G01 X10.4146 Y35.8004 
G01 X10.3896 Y35.7754 
G01 X10.3761 Y35.7427 
G01 X10.3761 Y35.2679 
G01 X9.3089 Y35.2679 
G01 X9.3089 Y35.6927 
G01 X9.2954 Y35.7254 
G01 X9.2704 Y35.7504 
G01 X9.2377 Y35.7639 
G01 X7.9023 Y35.7639 
G01 X7.8696 Y35.7504 
G01 X7.8446 Y35.7254 
G01 X7.8311 Y35.6927 
G01 X7.8311 Y34.1573 
G01 X7.8446 Y34.1246 
G01 X7.8696 Y34.0996 
G01 X7.9023 Y34.0861 
G01 X8.2271 Y34.0861 
G01 X8.2271 Y32.0249 
G01 X8.2505 Y31.9376 
G01 X8.2956 Y31.8595 
G01 X9.8806 Y30.2745 
G01 X9.8806 Y29.0018 
G01 X9.8941 Y28.9691 
G01 X9.9191 Y28.9441 
G01 X9.9518 Y28.9306 
G01 X11.6382 Y28.9306 
G01 X11.6709 Y28.9441 
G01 X11.6959 Y28.9691 
G01 X11.7094 Y29.0018 
G01 X11.7094 Y29.5021 
G01 X11.7221 Y29.5021 
G01 X11.7221 Y27.8349 
G01 X11.7455 Y27.7476 
G01 X11.7906 Y27.6695 
G01 X14.7551 Y24.7050 
G01 X13.8880 Y23.8379 
G01 X12.1468 Y23.8379 
G01 X11.7404 Y24.2443 
G01 X11.1196 Y24.2443 
G01 X10.6807 Y23.8054 
G01 X10.6807 Y23.1846 
G01 X11.1196 Y22.7457 
G01 X11.7404 Y22.7457 
G01 X12.1468 Y23.1521 
G01 X14.0751 Y23.1521 
G01 X14.1624 Y23.1755 
G01 X14.2405 Y23.2206 
G01 X14.8511 Y23.8312 
G01 X14.8511 Y23.5873 
G01 X14.8646 Y23.5546 
G01 X14.8896 Y23.5296 
G01 X14.9223 Y23.5161 
G01 X15.5577 Y23.5161 
G01 X15.5904 Y23.5296 
G01 X15.6154 Y23.5546 
G01 X15.6289 Y23.5873 
G01 X15.6289 Y25.8227 
G01 X15.6154 Y25.8554 
G01 X15.5904 Y25.8804 
G01 X15.5577 Y25.8939 
G01 X14.9223 Y25.8939 
G01 X14.8896 Y25.8804 
G01 X14.8646 Y25.8554 
G01 X14.8511 Y25.8227 
G01 X14.8511 Y25.5788 
G01 X12.4079 Y28.0220 
G01 X12.4079 Y29.8901 
G01 X12.3845 Y29.9774 
G01 X12.3394 Y30.0555 
G01 X12.2755 Y30.1194 
G01 X12.1974 Y30.1645 
G01 X12.1101 Y30.1879 
G01 X11.7094 Y30.1879 
G01 X11.7094 Y30.6882 
G01 X11.6959 Y30.7209 
G01 X11.6709 Y30.7459 
G01 X11.6382 Y30.7594 
G01 X10.3655 Y30.7594 
G01 X8.9129 Y32.2120 
G01 X8.9129 Y34.0861 
G01 X9.2377 Y34.0861 
G01 X9.2704 Y34.0996 
G01 X9.2954 Y34.1246 
G01 X9.3089 Y34.1573 
G01 X9.3089 Y34.5821 
G01 X10.3761 Y34.5821 
G01 X10.3761 Y34.1073 
G01 X10.3896 Y34.0746 
G01 X10.4146 Y34.0496 
G01 X10.4473 Y34.0361 
G01 X11.7827 Y34.0361 
G01 X11.8154 Y34.0496 
G01 X11.8404 Y34.0746 
G01 X11.8539 Y34.1073 
G01 X11.8539 Y35.7427 
G01 X11.8404 Y35.7754 
G01 X11.8154 Y35.8004 
G01 X11.7827 Y35.8139 
G01 X11.4579 Y35.8139 
G01 X11.4579 Y37.2111 
G01 X11.7827 Y37.2111 
G01 X11.8154 Y37.2246 
G01 X11.8404 Y37.2496 
G01 X11.8539 Y37.2823 
G01 X11.8539 Y38.9177 
G01 X11.8404 Y38.9504 
G01 X11.8154 Y38.9754 
G01 X11.7827 Y38.9889 
G01 X10.4473 Y38.9889 
G01 X10.4146 Y38.9754 
G01 X10.3896 Y38.9504 
G01 X10.3761 Y38.9177 
G01 X10.3761 Y38.4429 
G01 X6.4920 Y38.4429 
G01 X5.7906 Y39.1443 
G01 X5.7943 Y39.1533 
G01 X5.8229 Y39.2968 
G00 Z2.5400 
G00 X9.6393 Y23.1846 
G01 Z-0.1000 F254.00 
G01 X9.6393 Y23.8054 F200.00 
G01 X9.2004 Y24.2443 
G01 X8.5796 Y24.2443 
G01 X8.1407 Y23.8054 
G01 X8.1407 Y23.1846 
G01 X8.5796 Y22.7457 
G01 X8.8671 Y22.7457 
G01 X8.8671 Y18.6689 
G01 X8.5423 Y18.6689 
G01 X8.5096 Y18.6554 
G01 X8.4846 Y18.6304 
G01 X8.4711 Y18.5977 
G01 X8.4711 Y16.9623 
G01 X8.4846 Y16.9296 
G01 X8.5096 Y16.9046 
G01 X8.5423 Y16.8911 
G01 X9.8777 Y16.8911 
G01 X9.9104 Y16.9046 
G01 X9.9354 Y16.9296 
G01 X9.9489 Y16.9623 
G01 X9.9489 Y18.5977 
G01 X9.9354 Y18.6304 
G01 X9.9104 Y18.6554 
G01 X9.8777 Y18.6689 
G01 X9.5529 Y18.6689 
G01 X9.5529 Y23.0982 
G01 X9.6393 Y23.1846 
G00 Z2.5400 
G00 X26.7843 Y32.2604 
G01 Z-0.1000 F254.00 
G01 X26.7843 Y33.7288 F200.00 
G01 X26.7555 Y33.8736 
G01 X26.6990 Y34.0099 
G01 X26.6170 Y34.1326 
G01 X26.5127 Y34.2370 
G01 X26.3899 Y34.3190 
G01 X26.2536 Y34.3755 
G01 X26.1088 Y34.4043 
G01 X25.9612 Y34.4043 
G01 X25.8164 Y34.3755 
G01 X25.8044 Y34.3705 
G01 X25.2955 Y34.8794 
G01 X25.2174 Y34.9245 
G01 X25.1301 Y34.9479 
G01 X19.9389 Y34.9479 
G01 X19.9389 Y35.2727 
G01 X19.9254 Y35.3054 
G01 X19.9004 Y35.3304 
G01 X19.8677 Y35.3439 
G01 X18.2323 Y35.3439 
G01 X18.1996 Y35.3304 
G01 X18.1746 Y35.3054 
G01 X18.1611 Y35.2727 
G01 X18.1611 Y33.9373 
G01 X18.1746 Y33.9046 
G01 X18.1996 Y33.8796 
G01 X18.2323 Y33.8661 
G01 X19.8677 Y33.8661 
G01 X19.9004 Y33.8796 
G01 X19.9254 Y33.9046 
G01 X19.9389 Y33.9373 
G01 X19.9389 Y34.2621 
G01 X24.9430 Y34.2621 
G01 X25.3195 Y33.8856 
G01 X25.3145 Y33.8736 
G01 X25.2857 Y33.7288 
G01 X25.2857 Y32.2604 
G01 X25.3145 Y32.1156 
G01 X25.3710 Y31.9793 
G01 X25.4530 Y31.8565 
G01 X25.5573 Y31.7522 
G01 X25.6801 Y31.6702 
G01 X25.8164 Y31.6137 
G01 X25.9612 Y31.5849 
G01 X26.1088 Y31.5849 
G01 X26.2536 Y31.6137 
G01 X26.3899 Y31.6702 
G01 X26.5127 Y31.7522 
G01 X26.6170 Y31.8565 
G01 X26.6990 Y31.9793 
G01 X26.7555 Y32.1156 
G01 X26.7843 Y32.2604 
G00 Z2.5400 
G00 X29.3243 Y32.2604 
G01 Z-0.1000 F254.00 
G01 X29.3243 Y33.7288 F200.00 
G01 X29.2955 Y33.8736 
G01 X29.2390 Y34.0099 
G01 X29.1570 Y34.1326 
G01 X29.0526 Y34.2370 
G01 X28.9299 Y34.3190 
G01 X28.9179 Y34.3240 
G01 X28.9179 Y34.3351 
G01 X28.8945 Y34.4224 
G01 X28.8494 Y34.5005 
G01 X26.9444 Y36.4055 
G01 X26.8805 Y36.4694 
G01 X26.8024 Y36.5145 
G01 X26.7151 Y36.5379 
G01 X24.2720 Y36.5379 
G01 X22.3393 Y38.4706 
G01 X22.3393 Y38.8088 
G01 X22.3105 Y38.9536 
G01 X22.2540 Y39.0899 
G01 X22.1720 Y39.2127 
G01 X22.0677 Y39.3170 
G01 X21.9449 Y39.3990 
G01 X21.8086 Y39.4555 
G01 X21.6638 Y39.4843 
G01 X21.5162 Y39.4843 
G01 X21.3714 Y39.4555 
G01 X21.3594 Y39.4505 
G01 X16.2179 Y44.5920 
G01 X16.2179 Y49.5751 
G01 X16.1945 Y49.6624 
G01 X16.1494 Y49.7405 
G01 X16.0855 Y49.8044 
G01 X15.4505 Y50.4394 
G01 X15.3724 Y50.4845 
G01 X15.2851 Y50.5079 
G01 X10.7499 Y50.5079 
G01 X10.6626 Y50.4845 
G01 X10.5845 Y50.4394 
G01 X10.5206 Y50.3755 
G01 X10.3906 Y50.2455 
G01 X10.3786 Y50.2505 
G01 X10.2338 Y50.2793 
G01 X10.0862 Y50.2793 
G01 X9.9414 Y50.2505 
G01 X9.8051 Y50.1940 
G01 X9.6823 Y50.1120 
G01 X9.5780 Y50.0077 
G01 X9.4960 Y49.8849 
G01 X9.4395 Y49.7486 
G01 X9.4107 Y49.6038 
G01 X9.4107 Y48.1354 
G01 X9.4395 Y47.9906 
G01 X9.4960 Y47.8543 
G01 X9.5780 Y47.7315 
G01 X9.6823 Y47.6272 
G01 X9.8051 Y47.5452 
G01 X9.8171 Y47.5402 
G01 X9.8171 Y43.7699 
G01 X9.8405 Y43.6826 
G01 X9.8856 Y43.6045 
G01 X11.2372 Y42.2529 
G01 X5.7421 Y42.2529 
G01 X5.7383 Y42.2619 
G01 X5.6570 Y42.3836 
G01 X5.5536 Y42.4870 
G01 X5.4319 Y42.5683 
G01 X5.2967 Y42.6243 
G01 X5.1532 Y42.6529 
G01 X5.0068 Y42.6529 
G01 X4.8633 Y42.6243 
G01 X4.7281 Y42.5683 
G01 X4.6064 Y42.4870 
G01 X4.5030 Y42.3836 
G01 X4.4217 Y42.2619 
G01 X4.3657 Y42.1267 
G01 X4.3371 Y41.9832 
G01 X4.3371 Y41.8368 
G01 X4.3657 Y41.6933 
G01 X4.3694 Y41.6843 
G01 X2.9645 Y40.2794 
G01 X2.9006 Y40.2155 
G01 X2.8555 Y40.1374 
G01 X2.8321 Y40.0501 
G01 X2.8321 Y37.4199 
G01 X2.8555 Y37.3326 
G01 X2.9006 Y37.2545 
G01 X2.9645 Y37.1906 
G01 X5.4406 Y34.7145 
G01 X5.5045 Y34.6506 
G01 X5.5826 Y34.6055 
G01 X5.6699 Y34.5821 
G01 X5.9311 Y34.5821 
G01 X5.9311 Y34.1573 
G01 X5.9446 Y34.1246 
G01 X5.9696 Y34.0996 
G01 X6.0023 Y34.0861 
G01 X6.0071 Y34.0861 
G01 X6.0071 Y31.7049 
G01 X6.0305 Y31.6176 
G01 X6.0756 Y31.5395 
G01 X6.1395 Y31.4756 
G01 X7.4131 Y30.2020 
G01 X7.3757 Y30.1117 
G01 X7.3406 Y29.9351 
G01 X7.3406 Y29.7549 
G01 X7.3757 Y29.5783 
G01 X7.4131 Y29.4880 
G01 X6.7745 Y28.8494 
G01 X6.7106 Y28.7855 
G01 X6.6655 Y28.7074 
G01 X6.6421 Y28.6201 
G01 X6.6421 Y14.5599 
G01 X6.6655 Y14.4726 
G01 X6.7106 Y14.3945 
G01 X6.7745 Y14.3306 
G01 X6.8526 Y14.2855 
G01 X6.9399 Y14.2621 
G01 X11.7111 Y14.2621 
G01 X11.7111 Y13.6873 
G01 X11.7246 Y13.6546 
G01 X11.7496 Y13.6296 
G01 X11.7823 Y13.6161 
G01 X13.6177 Y13.6161 
G01 X13.6504 Y13.6296 
G01 X13.6754 Y13.6546 
G01 X13.6889 Y13.6873 
G01 X13.6889 Y15.5227 
G01 X13.6754 Y15.5554 
G01 X13.6504 Y15.5804 
G01 X13.6177 Y15.5939 
G01 X12.7279 Y15.5939 
G01 X12.7279 Y19.4811 
G01 X13.0527 Y19.4811 
G01 X13.0854 Y19.4946 
G01 X13.1104 Y19.5196 
G01 X13.1239 Y19.5523 
G01 X13.1239 Y21.0877 
G01 X13.1104 Y21.1204 
G01 X13.0854 Y21.1454 
G01 X13.0527 Y21.1589 
G01 X11.7173 Y21.1589 
G01 X11.6846 Y21.1454 
G01 X11.6596 Y21.1204 
G01 X11.6461 Y21.0877 
G01 X11.6461 Y19.5523 
G01 X11.6596 Y19.5196 
G01 X11.6846 Y19.4946 
G01 X11.7173 Y19.4811 
G01 X12.0421 Y19.4811 
G01 X12.0421 Y18.1229 
G01 X11.8489 Y18.1229 
G01 X11.8489 Y18.5977 
G01 X11.8354 Y18.6304 
G01 X11.8104 Y18.6554 
G01 X11.7777 Y18.6689 
G01 X10.4423 Y18.6689 
G01 X10.4096 Y18.6554 
G01 X10.3846 Y18.6304 
G01 X10.3711 Y18.5977 
G01 X10.3711 Y16.9623 
G01 X10.3846 Y16.9296 
G01 X10.4096 Y16.9046 
G01 X10.4423 Y16.8911 
G01 X11.7777 Y16.8911 
G01 X11.8104 Y16.9046 
G01 X11.8354 Y16.9296 
G01 X11.8489 Y16.9623 
G01 X11.8489 Y17.4371 
G01 X12.0421 Y17.4371 
G01 X12.0421 Y15.5939 
G01 X11.7823 Y15.5939 
G01 X11.7496 Y15.5804 
G01 X11.7246 Y15.5554 
G01 X11.7111 Y15.5227 
G01 X11.7111 Y14.9479 
G01 X7.3279 Y14.9479 
G01 X7.3279 Y28.4330 
G01 X7.8980 Y29.0031 
G01 X7.9883 Y28.9657 
G01 X8.1649 Y28.9306 
G01 X8.3451 Y28.9306 
G01 X8.5217 Y28.9657 
G01 X8.6881 Y29.0347 
G01 X8.8379 Y29.1347 
G01 X8.9653 Y29.2621 
G01 X9.0653 Y29.4119 
G01 X9.1343 Y29.5783 
G01 X9.1694 Y29.7549 
G01 X9.1694 Y29.9351 
G01 X9.1343 Y30.1117 
G01 X9.0653 Y30.2781 
G01 X8.9653 Y30.4279 
G01 X8.8379 Y30.5553 
G01 X8.6881 Y30.6553 
G01 X8.5217 Y30.7243 
G01 X8.3451 Y30.7594 
G01 X8.1649 Y30.7594 
G01 X7.9883 Y30.7243 
G01 X7.8980 Y30.6869 
G01 X6.6929 Y31.8920 
G01 X6.6929 Y34.0861 
G01 X7.3377 Y34.0861 
G01 X7.3704 Y34.0996 
G01 X7.3954 Y34.1246 
G01 X7.4089 Y34.1573 
G01 X7.4089 Y35.6927 
G01 X7.3954 Y35.7254 
G01 X7.3704 Y35.7504 
G01 X7.3377 Y35.7639 
G01 X6.0023 Y35.7639 
G01 X5.9696 Y35.7504 
G01 X5.9446 Y35.7254 
G01 X5.9311 Y35.6927 
G01 X5.9311 Y35.2679 
G01 X5.8570 Y35.2679 
G01 X3.5179 Y37.6070 
G01 X3.5179 Y39.8630 
G01 X4.8543 Y41.1994 
G01 X4.8633 Y41.1957 
G01 X5.0068 Y41.1671 
G01 X5.1532 Y41.1671 
G01 X5.2967 Y41.1957 
G01 X5.4319 Y41.2517 
G01 X5.5536 Y41.3330 
G01 X5.6570 Y41.4364 
G01 X5.7383 Y41.5581 
G01 X5.7421 Y41.5671 
G01 X11.3482 Y41.5671 
G01 X11.7546 Y41.1607 
G01 X12.3754 Y41.1607 
G01 X12.8143 Y41.5996 
G01 X12.8143 Y42.2204 
G01 X12.3754 Y42.6593 
G01 X11.8006 Y42.6593 
G01 X10.5029 Y43.9570 
G01 X10.5029 Y47.5402 
G01 X10.5149 Y47.5452 
G01 X10.6377 Y47.6272 
G01 X10.7420 Y47.7315 
G01 X10.8240 Y47.8543 
G01 X10.8805 Y47.9906 
G01 X10.9093 Y48.1354 
G01 X10.9093 Y49.6038 
G01 X10.8805 Y49.7486 
G01 X10.8755 Y49.7606 
G01 X10.9370 Y49.8221 
G01 X12.0100 Y49.8221 
G01 X11.9795 Y49.7486 
G01 X11.9507 Y49.6038 
G01 X11.9507 Y48.1354 
G01 X11.9795 Y47.9906 
G01 X12.0360 Y47.8543 
G01 X12.1180 Y47.7315 
G01 X12.2223 Y47.6272 
G01 X12.3451 Y47.5452 
G01 X12.3571 Y47.5402 
G01 X12.3571 Y44.4049 
G01 X12.3805 Y44.3176 
G01 X12.4256 Y44.2395 
G01 X12.5857 Y44.0794 
G01 X12.5857 Y43.5046 
G01 X12.9921 Y43.0982 
G01 X12.9921 Y38.9889 
G01 X12.3473 Y38.9889 
G01 X12.3146 Y38.9754 
G01 X12.2896 Y38.9504 
G01 X12.2761 Y38.9177 
G01 X12.2761 Y37.2823 
G01 X12.2896 Y37.2496 
G01 X12.3146 Y37.2246 
G01 X12.3473 Y37.2111 
G01 X13.6827 Y37.2111 
G01 X13.7154 Y37.2246 
G01 X13.7404 Y37.2496 
G01 X13.7539 Y37.2823 
G01 X13.7539 Y38.9177 
G01 X13.7404 Y38.9504 
G01 X13.7154 Y38.9754 
G01 X13.6827 Y38.9889 
G01 X13.6779 Y38.9889 
G01 X13.6779 Y43.0982 
G01 X14.0843 Y43.5046 
G01 X14.0843 Y44.1254 
G01 X13.6454 Y44.5643 
G01 X13.0706 Y44.5643 
G01 X13.0429 Y44.5920 
G01 X13.0429 Y47.5402 
G01 X13.0549 Y47.5452 
G01 X13.1776 Y47.6272 
G01 X13.2820 Y47.7315 
G01 X13.3640 Y47.8543 
G01 X13.4205 Y47.9906 
G01 X13.4493 Y48.1354 
G01 X13.4493 Y49.6038 
G01 X13.4205 Y49.7486 
G01 X13.3900 Y49.8221 
G01 X15.0980 Y49.8221 
G01 X15.5321 Y49.3880 
G01 X15.5321 Y44.4049 
G01 X15.5555 Y44.3176 
G01 X15.6006 Y44.2395 
G01 X20.8745 Y38.9656 
G01 X20.8695 Y38.9536 
G01 X20.8407 Y38.8088 
G01 X20.8407 Y37.3404 
G01 X20.8695 Y37.1956 
G01 X20.9260 Y37.0593 
G01 X21.0080 Y36.9365 
G01 X21.1123 Y36.8322 
G01 X21.2351 Y36.7502 
G01 X21.3714 Y36.6937 
G01 X21.5162 Y36.6649 
G01 X21.6638 Y36.6649 
G01 X21.8086 Y36.6937 
G01 X21.9449 Y36.7502 
G01 X22.0677 Y36.8322 
G01 X22.1720 Y36.9365 
G01 X22.2540 Y37.0593 
G01 X22.3105 Y37.1956 
G01 X22.3393 Y37.3404 
G01 X22.3393 Y37.5008 
G01 X23.8556 Y35.9845 
G01 X23.9195 Y35.9206 
G01 X23.9976 Y35.8755 
G01 X24.0849 Y35.8521 
G01 X26.5280 Y35.8521 
G01 X28.1247 Y34.2553 
G01 X28.0973 Y34.2370 
G01 X27.9930 Y34.1326 
G01 X27.9110 Y34.0099 
G01 X27.8545 Y33.8736 
G01 X27.8257 Y33.7288 
G01 X27.8257 Y32.2604 
G01 X27.8545 Y32.1156 
G01 X27.9110 Y31.9793 
G01 X27.9930 Y31.8565 
G01 X28.0973 Y31.7522 
G01 X28.2201 Y31.6702 
G01 X28.2321 Y31.6652 
G01 X28.2321 Y31.2570 
G01 X27.7980 Y30.8229 
G01 X19.5799 Y30.8229 
G01 X19.4926 Y30.7995 
G01 X19.4389 Y30.7685 
G01 X19.4389 Y31.0227 
G01 X19.4254 Y31.0554 
G01 X19.4004 Y31.0804 
G01 X19.3677 Y31.0939 
G01 X18.7323 Y31.0939 
G01 X18.6996 Y31.0804 
G01 X18.6746 Y31.0554 
G01 X18.6611 Y31.0227 
G01 X18.6611 Y28.7873 
G01 X18.6746 Y28.7546 
G01 X18.6996 Y28.7296 
G01 X18.7323 Y28.7161 
G01 X19.3677 Y28.7161 
G01 X19.4004 Y28.7296 
G01 X19.4254 Y28.7546 
G01 X19.4389 Y28.7873 
G01 X19.4389 Y29.8090 
G01 X19.7670 Y30.1371 
G01 X27.9851 Y30.1371 
G01 X28.0724 Y30.1605 
G01 X28.1505 Y30.2056 
G01 X28.2144 Y30.2695 
G01 X28.8494 Y30.9045 
G01 X28.8945 Y30.9826 
G01 X28.9179 Y31.0699 
G01 X28.9179 Y31.6652 
G01 X28.9299 Y31.6702 
G01 X29.0526 Y31.7522 
G01 X29.1570 Y31.8565 
G01 X29.2390 Y31.9793 
G01 X29.2955 Y32.1156 
G01 X29.3243 Y32.2604 
G00 Z2.5400 
G00 X13.5177 Y62.0189 
G01 Z-0.1000 F254.00 
G01 X11.8823 Y62.0189 F200.00 
G01 X11.8496 Y62.0054 
G01 X11.8246 Y61.9804 
G01 X11.8111 Y61.9477 
G01 X11.8111 Y60.6123 
G01 X11.8246 Y60.5796 
G01 X11.8496 Y60.5546 
G01 X11.8823 Y60.5411 
G01 X12.3571 Y60.5411 
G01 X12.3571 Y59.1398 
G01 X12.3451 Y59.1348 
G01 X12.2223 Y59.0528 
G01 X12.1180 Y58.9485 
G01 X12.0360 Y58.8257 
G01 X11.9795 Y58.6894 
G01 X11.9507 Y58.5446 
G01 X11.9507 Y57.0762 
G01 X11.9795 Y56.9314 
G01 X12.0360 Y56.7951 
G01 X12.1180 Y56.6723 
G01 X12.2223 Y56.5680 
G01 X12.3451 Y56.4860 
G01 X12.4814 Y56.4295 
G01 X12.6262 Y56.4007 
G01 X12.7738 Y56.4007 
G01 X12.9186 Y56.4295 
G01 X13.0549 Y56.4860 
G01 X13.1776 Y56.5680 
G01 X13.2820 Y56.6723 
G01 X13.3640 Y56.7951 
G01 X13.4205 Y56.9314 
G01 X13.4493 Y57.0762 
G01 X13.4493 Y58.5446 
G01 X13.4205 Y58.6894 
G01 X13.3640 Y58.8257 
G01 X13.2820 Y58.9485 
G01 X13.1776 Y59.0528 
G01 X13.0549 Y59.1348 
G01 X13.0429 Y59.1398 
G01 X13.0429 Y60.5411 
G01 X13.5177 Y60.5411 
G01 X13.5504 Y60.5546 
G01 X13.5754 Y60.5796 
G01 X13.5889 Y60.6123 
G01 X13.5889 Y61.9477 
G01 X13.5754 Y61.9804 
G01 X13.5504 Y62.0054 
G01 X13.5177 Y62.0189 
G00 Z2.5400 
G00 X28.7577 Y23.9139 
G01 Z-0.1000 F254.00 
G01 X28.4353 Y23.9139 F200.00 
G01 X28.4353 Y25.6161 
G01 X28.7577 Y25.6161 
G01 X28.7904 Y25.6296 
G01 X28.8154 Y25.6546 
G01 X28.8289 Y25.6873 
G01 X28.8289 Y27.0227 
G01 X28.8154 Y27.0554 
G01 X28.7904 Y27.0804 
G01 X28.7577 Y27.0939 
G01 X27.1223 Y27.0939 
G01 X27.0896 Y27.0804 
G01 X27.0646 Y27.0554 
G01 X27.0511 Y27.0227 
G01 X27.0511 Y25.6873 
G01 X27.0646 Y25.6546 
G01 X27.0896 Y25.6296 
G01 X27.1223 Y25.6161 
G01 X27.4447 Y25.6161 
G01 X27.4447 Y23.9139 
G01 X27.1223 Y23.9139 
G01 X27.0896 Y23.9004 
G01 X27.0646 Y23.8754 
G01 X27.0511 Y23.8427 
G01 X27.0511 Y22.5073 
G01 X27.0646 Y22.4746 
G01 X27.0896 Y22.4496 
G01 X27.1223 Y22.4361 
G01 X28.7577 Y22.4361 
G01 X28.7904 Y22.4496 
G01 X28.8154 Y22.4746 
G01 X28.8289 Y22.5073 
G01 X28.8289 Y23.8427 
G01 X28.8154 Y23.8754 
G01 X28.7904 Y23.9004 
G01 X28.7577 Y23.9139 
G00 Z2.5400 
G00 X28.7577 Y16.9339 
G01 Z-0.1000 F254.00 
G01 X27.1223 Y16.9339 F200.00 
G01 X27.0896 Y16.9204 
G01 X27.0646 Y16.8954 
G01 X27.0511 Y16.8627 
G01 X27.0511 Y15.5273 
G01 X27.0646 Y15.4946 
G01 X27.0896 Y15.4696 
G01 X27.1223 Y15.4561 
G01 X27.4447 Y15.4561 
G01 X27.4447 Y13.7539 
G01 X27.1223 Y13.7539 
G01 X27.0896 Y13.7404 
G01 X27.0646 Y13.7154 
G01 X27.0511 Y13.6827 
G01 X27.0511 Y12.3473 
G01 X27.0646 Y12.3146 
G01 X27.0896 Y12.2896 
G01 X27.1223 Y12.2761 
G01 X28.7577 Y12.2761 
G01 X28.7904 Y12.2896 
G01 X28.8154 Y12.3146 
G01 X28.8289 Y12.3473 
G01 X28.8289 Y13.6827 
G01 X28.8154 Y13.7154 
G01 X28.7904 Y13.7404 
G01 X28.7577 Y13.7539 
G01 X28.4353 Y13.7539 
G01 X28.4353 Y15.4561 
G01 X28.7577 Y15.4561 
G01 X28.7904 Y15.4696 
G01 X28.8154 Y15.4946 
G01 X28.8289 Y15.5273 
G01 X28.8289 Y16.8627 
G01 X28.8154 Y16.8954 
G01 X28.7904 Y16.9204 
G01 X28.7577 Y16.9339 
G00 Z2.5400 
G00 X28.7577 Y18.8339 
G01 Z-0.1000 F254.00 
G01 X28.4353 Y18.8339 F200.00 
G01 X28.4353 Y20.5361 
G01 X28.7577 Y20.5361 
G01 X28.7904 Y20.5496 
G01 X28.8154 Y20.5746 
G01 X28.8289 Y20.6073 
G01 X28.8289 Y21.9427 
G01 X28.8154 Y21.9754 
G01 X28.7904 Y22.0004 
G01 X28.7577 Y22.0139 
G01 X27.1223 Y22.0139 
G01 X27.0896 Y22.0004 
G01 X27.0646 Y21.9754 
G01 X27.0511 Y21.9427 
G01 X27.0511 Y20.6073 
G01 X27.0646 Y20.5746 
G01 X27.0896 Y20.5496 
G01 X27.1223 Y20.5361 
G01 X27.4447 Y20.5361 
G01 X27.4447 Y18.8339 
G01 X27.1223 Y18.8339 
G01 X27.0896 Y18.8204 
G01 X27.0646 Y18.7954 
G01 X27.0511 Y18.7627 
G01 X27.0511 Y17.4273 
G01 X27.0646 Y17.3946 
G01 X27.0896 Y17.3696 
G01 X27.1223 Y17.3561 
G01 X28.7577 Y17.3561 
G01 X28.7904 Y17.3696 
G01 X28.8154 Y17.3946 
G01 X28.8289 Y17.4273 
G01 X28.8289 Y18.7627 
G01 X28.8154 Y18.7954 
G01 X28.7904 Y18.8204 
G01 X28.7577 Y18.8339 
G00 Z2.5400 
G00 X28.7577 Y6.7739 
G01 Z-0.1000 F254.00 
G01 X27.1223 Y6.7739 F200.00 
G01 X27.0896 Y6.7604 
G01 X27.0646 Y6.7354 
G01 X27.0511 Y6.7027 
G01 X27.0511 Y5.6310 
G01 X23.6680 Y2.2479 
G01 X20.4620 Y2.2479 
G01 X20.0741 Y2.6358 
G01 X20.1534 Y2.6686 
G01 X20.3154 Y2.7769 
G01 X20.4531 Y2.9146 
G01 X20.5614 Y3.0766 
G01 X20.6359 Y3.2565 
G01 X20.6739 Y3.4476 
G01 X20.6739 Y5.4424 
G01 X20.6359 Y5.6334 
G01 X20.5614 Y5.8134 
G01 X20.4531 Y5.9754 
G01 X20.3154 Y6.1131 
G01 X20.1534 Y6.2214 
G01 X19.9734 Y6.2959 
G01 X19.7824 Y6.3339 
G01 X19.5876 Y6.3339 
G01 X19.3965 Y6.2959 
G01 X19.2166 Y6.2214 
G01 X19.0546 Y6.1131 
G01 X18.9169 Y5.9754 
G01 X18.8086 Y5.8134 
G01 X18.7341 Y5.6334 
G01 X18.6961 Y5.4424 
G01 X18.6961 Y5.4339 
G01 X18.1339 Y5.4339 
G01 X18.1339 Y5.4424 
G01 X18.0959 Y5.6334 
G01 X18.0214 Y5.8134 
G01 X17.9131 Y5.9754 
G01 X17.7754 Y6.1131 
G01 X17.6134 Y6.2214 
G01 X17.4335 Y6.2959 
G01 X17.2424 Y6.3339 
G01 X17.0476 Y6.3339 
G01 X16.8565 Y6.2959 
G01 X16.6766 Y6.2214 
G01 X16.5146 Y6.1131 
G01 X16.3769 Y5.9754 
G01 X16.2686 Y5.8134 
G01 X16.1941 Y5.6334 
G01 X16.1561 Y5.4424 
G01 X16.1561 Y3.4476 
G01 X16.1941 Y3.2565 
G01 X16.2686 Y3.0766 
G01 X16.3769 Y2.9146 
G01 X16.5146 Y2.7769 
G01 X16.6766 Y2.6686 
G01 X16.8565 Y2.5941 
G01 X17.0476 Y2.5561 
G01 X17.2424 Y2.5561 
G01 X17.4335 Y2.5941 
G01 X17.6134 Y2.6686 
G01 X17.7754 Y2.7769 
G01 X17.9131 Y2.9146 
G01 X18.0214 Y3.0766 
G01 X18.0959 Y3.2565 
G01 X18.1339 Y3.4476 
G01 X18.1339 Y3.4561 
G01 X18.6961 Y3.4561 
G01 X18.6961 Y3.4476 
G01 X18.7341 Y3.2565 
G01 X18.8086 Y3.0766 
G01 X18.9169 Y2.9146 
G01 X19.0546 Y2.7769 
G01 X19.2166 Y2.6686 
G01 X19.3421 Y2.6167 
G01 X19.3421 Y2.4949 
G01 X19.3655 Y2.4076 
G01 X19.4106 Y2.3295 
G01 X20.0456 Y1.6945 
G01 X20.1095 Y1.6306 
G01 X20.1876 Y1.5855 
G01 X20.2749 Y1.5621 
G01 X23.8551 Y1.5621 
G01 X23.9424 Y1.5855 
G01 X24.0205 Y1.6306 
G01 X24.0844 Y1.6945 
G01 X27.6860 Y5.2961 
G01 X28.7577 Y5.2961 
G01 X28.7904 Y5.3096 
G01 X28.8154 Y5.3346 
G01 X28.8289 Y5.3673 
G01 X28.8289 Y6.7027 
G01 X28.8154 Y6.7354 
G01 X28.7904 Y6.7604 
G01 X28.7577 Y6.7739 
G00 Z2.5400 
G00 X28.7577 Y8.6739 
G01 Z-0.1000 F254.00 
G01 X28.4353 Y8.6739 F200.00 
G01 X28.4353 Y10.3761 
G01 X28.7577 Y10.3761 
G01 X28.7904 Y10.3896 
G01 X28.8154 Y10.4146 
G01 X28.8289 Y10.4473 
G01 X28.8289 Y11.7827 
G01 X28.8154 Y11.8154 
G01 X28.7904 Y11.8404 
G01 X28.7577 Y11.8539 
G01 X27.1223 Y11.8539 
G01 X27.0896 Y11.8404 
G01 X27.0646 Y11.8154 
G01 X27.0511 Y11.7827 
G01 X27.0511 Y10.4473 
G01 X27.0646 Y10.4146 
G01 X27.0896 Y10.3896 
G01 X27.1223 Y10.3761 
G01 X27.4447 Y10.3761 
G01 X27.4447 Y8.6739 
G01 X27.1223 Y8.6739 
G01 X27.0896 Y8.6604 
G01 X27.0646 Y8.6354 
G01 X27.0511 Y8.6027 
G01 X27.0511 Y7.2673 
G01 X27.0646 Y7.2346 
G01 X27.0896 Y7.2096 
G01 X27.1223 Y7.1961 
G01 X28.7577 Y7.1961 
G01 X28.7904 Y7.2096 
G01 X28.8154 Y7.2346 
G01 X28.8289 Y7.2673 
G01 X28.8289 Y8.6027 
G01 X28.8154 Y8.6354 
G01 X28.7904 Y8.6604 
G01 X28.7577 Y8.6739 
G00 Z2.5400 
G00 X16.6927 Y33.4439 
G01 Z-0.1000 F254.00 
G01 X15.0573 Y33.4439 F200.00 
G01 X15.0246 Y33.4304 
G01 X14.9996 Y33.4054 
G01 X14.9861 Y33.3727 
G01 X14.9861 Y32.0373 
G01 X14.9996 Y32.0046 
G01 X15.0246 Y31.9796 
G01 X15.0573 Y31.9661 
G01 X16.1290 Y31.9661 
G01 X16.1671 Y31.9280 
G01 X16.1671 Y31.0835 
G01 X16.1596 Y31.0804 
G01 X16.1346 Y31.0554 
G01 X16.1211 Y31.0227 
G01 X16.1211 Y28.7873 
G01 X16.1346 Y28.7546 
G01 X16.1596 Y28.7296 
G01 X16.1923 Y28.7161 
G01 X16.8277 Y28.7161 
G01 X16.8604 Y28.7296 
G01 X16.8854 Y28.7546 
G01 X16.8989 Y28.7873 
G01 X16.8989 Y31.0227 
G01 X16.8854 Y31.0554 
G01 X16.8604 Y31.0804 
G01 X16.8529 Y31.0835 
G01 X16.8529 Y32.1151 
G01 X16.8295 Y32.2024 
G01 X16.7844 Y32.2805 
G01 X16.7639 Y32.3010 
G01 X16.7639 Y33.3727 
G01 X16.7504 Y33.4054 
G01 X16.7254 Y33.4304 
G01 X16.6927 Y33.4439 
G00 Z2.5400 
G00 X15.0573 Y35.3439 
G01 Z-0.1000 F254.00 
G01 X15.0246 Y35.3304 F200.00 
G01 X14.9996 Y35.3054 
G01 X14.9861 Y35.2727 
G01 X14.9861 Y33.9373 
G01 X14.9996 Y33.9046 
G01 X15.0246 Y33.8796 
G01 X15.0573 Y33.8661 
G01 X16.6927 Y33.8661 
G01 X16.7254 Y33.8796 
G01 X16.7504 Y33.9046 
G01 X16.7639 Y33.9373 
G01 X16.7639 Y35.0090 
G01 X18.5812 Y36.8263 
G01 X18.6951 Y36.7502 
G01 X18.8314 Y36.6937 
G01 X18.9762 Y36.6649 
G01 X19.1238 Y36.6649 
G01 X19.2686 Y36.6937 
G01 X19.4049 Y36.7502 
G01 X19.5277 Y36.8322 
G01 X19.6320 Y36.9365 
G01 X19.7140 Y37.0593 
G01 X19.7705 Y37.1956 
G01 X19.7993 Y37.3404 
G01 X19.7993 Y38.8088 
G01 X19.7705 Y38.9536 
G01 X19.7140 Y39.0899 
G01 X19.6320 Y39.2127 
G01 X19.5277 Y39.3170 
G01 X19.4049 Y39.3990 
G01 X19.2686 Y39.4555 
G01 X19.1238 Y39.4843 
G01 X18.9762 Y39.4843 
G01 X18.8314 Y39.4555 
G01 X18.6951 Y39.3990 
G01 X18.5723 Y39.3170 
G01 X18.4680 Y39.2127 
G01 X18.3860 Y39.0899 
G01 X18.3295 Y38.9536 
G01 X18.3007 Y38.8088 
G01 X18.3007 Y37.5156 
G01 X16.1290 Y35.3439 
G01 X15.0573 Y35.3439 
G00 Z2.5400 
G00 X19.8677 Y33.4439 
G01 Z-0.1000 F254.00 
G01 X18.2323 Y33.4439 F200.00 
G01 X18.1996 Y33.4304 
G01 X18.1746 Y33.4054 
G01 X18.1611 Y33.3727 
G01 X18.1611 Y33.3629 
G01 X17.7349 Y33.3629 
G01 X17.6476 Y33.3395 
G01 X17.5695 Y33.2944 
G01 X17.5056 Y33.2305 
G01 X17.4605 Y33.1524 
G01 X17.4371 Y33.0651 
G01 X17.4371 Y31.0835 
G01 X17.4296 Y31.0804 
G01 X17.4046 Y31.0554 
G01 X17.3911 Y31.0227 
G01 X17.3911 Y28.7873 
G01 X17.4046 Y28.7546 
G01 X17.4296 Y28.7296 
G01 X17.4623 Y28.7161 
G01 X18.0977 Y28.7161 
G01 X18.1304 Y28.7296 
G01 X18.1554 Y28.7546 
G01 X18.1689 Y28.7873 
G01 X18.1689 Y31.0227 
G01 X18.1554 Y31.0554 
G01 X18.1304 Y31.0804 
G01 X18.1229 Y31.0835 
G01 X18.1229 Y32.6771 
G01 X18.1611 Y32.6771 
G01 X18.1611 Y32.0373 
G01 X18.1746 Y32.0046 
G01 X18.1996 Y31.9796 
G01 X18.2323 Y31.9661 
G01 X19.8677 Y31.9661 
G01 X19.9004 Y31.9796 
G01 X19.9254 Y32.0046 
G01 X19.9389 Y32.0373 
G01 X19.9389 Y33.3727 
G01 X19.9254 Y33.4054 
G01 X19.9004 Y33.4304 
G01 X19.8677 Y33.4439 
G00 Z2.5400 
G00 X18.6261 Y57.9677 
G01 Z-0.1000 F254.00 
G01 X18.6261 Y56.3323 F200.00 
G01 X18.6396 Y56.2996 
G01 X18.6646 Y56.2746 
G01 X18.6973 Y56.2611 
G01 X19.0221 Y56.2611 
G01 X19.0221 Y55.7020 
G01 X18.1406 Y54.8205 
G01 X18.0955 Y54.7424 
G01 X18.0721 Y54.6551 
G01 X18.0721 Y52.7868 
G01 X17.6657 Y52.3804 
G01 X17.6657 Y51.7596 
G01 X18.1046 Y51.3207 
G01 X18.6794 Y51.3207 
G01 X18.7071 Y51.2930 
G01 X18.7071 Y48.3448 
G01 X18.6951 Y48.3398 
G01 X18.5723 Y48.2578 
G01 X18.4680 Y48.1534 
G01 X18.3860 Y48.0307 
G01 X18.3295 Y47.8944 
G01 X18.3007 Y47.7496 
G01 X18.3007 Y46.2812 
G01 X18.3295 Y46.1364 
G01 X18.3860 Y46.0001 
G01 X18.4680 Y45.8773 
G01 X18.5723 Y45.7730 
G01 X18.6951 Y45.6910 
G01 X18.8314 Y45.6345 
G01 X18.9762 Y45.6057 
G01 X19.1238 Y45.6057 
G01 X19.2686 Y45.6345 
G01 X19.4049 Y45.6910 
G01 X19.5277 Y45.7730 
G01 X19.6320 Y45.8773 
G01 X19.7140 Y46.0001 
G01 X19.7705 Y46.1364 
G01 X19.7993 Y46.2812 
G01 X19.7993 Y47.7496 
G01 X19.7705 Y47.8944 
G01 X19.7140 Y48.0307 
G01 X19.6320 Y48.1534 
G01 X19.5277 Y48.2578 
G01 X19.4049 Y48.3398 
G01 X19.3929 Y48.3448 
G01 X19.3929 Y51.4801 
G01 X19.3695 Y51.5674 
G01 X19.3244 Y51.6455 
G01 X19.2605 Y51.7094 
G01 X19.1643 Y51.8056 
G01 X19.1643 Y52.3804 
G01 X18.7579 Y52.7868 
G01 X18.7579 Y54.4680 
G01 X19.6394 Y55.3495 
G01 X19.6845 Y55.4276 
G01 X19.7079 Y55.5149 
G01 X19.7079 Y56.2611 
G01 X20.0327 Y56.2611 
G01 X20.0654 Y56.2746 
G01 X20.0904 Y56.2996 
G01 X20.1039 Y56.3323 
G01 X20.1039 Y57.9677 
G01 X20.0904 Y58.0004 
G01 X20.0654 Y58.0254 
G01 X20.0327 Y58.0389 
G01 X18.6973 Y58.0389 
G01 X18.6646 Y58.0254 
G01 X18.6396 Y58.0004 
G01 X18.6261 Y57.9677 
G00 Z2.5400 
G00 X24.9761 Y57.3327 
G01 Z-0.1000 F254.00 
G01 X24.9761 Y55.6973 F200.00 
G01 X24.9896 Y55.6646 
G01 X25.0146 Y55.6396 
G01 X25.0473 Y55.6261 
G01 X25.6921 Y55.6261 
G01 X25.6921 Y52.7868 
G01 X25.2857 Y52.3804 
G01 X25.2857 Y51.7596 
G01 X25.6921 Y51.3532 
G01 X25.6921 Y43.2648 
G01 X25.6801 Y43.2598 
G01 X25.5573 Y43.1778 
G01 X25.4530 Y43.0735 
G01 X25.3710 Y42.9507 
G01 X25.3145 Y42.8144 
G01 X25.2857 Y42.6696 
G01 X25.2857 Y41.2012 
G01 X25.3145 Y41.0564 
G01 X25.3710 Y40.9201 
G01 X25.4530 Y40.7973 
G01 X25.5573 Y40.6930 
G01 X25.6801 Y40.6110 
G01 X25.8164 Y40.5545 
G01 X25.9612 Y40.5257 
G01 X26.1088 Y40.5257 
G01 X26.2536 Y40.5545 
G01 X26.3899 Y40.6110 
G01 X26.5127 Y40.6930 
G01 X26.6170 Y40.7973 
G01 X26.6990 Y40.9201 
G01 X26.7555 Y41.0564 
G01 X26.7843 Y41.2012 
G01 X26.7843 Y42.6696 
G01 X26.7555 Y42.8144 
G01 X26.6990 Y42.9507 
G01 X26.6170 Y43.0735 
G01 X26.5127 Y43.1778 
G01 X26.3899 Y43.2598 
G01 X26.3779 Y43.2648 
G01 X26.3779 Y51.3532 
G01 X26.7843 Y51.7596 
G01 X26.7843 Y52.3804 
G01 X26.3779 Y52.7868 
G01 X26.3779 Y55.6261 
G01 X26.3827 Y55.6261 
G01 X26.4154 Y55.6396 
G01 X26.4404 Y55.6646 
G01 X26.4539 Y55.6973 
G01 X26.4539 Y57.3327 
G01 X26.4404 Y57.3654 
G01 X26.4154 Y57.3904 
G01 X26.3827 Y57.4039 
G01 X25.0473 Y57.4039 
G01 X25.0146 Y57.3904 
G01 X24.9896 Y57.3654 
G01 X24.9761 Y57.3327 
G00 Z2.5400 
G00 X16.7261 Y61.7777 
G01 Z-0.1000 F254.00 
G01 X16.7261 Y60.1423 F200.00 
G01 X16.7396 Y60.1096 
G01 X16.7646 Y60.0846 
G01 X16.7973 Y60.0711 
G01 X17.1221 Y60.0711 
G01 X17.1221 Y58.0389 
G01 X16.7973 Y58.0389 
G01 X16.7646 Y58.0254 
G01 X16.7396 Y58.0004 
G01 X16.7261 Y57.9677 
G01 X16.7261 Y56.3323 
G01 X16.7396 Y56.2996 
G01 X16.7646 Y56.2746 
G01 X16.7973 Y56.2611 
G01 X17.1221 Y56.2611 
G01 X17.1221 Y55.7070 
G01 X17.0140 Y55.5989 
G01 X15.5923 Y55.5989 
G01 X15.5596 Y55.5854 
G01 X15.5346 Y55.5604 
G01 X15.5211 Y55.5277 
G01 X15.5211 Y53.6923 
G01 X15.5346 Y53.6596 
G01 X15.5596 Y53.6346 
G01 X15.5923 Y53.6211 
G01 X17.4277 Y53.6211 
G01 X17.4604 Y53.6346 
G01 X17.4854 Y53.6596 
G01 X17.4989 Y53.6923 
G01 X17.4989 Y55.1140 
G01 X17.7394 Y55.3545 
G01 X17.7845 Y55.4326 
G01 X17.8079 Y55.5199 
G01 X17.8079 Y56.2611 
G01 X18.1327 Y56.2611 
G01 X18.1654 Y56.2746 
G01 X18.1904 Y56.2996 
G01 X18.2039 Y56.3323 
G01 X18.2039 Y57.9677 
G01 X18.1904 Y58.0004 
G01 X18.1654 Y58.0254 
G01 X18.1327 Y58.0389 
G01 X17.8079 Y58.0389 
G01 X17.8079 Y60.0711 
G01 X18.1327 Y60.0711 
G01 X18.1654 Y60.0846 
G01 X18.1904 Y60.1096 
G01 X18.2039 Y60.1423 
G01 X18.2039 Y61.7777 
G01 X18.1904 Y61.8104 
G01 X18.1654 Y61.8354 
G01 X18.1327 Y61.8489 
G01 X18.1229 Y61.8489 
G01 X18.1229 Y66.4040 
G01 X18.1831 Y66.4289 
G01 X18.3224 Y66.5221 
G01 X18.4409 Y66.6406 
G01 X18.5341 Y66.7799 
G01 X18.5982 Y66.9348 
G01 X18.6309 Y67.0992 
G01 X18.6309 Y68.7908 
G01 X18.5982 Y68.9552 
G01 X18.5341 Y69.1101 
G01 X18.4409 Y69.2494 
G01 X18.3224 Y69.3679 
G01 X18.1831 Y69.4611 
G01 X18.0282 Y69.5252 
G01 X17.8638 Y69.5579 
G01 X17.6962 Y69.5579 
G01 X17.5318 Y69.5252 
G01 X17.3769 Y69.4611 
G01 X17.2376 Y69.3679 
G01 X17.1191 Y69.2494 
G01 X17.0259 Y69.1101 
G01 X16.9618 Y68.9552 
G01 X16.9291 Y68.7908 
G01 X16.9291 Y67.0992 
G01 X16.9618 Y66.9348 
G01 X17.0259 Y66.7799 
G01 X17.1191 Y66.6406 
G01 X17.2376 Y66.5221 
G01 X17.3769 Y66.4289 
G01 X17.4371 Y66.4040 
G01 X17.4371 Y61.8489 
G01 X16.7973 Y61.8489 
G01 X16.7646 Y61.8354 
G01 X16.7396 Y61.8104 
G01 X16.7261 Y61.7777 
G00 Z2.5400 
G00 X12.2761 Y35.7427 
G01 Z-0.1000 F254.00 
G01 X12.2761 Y34.1073 F200.00 
G01 X12.2896 Y34.0746 
G01 X12.3146 Y34.0496 
G01 X12.3473 Y34.0361 
G01 X12.9921 Y34.0361 
G01 X12.9921 Y31.7649 
G01 X13.0155 Y31.6776 
G01 X13.0606 Y31.5995 
G01 X14.8511 Y29.8090 
G01 X14.8511 Y28.7873 
G01 X14.8646 Y28.7546 
G01 X14.8896 Y28.7296 
G01 X14.9223 Y28.7161 
G01 X15.5577 Y28.7161 
G01 X15.5904 Y28.7296 
G01 X15.6154 Y28.7546 
G01 X15.6289 Y28.7873 
G01 X15.6289 Y31.0227 
G01 X15.6154 Y31.0554 
G01 X15.5904 Y31.0804 
G01 X15.5577 Y31.0939 
G01 X14.9223 Y31.0939 
G01 X14.8896 Y31.0804 
G01 X14.8646 Y31.0554 
G01 X14.8511 Y31.0227 
G01 X14.8511 Y30.7788 
G01 X13.6779 Y31.9520 
G01 X13.6779 Y34.0361 
G01 X13.6827 Y34.0361 
G01 X13.7154 Y34.0496 
G01 X13.7404 Y34.0746 
G01 X13.7539 Y34.1073 
G01 X13.7539 Y34.8590 
G01 X14.8155 Y35.9206 
G01 X14.8794 Y35.9845 
G01 X14.9245 Y36.0626 
G01 X14.9479 Y36.1499 
G01 X14.9479 Y41.1932 
G01 X15.3543 Y41.5996 
G01 X15.3543 Y42.2204 
G01 X14.9154 Y42.6593 
G01 X14.2946 Y42.6593 
G01 X13.8557 Y42.2204 
G01 X13.8557 Y41.5996 
G01 X14.2621 Y41.1932 
G01 X14.2621 Y36.3370 
G01 X13.7204 Y35.7953 
G01 X13.7154 Y35.8004 
G01 X13.6827 Y35.8139 
G01 X12.3473 Y35.8139 
G01 X12.3146 Y35.8004 
G01 X12.2896 Y35.7754 
G01 X12.2761 Y35.7427 
G00 Z2.5400 
G00 X16.6927 Y15.6639 
G01 Z-0.1000 F254.00 
G01 X15.0573 Y15.6639 F200.00 
G01 X15.0246 Y15.6504 
G01 X14.9996 Y15.6254 
G01 X14.9861 Y15.5927 
G01 X14.9861 Y14.2573 
G01 X14.9996 Y14.2246 
G01 X15.0246 Y14.1996 
G01 X14.1587 Y12.7889 
G01 X13.9523 Y12.7889 
G01 X13.9196 Y12.7754 
G01 X13.8946 Y12.7504 
G01 X13.8811 Y12.7177 
G01 X13.8811 Y12.3839 
G01 X11.8173 Y12.3839 
G01 X11.7846 Y12.3704 
G01 X11.7596 Y12.3454 
G01 X11.7461 Y12.3127 
G01 X11.7461 Y9.2773 
G01 X11.7596 Y9.2446 
G01 X11.7846 Y9.2196 
G01 X11.8173 Y9.2061 
G01 X12.3461 Y9.2061 
G01 X12.3461 Y5.5784 
G01 X12.3790 Y5.3071 
G01 X12.4444 Y5.0417 
G01 X12.5413 Y4.7862 
G01 X12.6683 Y4.5442 
G01 X12.8236 Y4.3194 
G01 X13.0048 Y4.1148 
G01 X13.2093 Y3.9336 
G01 X13.4342 Y3.7783 
G01 X13.6161 Y3.6829 
G01 X13.6161 Y3.4476 
G01 X13.6541 Y3.2565 
G01 X13.7286 Y3.0766 
G01 X13.8369 Y2.9146 
G01 X13.9746 Y2.7769 
G01 X14.1366 Y2.6686 
G01 X14.3165 Y2.5941 
G01 X14.5076 Y2.5561 
G01 X14.7024 Y2.5561 
G01 X14.8935 Y2.5941 
G01 X15.0734 Y2.6686 
G01 X15.2354 Y2.7769 
G01 X15.3731 Y2.9146 
G01 X15.4814 Y3.0766 
G01 X15.5559 Y3.2565 
G01 X15.5939 Y3.4476 
G01 X15.5939 Y5.4424 
G01 X15.5559 Y5.6334 
G01 X15.4814 Y5.8134 
G01 X15.3731 Y5.9754 
G01 X15.2354 Y6.1131 
G01 X15.0734 Y6.2214 
G01 X14.8935 Y6.2959 
G01 X14.7024 Y6.3339 
G01 X14.5076 Y6.3339 
G01 X14.3239 Y6.2974 
G01 X14.3239 Y9.2061 
G01 X14.8527 Y9.2061 
G01 X14.8854 Y9.2196 
G01 X14.9104 Y9.2446 
G01 X14.9239 Y9.2773 
G01 X14.9239 Y9.4361 
G01 X17.1627 Y9.4361 
G01 X17.1954 Y9.4496 
G01 X17.2204 Y9.4746 
G01 X17.2339 Y9.5073 
G01 X17.2339 Y12.7177 
G01 X17.2204 Y12.7504 
G01 X17.1954 Y12.7754 
G01 X17.1627 Y12.7889 
G01 X14.9638 Y12.7889 
G01 X15.8231 Y14.1861 
G01 X16.6927 Y14.1861 
G01 X16.7254 Y14.1996 
G01 X16.7504 Y14.2246 
G01 X16.7639 Y14.2573 
G01 X16.7639 Y15.5927 
G01 X16.7504 Y15.6254 
G01 X16.7254 Y15.6504 
G01 X16.6927 Y15.6639 
G00 Z2.5400 
G00 X22.4361 Y26.8527 
G01 Z-0.1000 F254.00 
G01 X22.4361 Y25.2173 F200.00 
G01 X22.4496 Y25.1846 
G01 X22.4746 Y25.1596 
G01 X22.5073 Y25.1461 
G01 X22.8321 Y25.1461 
G01 X22.8321 Y24.3339 
G01 X22.5073 Y24.3339 
G01 X22.4746 Y24.3204 
G01 X22.4496 Y24.2954 
G01 X22.4361 Y24.2627 
G01 X22.4361 Y22.7273 
G01 X22.4496 Y22.6946 
G01 X22.4746 Y22.6696 
G01 X22.5073 Y22.6561 
G01 X22.8321 Y22.6561 
G01 X22.8321 Y22.3670 
G01 X22.3295 Y21.8644 
G01 X22.2656 Y21.8005 
G01 X21.6240 Y21.1589 
G01 X20.6023 Y21.1589 
G01 X20.5696 Y21.1454 
G01 X20.5446 Y21.1204 
G01 X20.5311 Y21.0877 
G01 X20.5311 Y19.5523 
G01 X20.5446 Y19.5196 
G01 X20.5696 Y19.4946 
G01 X20.6023 Y19.4811 
G01 X21.9377 Y19.4811 
G01 X21.9704 Y19.4946 
G01 X21.9954 Y19.5196 
G01 X22.0089 Y19.5523 
G01 X22.0089 Y20.5740 
G01 X22.1971 Y20.7622 
G01 X22.1971 Y16.9670 
G01 X20.5739 Y15.3438 
G01 X20.5739 Y15.5927 
G01 X20.5604 Y15.6254 
G01 X20.5354 Y15.6504 
G01 X20.5027 Y15.6639 
G01 X18.8673 Y15.6639 
G01 X18.8346 Y15.6504 
G01 X18.8096 Y15.6254 
G01 X18.7961 Y15.5927 
G01 X18.7961 Y14.2573 
G01 X18.8096 Y14.2246 
G01 X18.8346 Y14.1996 
G01 X18.8673 Y14.1861 
G01 X19.9001 Y14.1861 
G01 X21.1891 Y12.7889 
G01 X19.6673 Y12.7889 
G01 X19.6346 Y12.7754 
G01 X19.6096 Y12.7504 
G01 X19.5961 Y12.7177 
G01 X19.5961 Y9.5073 
G01 X19.6096 Y9.4746 
G01 X19.6346 Y9.4496 
G01 X19.6673 Y9.4361 
G01 X21.9061 Y9.4361 
G01 X21.9061 Y9.2773 
G01 X21.9196 Y9.2446 
G01 X21.9446 Y9.2196 
G01 X21.9773 Y9.2061 
G01 X22.5061 Y9.2061 
G01 X22.5061 Y6.2974 
G01 X22.3224 Y6.3339 
G01 X22.1276 Y6.3339 
G01 X21.9365 Y6.2959 
G01 X21.7566 Y6.2214 
G01 X21.5946 Y6.1131 
G01 X21.4569 Y5.9754 
G01 X21.3486 Y5.8134 
G01 X21.2741 Y5.6334 
G01 X21.2361 Y5.4424 
G01 X21.2361 Y3.4476 
G01 X21.2741 Y3.2565 
G01 X21.3486 Y3.0766 
G01 X21.4569 Y2.9146 
G01 X21.5946 Y2.7769 
G01 X21.7566 Y2.6686 
G01 X21.9365 Y2.5941 
G01 X22.1276 Y2.5561 
G01 X22.3224 Y2.5561 
G01 X22.5135 Y2.5941 
G01 X22.6934 Y2.6686 
G01 X22.8554 Y2.7769 
G01 X22.9931 Y2.9146 
G01 X23.1014 Y3.0766 
G01 X23.1759 Y3.2565 
G01 X23.2139 Y3.4476 
G01 X23.2139 Y3.6829 
G01 X23.3957 Y3.7783 
G01 X23.6206 Y3.9336 
G01 X23.8252 Y4.1148 
G01 X24.0064 Y4.3193 
G01 X24.1617 Y4.5442 
G01 X24.2887 Y4.7862 
G01 X24.3856 Y5.0417 
G01 X24.4510 Y5.3071 
G01 X24.4839 Y5.5784 
G01 X24.4839 Y9.2061 
G01 X25.0127 Y9.2061 
G01 X25.0454 Y9.2196 
G01 X25.0704 Y9.2446 
G01 X25.0839 Y9.2773 
G01 X25.0839 Y12.3127 
G01 X25.0704 Y12.3454 
G01 X25.0454 Y12.3704 
G01 X25.0127 Y12.3839 
G01 X22.9489 Y12.3839 
G01 X22.9489 Y12.7177 
G01 X22.9354 Y12.7504 
G01 X22.9104 Y12.7754 
G01 X22.8777 Y12.7889 
G01 X22.1221 Y12.7889 
G01 X20.7631 Y14.2621 
G01 X22.5061 Y14.2621 
G01 X22.5061 Y13.6873 
G01 X22.5196 Y13.6546 
G01 X22.5446 Y13.6296 
G01 X22.5773 Y13.6161 
G01 X24.4127 Y13.6161 
G01 X24.4454 Y13.6296 
G01 X24.4704 Y13.6546 
G01 X24.4839 Y13.6873 
G01 X24.4839 Y15.5227 
G01 X24.4704 Y15.5554 
G01 X24.4454 Y15.5804 
G01 X24.4127 Y15.5939 
G01 X22.5773 Y15.5939 
G01 X22.5446 Y15.5804 
G01 X22.5196 Y15.5554 
G01 X22.5061 Y15.5227 
G01 X22.5061 Y14.9479 
G01 X21.1478 Y14.9479 
G01 X22.8144 Y16.6145 
G01 X22.8595 Y16.6926 
G01 X22.8829 Y16.7799 
G01 X22.8829 Y21.4480 
G01 X23.3855 Y21.9506 
G01 X23.4494 Y22.0145 
G01 X23.4945 Y22.0926 
G01 X23.5179 Y22.1799 
G01 X23.5179 Y22.6561 
G01 X23.8427 Y22.6561 
G01 X23.8754 Y22.6696 
G01 X23.9004 Y22.6946 
G01 X23.9139 Y22.7273 
G01 X23.9139 Y24.2627 
G01 X23.9004 Y24.2954 
G01 X23.8754 Y24.3204 
G01 X23.8427 Y24.3339 
G01 X23.5179 Y24.3339 
G01 X23.5179 Y25.1461 
G01 X23.8427 Y25.1461 
G01 X23.8754 Y25.1596 
G01 X23.9004 Y25.1846 
G01 X23.9139 Y25.2173 
G01 X23.9139 Y26.8527 
G01 X23.9004 Y26.8854 
G01 X23.8754 Y26.9104 
G01 X23.8427 Y26.9239 
G01 X22.5073 Y26.9239 
G01 X22.4746 Y26.9104 
G01 X22.4496 Y26.8854 
G01 X22.4361 Y26.8527 
G00 Z2.5400 
G00 X22.4361 Y29.3927 
G01 Z-0.1000 F254.00 
G01 X22.4361 Y27.7573 F200.00 
G01 X22.4496 Y27.7246 
G01 X22.4746 Y27.6996 
G01 X22.5073 Y27.6861 
G01 X23.8427 Y27.6861 
G01 X23.8754 Y27.6996 
G01 X23.9004 Y27.7246 
G01 X23.9139 Y27.7573 
G01 X27.0511 Y27.7597 
G01 X27.0511 Y27.5873 
G01 X27.0646 Y27.5546 
G01 X27.0896 Y27.5296 
G01 X27.1223 Y27.5161 
G01 X28.7577 Y27.5161 
G01 X28.7904 Y27.5296 
G01 X28.8154 Y27.5546 
G01 X28.8289 Y27.5873 
G01 X28.8289 Y28.9227 
G01 X28.8154 Y28.9554 
G01 X28.7904 Y28.9804 
G01 X28.7577 Y28.9939 
G01 X27.1223 Y28.9939 
G01 X27.0896 Y28.9804 
G01 X27.0646 Y28.9554 
G01 X27.0511 Y28.9227 
G01 X27.0511 Y28.7503 
G01 X23.9139 Y28.7503 
G01 X23.9139 Y29.3927 
G01 X23.9004 Y29.4254 
G01 X23.8754 Y29.4504 
G01 X23.8427 Y29.4639 
G01 X22.5073 Y29.4639 
G01 X22.4746 Y29.4504 
G01 X22.4496 Y29.4254 
G01 X22.4361 Y29.3927 
G00 Z2.5400 
G00 X22.0091 Y68.7908 
G01 Z-0.1000 F254.00 
G01 X22.0091 Y67.0992 F200.00 
G01 X22.0418 Y66.9348 
G01 X22.1059 Y66.7799 
G01 X22.1991 Y66.6406 
G01 X22.3176 Y66.5221 
G01 X22.4569 Y66.4289 
G01 X22.5171 Y66.4040 
G01 X22.5171 Y65.3599 
G01 X22.5405 Y65.2726 
G01 X22.5856 Y65.1945 
G01 X22.6495 Y65.1306 
G01 X25.3721 Y62.4080 
G01 X25.3721 Y61.8489 
G01 X25.0473 Y61.8489 
G01 X25.0146 Y61.8354 
G01 X24.9896 Y61.8104 
G01 X24.9761 Y61.7777 
G01 X24.9761 Y60.1423 
G01 X24.9896 Y60.1096 
G01 X25.0146 Y60.0846 
G01 X25.0473 Y60.0711 
G01 X26.1190 Y60.0711 
G01 X27.5971 Y58.5930 
G01 X27.5971 Y54.0568 
G01 X27.1907 Y53.6504 
G01 X27.1907 Y53.0296 
G01 X27.6296 Y52.5907 
G01 X28.2504 Y52.5907 
G01 X28.6893 Y53.0296 
G01 X28.6893 Y53.6504 
G01 X28.2829 Y54.0568 
G01 X28.2829 Y58.7801 
G01 X28.2595 Y58.8674 
G01 X28.2144 Y58.9455 
G01 X28.1505 Y59.0094 
G01 X26.4539 Y60.7060 
G01 X26.4539 Y61.7777 
G01 X26.4404 Y61.8104 
G01 X26.4154 Y61.8354 
G01 X26.3827 Y61.8489 
G01 X26.0579 Y61.8489 
G01 X26.0579 Y62.5951 
G01 X26.0345 Y62.6824 
G01 X25.9894 Y62.7605 
G01 X23.2029 Y65.5470 
G01 X23.2029 Y66.4040 
G01 X23.2630 Y66.4289 
G01 X23.4024 Y66.5221 
G01 X23.5209 Y66.6406 
G01 X23.6141 Y66.7799 
G01 X23.6782 Y66.9348 
G01 X23.7109 Y67.0992 
G01 X23.7109 Y68.7908 
G01 X23.6782 Y68.9552 
G01 X23.6141 Y69.1101 
G01 X23.5209 Y69.2494 
G01 X23.4024 Y69.3679 
G01 X23.2630 Y69.4611 
G01 X23.1082 Y69.5252 
G01 X22.9438 Y69.5579 
G01 X22.7762 Y69.5579 
G01 X22.6118 Y69.5252 
G01 X22.4569 Y69.4611 
G01 X22.3176 Y69.3679 
G01 X22.1991 Y69.2494 
G01 X22.1059 Y69.1101 
G01 X22.0418 Y68.9552 
G01 X22.0091 Y68.7908 
G00 Z2.5400 
G00 X24.5491 Y68.7908 
G01 Z-0.1000 F254.00 
G01 X24.5491 Y67.0992 F200.00 
G01 X24.5818 Y66.9348 
G01 X24.6459 Y66.7799 
G01 X24.7391 Y66.6406 
G01 X24.8576 Y66.5221 
G01 X24.9969 Y66.4289 
G01 X25.1518 Y66.3648 
G01 X25.3162 Y66.3321 
G01 X25.4838 Y66.3321 
G01 X25.6482 Y66.3648 
G01 X25.8031 Y66.4289 
G01 X25.9424 Y66.5221 
G01 X26.0609 Y66.6406 
G01 X26.1541 Y66.7799 
G01 X26.2182 Y66.9348 
G01 X26.2509 Y67.0992 
G01 X26.2509 Y68.7908 
G01 X26.2182 Y68.9552 
G01 X26.1541 Y69.1101 
G01 X26.0609 Y69.2494 
G01 X25.9424 Y69.3679 
G01 X25.8031 Y69.4611 
G01 X25.6482 Y69.5252 
G01 X25.4838 Y69.5579 
G01 X25.3162 Y69.5579 
G01 X25.1518 Y69.5252 
G01 X25.0018 Y69.4631 
G01 X23.1344 Y71.3305 
G01 X23.0705 Y71.3944 
G01 X22.9924 Y71.4395 
G01 X22.9051 Y71.4629 
G01 X16.4649 Y71.4629 
G01 X16.3776 Y71.4395 
G01 X16.2995 Y71.3944 
G01 X16.2356 Y71.3305 
G01 X13.0606 Y68.1555 
G01 X13.0155 Y68.0774 
G01 X12.9921 Y67.9901 
G01 X12.9921 Y63.9570 
G01 X12.9540 Y63.9189 
G01 X11.8823 Y63.9189 
G01 X11.8496 Y63.9054 
G01 X11.8246 Y63.8804 
G01 X11.8111 Y63.8477 
G01 X11.8111 Y62.5123 
G01 X11.8246 Y62.4796 
G01 X11.8496 Y62.4546 
G01 X11.8823 Y62.4411 
G01 X13.5177 Y62.4411 
G01 X13.5504 Y62.4546 
G01 X13.5754 Y62.4796 
G01 X13.5889 Y62.5123 
G01 X13.5889 Y63.5840 
G01 X13.6094 Y63.6045 
G01 X13.6545 Y63.6826 
G01 X13.6779 Y63.7699 
G01 X13.6779 Y67.8030 
G01 X16.6520 Y70.7771 
G01 X22.7180 Y70.7771 
G01 X24.5748 Y68.9202 
G01 X24.5491 Y68.7908 
G00 Z2.5400 
G00 X7.2009 Y67.0992 
G01 Z-0.1000 F254.00 
G01 X7.2009 Y68.7908 F200.00 
G01 X7.1682 Y68.9552 
G01 X7.1041 Y69.1101 
G01 X7.0109 Y69.2494 
G01 X6.8924 Y69.3679 
G01 X6.7530 Y69.4611 
G01 X6.5982 Y69.5252 
G01 X6.4338 Y69.5579 
G01 X6.2662 Y69.5579 
G01 X6.1018 Y69.5252 
G01 X5.9469 Y69.4611 
G01 X5.8076 Y69.3679 
G01 X5.6891 Y69.2494 
G01 X5.5959 Y69.1101 
G01 X5.5318 Y68.9552 
G01 X5.4991 Y68.7908 
G01 X5.4991 Y67.0992 
G01 X5.5318 Y66.9348 
G01 X5.5959 Y66.7799 
G01 X5.6891 Y66.6406 
G01 X5.8076 Y66.5221 
G01 X5.9469 Y66.4289 
G01 X6.1018 Y66.3648 
G01 X6.2662 Y66.3321 
G01 X6.4338 Y66.3321 
G01 X6.5982 Y66.3648 
G01 X6.7530 Y66.4289 
G01 X6.8924 Y66.5221 
G01 X7.0109 Y66.6406 
G01 X7.1041 Y66.7799 
G01 X7.1682 Y66.9348 
G01 X7.2009 Y67.0992 
G00 Z2.5400 
G00 X4.6609 Y67.0992 
G01 Z-0.1000 F254.00 
G01 X4.6609 Y68.7908 F200.00 
G01 X4.6282 Y68.9552 
G01 X4.5641 Y69.1101 
G01 X4.4709 Y69.2494 
G01 X4.3524 Y69.3679 
G01 X4.2130 Y69.4611 
G01 X4.0582 Y69.5252 
G01 X3.8938 Y69.5579 
G01 X3.7262 Y69.5579 
G01 X3.5618 Y69.5252 
G01 X3.4069 Y69.4611 
G01 X3.2676 Y69.3679 
G01 X3.1491 Y69.2494 
G01 X3.0559 Y69.1101 
G01 X2.9918 Y68.9552 
G01 X2.9591 Y68.7908 
G01 X2.9591 Y67.5790 
G01 X2.9006 Y67.5205 
G01 X2.8555 Y67.4424 
G01 X2.8321 Y67.3551 
G01 X2.8321 Y46.3099 
G01 X2.8555 Y46.2226 
G01 X2.9006 Y46.1445 
G01 X2.9645 Y46.0806 
G01 X4.3694 Y44.6757 
G01 X4.3657 Y44.6667 
G01 X4.3371 Y44.5232 
G01 X4.3371 Y44.3768 
G01 X4.3657 Y44.2333 
G01 X4.4217 Y44.0981 
G01 X4.5030 Y43.9764 
G01 X4.6064 Y43.8730 
G01 X4.7281 Y43.7917 
G01 X4.8633 Y43.7356 
G01 X5.0068 Y43.7071 
G01 X5.1532 Y43.7071 
G01 X5.2967 Y43.7356 
G01 X5.4319 Y43.7917 
G01 X5.5536 Y43.8730 
G01 X5.6570 Y43.9764 
G01 X5.7383 Y44.0981 
G01 X5.7943 Y44.2333 
G01 X5.8229 Y44.3768 
G01 X5.8229 Y44.5232 
G01 X5.7943 Y44.6667 
G01 X5.7383 Y44.8019 
G01 X5.6570 Y44.9236 
G01 X5.5536 Y45.0270 
G01 X5.4319 Y45.1083 
G01 X5.2967 Y45.1643 
G01 X5.1532 Y45.1929 
G01 X5.0068 Y45.1929 
G01 X4.8633 Y45.1643 
G01 X4.8543 Y45.1606 
G01 X3.5179 Y46.4970 
G01 X3.5179 Y66.3830 
G01 X3.5618 Y66.3648 
G01 X3.7262 Y66.3321 
G01 X3.8938 Y66.3321 
G01 X4.0582 Y66.3648 
G01 X4.2130 Y66.4289 
G01 X4.3524 Y66.5221 
G01 X4.4709 Y66.6406 
G01 X4.5641 Y66.7799 
G01 X4.6282 Y66.9348 
G01 X4.6609 Y67.0992 
G00 Z2.5400 
G00 X18.1689 Y23.5873 
G01 Z-0.1000 F254.00 
G01 X18.1689 Y25.8227 F200.00 
G01 X18.1554 Y25.8554 
G01 X18.1304 Y25.8804 
G01 X18.0977 Y25.8939 
G01 X17.4623 Y25.8939 
G01 X17.4296 Y25.8804 
G01 X17.4046 Y25.8554 
G01 X17.3911 Y25.8227 
G01 X17.3911 Y23.5873 
G01 X17.4046 Y23.5546 
G01 X17.4296 Y23.5296 
G01 X17.4371 Y23.5265 
G01 X17.4371 Y18.6849 
G01 X17.4605 Y18.5976 
G01 X17.5056 Y18.5195 
G01 X17.8256 Y18.1995 
G01 X18.7961 Y17.2290 
G01 X18.7961 Y16.1573 
G01 X18.8096 Y16.1246 
G01 X18.8346 Y16.0996 
G01 X18.8673 Y16.0861 
G01 X20.5027 Y16.0861 
G01 X20.5354 Y16.0996 
G01 X20.5604 Y16.1246 
G01 X20.5739 Y16.1573 
G01 X20.5739 Y17.4927 
G01 X20.5604 Y17.5254 
G01 X20.5354 Y17.5504 
G01 X20.5027 Y17.5639 
G01 X19.4310 Y17.5639 
G01 X18.3105 Y18.6844 
G01 X18.1229 Y18.8720 
G01 X18.1229 Y19.9771 
G01 X18.6311 Y19.9771 
G01 X18.6311 Y19.5523 
G01 X18.6446 Y19.5196 
G01 X18.6696 Y19.4946 
G01 X18.7023 Y19.4811 
G01 X20.0377 Y19.4811 
G01 X20.0704 Y19.4946 
G01 X20.0954 Y19.5196 
G01 X20.1089 Y19.5523 
G01 X20.1089 Y21.0877 
G01 X20.0954 Y21.1204 
G01 X20.0704 Y21.1454 
G01 X20.0377 Y21.1589 
G01 X18.7023 Y21.1589 
G01 X18.6696 Y21.1454 
G01 X18.6446 Y21.1204 
G01 X18.6311 Y21.0877 
G01 X18.6311 Y20.6629 
G01 X18.1229 Y20.6629 
G01 X18.1229 Y23.5265 
G01 X18.1304 Y23.5296 
G01 X18.1554 Y23.5546 
G01 X18.1689 Y23.5873 
G00 Z2.5400 
G00 X19.4389 Y23.5873 
G01 Z-0.1000 F254.00 
G01 X19.4389 Y23.8312 F200.00 
G01 X20.0495 Y23.2206 
G01 X20.1276 Y23.1755 
G01 X20.2149 Y23.1521 
G01 X20.5361 Y23.1521 
G01 X20.5361 Y22.7273 
G01 X20.5496 Y22.6946 
G01 X20.5746 Y22.6696 
G01 X20.6073 Y22.6561 
G01 X21.9427 Y22.6561 
G01 X21.9754 Y22.6696 
G01 X22.0004 Y22.6946 
G01 X22.0139 Y22.7273 
G01 X22.0139 Y24.2627 
G01 X22.0004 Y24.2954 
G01 X21.9754 Y24.3204 
G01 X21.9427 Y24.3339 
G01 X21.7703 Y24.3339 
G01 X21.7703 Y25.1461 
G01 X21.9427 Y25.1461 
G01 X21.9754 Y25.1596 
G01 X22.0004 Y25.1846 
G01 X22.0139 Y25.2173 
G01 X22.0139 Y26.8527 
G01 X22.0004 Y26.8854 
G01 X21.9754 Y26.9104 
G01 X21.9427 Y26.9239 
G01 X21.7703 Y26.9239 
G01 X21.7703 Y27.6861 
G01 X21.9427 Y27.6861 
G01 X21.9754 Y27.6996 
G01 X22.0004 Y27.7246 
G01 X22.0139 Y27.7573 
G01 X22.0139 Y29.3927 
G01 X22.0004 Y29.4254 
G01 X21.9754 Y29.4504 
G01 X21.9427 Y29.4639 
G01 X20.6073 Y29.4639 
G01 X20.5746 Y29.4504 
G01 X20.5496 Y29.4254 
G01 X20.5361 Y29.3927 
G01 X20.5361 Y27.7573 
G01 X20.5496 Y27.7246 
G01 X20.5746 Y27.6996 
G01 X20.6073 Y27.6861 
G01 X20.7797 Y27.6861 
G01 X20.7797 Y26.9239 
G01 X20.6073 Y26.9239 
G01 X20.5746 Y26.9104 
G01 X20.5496 Y26.8854 
G01 X20.5361 Y26.8527 
G01 X20.5361 Y25.2173 
G01 X20.5496 Y25.1846 
G01 X20.5746 Y25.1596 
G01 X20.6073 Y25.1461 
G01 X20.7797 Y25.1461 
G01 X20.7797 Y24.3339 
G01 X20.6073 Y24.3339 
G01 X20.5746 Y24.3204 
G01 X20.5496 Y24.2954 
G01 X20.5361 Y24.2627 
G01 X20.5361 Y23.8379 
G01 X20.4020 Y23.8379 
G01 X19.4389 Y24.8010 
G01 X19.4389 Y25.8227 
G01 X19.4254 Y25.8554 
G01 X19.4004 Y25.8804 
G01 X19.3677 Y25.8939 
G01 X18.7323 Y25.8939 
G01 X18.6996 Y25.8804 
G01 X18.6746 Y25.8554 
G01 X18.6611 Y25.8227 
G01 X18.6611 Y23.5873 
G01 X18.6746 Y23.5546 
G01 X18.6996 Y23.5296 
G01 X18.7323 Y23.5161 
G01 X19.3677 Y23.5161 
G01 X19.4004 Y23.5296 
G01 X19.4254 Y23.5546 
G01 X19.4389 Y23.5873 
G00 Z2.5400 
G00 X21.0693 Y53.0296 
G01 Z-0.1000 F254.00 
G01 X21.0693 Y53.6044 F200.00 
G01 X21.1655 Y53.7006 
G01 X21.2294 Y53.7645 
G01 X21.2745 Y53.8426 
G01 X21.2979 Y53.9299 
G01 X21.2979 Y59.4151 
G01 X21.2745 Y59.5024 
G01 X21.2294 Y59.5805 
G01 X21.1655 Y59.6444 
G01 X20.1039 Y60.7060 
G01 X20.1039 Y61.2140 
G01 X20.5305 Y61.6406 
G01 X20.5944 Y61.7045 
G01 X20.6395 Y61.7826 
G01 X20.6629 Y61.8699 
G01 X20.6629 Y66.4040 
G01 X20.7231 Y66.4289 
G01 X20.8624 Y66.5221 
G01 X20.9809 Y66.6406 
G01 X21.0741 Y66.7799 
G01 X21.1382 Y66.9348 
G01 X21.1709 Y67.0992 
G01 X21.1709 Y68.7908 
G01 X21.1382 Y68.9552 
G01 X21.0741 Y69.1101 
G01 X20.9809 Y69.2494 
G01 X20.8624 Y69.3679 
G01 X20.7231 Y69.4611 
G01 X20.5682 Y69.5252 
G01 X20.4038 Y69.5579 
G01 X20.2362 Y69.5579 
G01 X20.0718 Y69.5252 
G01 X19.9169 Y69.4611 
G01 X19.7776 Y69.3679 
G01 X19.6591 Y69.2494 
G01 X19.5659 Y69.1101 
G01 X19.5018 Y68.9552 
G01 X19.4691 Y68.7908 
G01 X19.4691 Y67.0992 
G01 X19.5018 Y66.9348 
G01 X19.5659 Y66.7799 
G01 X19.6591 Y66.6406 
G01 X19.7776 Y66.5221 
G01 X19.9169 Y66.4289 
G01 X19.9771 Y66.4040 
G01 X19.9771 Y62.0570 
G01 X19.7690 Y61.8489 
G01 X18.6973 Y61.8489 
G01 X18.6646 Y61.8354 
G01 X18.6396 Y61.8104 
G01 X18.6261 Y61.7777 
G01 X18.6261 Y60.1423 
G01 X18.6396 Y60.1096 
G01 X18.6646 Y60.0846 
G01 X18.6973 Y60.0711 
G01 X19.7690 Y60.0711 
G01 X20.6121 Y59.2280 
G01 X20.6121 Y54.1170 
G01 X20.5844 Y54.0893 
G01 X20.0096 Y54.0893 
G01 X19.5707 Y53.6504 
G01 X19.5707 Y53.0296 
G01 X20.0096 Y52.5907 
G01 X20.6304 Y52.5907 
G01 X21.0693 Y53.0296 
G00 Z2.5400 
G00 X27.6296 Y51.5493 
G01 Z-0.1000 F254.00 
G01 X27.1907 Y51.1104 F200.00 
G01 X27.1907 Y50.4896 
G01 X27.6296 Y50.0507 
G01 X28.2044 Y50.0507 
G01 X28.2321 Y50.0230 
G01 X28.2321 Y43.2648 
G01 X28.2201 Y43.2598 
G01 X28.0973 Y43.1778 
G01 X27.9930 Y43.0735 
G01 X27.9110 Y42.9507 
G01 X27.8545 Y42.8144 
G01 X27.8257 Y42.6696 
G01 X27.8257 Y41.2012 
G01 X27.8545 Y41.0564 
G01 X27.8595 Y41.0444 
G01 X25.8930 Y39.0779 
G01 X24.9070 Y39.0779 
G01 X21.9329 Y42.0520 
G01 X21.9329 Y45.6860 
G01 X21.9449 Y45.6910 
G01 X22.0677 Y45.7730 
G01 X22.1720 Y45.8773 
G01 X22.2540 Y46.0001 
G01 X22.3105 Y46.1364 
G01 X22.3393 Y46.2812 
G01 X22.3393 Y47.7496 
G01 X22.3105 Y47.8944 
G01 X22.2540 Y48.0307 
G01 X22.1720 Y48.1534 
G01 X22.0677 Y48.2578 
G01 X21.9449 Y48.3398 
G01 X21.9329 Y48.3448 
G01 X21.9329 Y49.5751 
G01 X21.9095 Y49.6624 
G01 X21.8644 Y49.7405 
G01 X21.0693 Y50.5356 
G01 X21.0693 Y51.1104 
G01 X20.6304 Y51.5493 
G01 X20.0096 Y51.5493 
G01 X19.5707 Y51.1104 
G01 X19.5707 Y50.4896 
G01 X20.0096 Y50.0507 
G01 X20.5844 Y50.0507 
G01 X21.2471 Y49.3880 
G01 X21.2471 Y48.3448 
G01 X21.2351 Y48.3398 
G01 X21.1123 Y48.2578 
G01 X21.0080 Y48.1534 
G01 X20.9260 Y48.0307 
G01 X20.8695 Y47.8944 
G01 X20.8407 Y47.7496 
G01 X20.8407 Y46.2812 
G01 X20.8695 Y46.1364 
G01 X20.8745 Y46.1244 
G01 X19.5430 Y44.7929 
G01 X17.9220 Y44.7929 
G01 X17.4879 Y45.2270 
G01 X17.4879 Y50.2101 
G01 X17.4645 Y50.2974 
G01 X17.4194 Y50.3755 
G01 X10.8755 Y56.9194 
G01 X10.8805 Y56.9314 
G01 X10.9093 Y57.0762 
G01 X10.9093 Y58.5446 
G01 X10.8805 Y58.6894 
G01 X10.8240 Y58.8257 
G01 X10.7420 Y58.9485 
G01 X10.6377 Y59.0528 
G01 X10.5149 Y59.1348 
G01 X10.3786 Y59.1913 
G01 X10.2338 Y59.2201 
G01 X10.0862 Y59.2201 
G01 X9.9414 Y59.1913 
G01 X9.8051 Y59.1348 
G01 X9.6823 Y59.0528 
G01 X9.5780 Y58.9485 
G01 X9.4960 Y58.8257 
G01 X9.4395 Y58.6894 
G01 X9.4107 Y58.5446 
G01 X9.4107 Y57.0762 
G01 X9.4395 Y56.9314 
G01 X9.4960 Y56.7951 
G01 X9.5780 Y56.6723 
G01 X9.6823 Y56.5680 
G01 X9.8051 Y56.4860 
G01 X9.9414 Y56.4295 
G01 X10.0862 Y56.4007 
G01 X10.2338 Y56.4007 
G01 X10.3786 Y56.4295 
G01 X10.3906 Y56.4345 
G01 X16.8021 Y50.0230 
G01 X16.8021 Y45.0399 
G01 X16.8255 Y44.9526 
G01 X16.8706 Y44.8745 
G01 X16.9345 Y44.8106 
G01 X17.5695 Y44.1756 
G01 X17.6476 Y44.1305 
G01 X17.7349 Y44.1071 
G01 X19.7301 Y44.1071 
G01 X19.8174 Y44.1305 
G01 X19.8955 Y44.1756 
G01 X19.9594 Y44.2395 
G01 X21.2471 Y45.5272 
G01 X21.2471 Y41.8649 
G01 X21.2705 Y41.7776 
G01 X21.3156 Y41.6995 
G01 X24.4906 Y38.5245 
G01 X24.5545 Y38.4606 
G01 X24.6326 Y38.4155 
G01 X24.7199 Y38.3921 
G01 X26.0801 Y38.3921 
G01 X26.1674 Y38.4155 
G01 X26.2455 Y38.4606 
G01 X26.3094 Y38.5245 
G01 X28.3444 Y40.5595 
G01 X28.3564 Y40.5545 
G01 X28.5012 Y40.5257 
G01 X28.6488 Y40.5257 
G01 X28.7936 Y40.5545 
G01 X28.9299 Y40.6110 
G01 X29.0526 Y40.6930 
G01 X29.1570 Y40.7973 
G01 X29.2390 Y40.9201 
G01 X29.2955 Y41.0564 
G01 X29.3243 Y41.2012 
G01 X29.3243 Y42.6696 
G01 X29.2955 Y42.8144 
G01 X29.2390 Y42.9507 
G01 X29.1570 Y43.0735 
G01 X29.0526 Y43.1778 
G01 X28.9299 Y43.2598 
G01 X28.9179 Y43.2648 
G01 X28.9179 Y50.2101 
G01 X28.8945 Y50.2974 
G01 X28.8494 Y50.3755 
G01 X28.6893 Y50.5356 
G01 X28.6893 Y51.0644 
G01 X30.1194 Y52.4945 
G01 X30.1645 Y52.5726 
G01 X30.1879 Y52.6599 
G01 X30.1879 Y66.0851 
G01 X30.1645 Y66.1724 
G01 X30.1194 Y66.2505 
G01 X30.0555 Y66.3144 
G01 X28.7909 Y67.5790 
G01 X28.7909 Y68.7908 
G01 X28.7582 Y68.9552 
G01 X28.6941 Y69.1101 
G01 X28.6009 Y69.2494 
G01 X28.4824 Y69.3679 
G01 X28.3431 Y69.4611 
G01 X28.1882 Y69.5252 
G01 X28.0238 Y69.5579 
G01 X27.8562 Y69.5579 
G01 X27.6918 Y69.5252 
G01 X27.5369 Y69.4611 
G01 X27.3976 Y69.3679 
G01 X27.2791 Y69.2494 
G01 X27.1859 Y69.1101 
G01 X27.1218 Y68.9552 
G01 X27.0891 Y68.7908 
G01 X27.0891 Y67.0992 
G01 X27.1218 Y66.9348 
G01 X27.1859 Y66.7799 
G01 X27.2791 Y66.6406 
G01 X27.3976 Y66.5221 
G01 X27.5369 Y66.4289 
G01 X27.6918 Y66.3648 
G01 X27.8562 Y66.3321 
G01 X28.0238 Y66.3321 
G01 X28.1882 Y66.3648 
G01 X28.3431 Y66.4289 
G01 X28.4824 Y66.5221 
G01 X28.6009 Y66.6406 
G01 X28.6644 Y66.7356 
G01 X29.5021 Y65.8980 
G01 X29.5021 Y52.8470 
G01 X28.2044 Y51.5493 
G01 X27.6296 Y51.5493 
G00 Z2.5400 
G00 X24.4839 Y53.0573 
G01 Z-0.1000 F254.00 
G01 X24.4839 Y54.8927 F200.00 
G01 X24.4704 Y54.9254 
G01 X24.4454 Y54.9504 
G01 X24.4127 Y54.9639 
G01 X23.8379 Y54.9639 
G01 X23.8379 Y55.6261 
G01 X24.4827 Y55.6261 
G01 X24.5154 Y55.6396 
G01 X24.5404 Y55.6646 
G01 X24.5539 Y55.6973 
G01 X24.5539 Y57.3327 
G01 X24.5404 Y57.3654 
G01 X24.5154 Y57.3904 
G01 X24.4827 Y57.4039 
G01 X24.1579 Y57.4039 
G01 X24.1579 Y60.0711 
G01 X24.4827 Y60.0711 
G01 X24.5154 Y60.0846 
G01 X24.5404 Y60.1096 
G01 X24.5539 Y60.1423 
G01 X24.5539 Y61.7777 
G01 X24.5404 Y61.8104 
G01 X24.5154 Y61.8354 
G01 X24.4827 Y61.8489 
G01 X23.1473 Y61.8489 
G01 X23.1146 Y61.8354 
G01 X23.0896 Y61.8104 
G01 X23.0761 Y61.7777 
G01 X23.0761 Y60.1423 
G01 X23.0896 Y60.1096 
G01 X23.1146 Y60.0846 
G01 X23.1473 Y60.0711 
G01 X23.4721 Y60.0711 
G01 X23.4721 Y57.4039 
G01 X23.1473 Y57.4039 
G01 X23.1146 Y57.3904 
G01 X23.0896 Y57.3654 
G01 X23.0761 Y57.3327 
G01 X23.0761 Y55.6973 
G01 X23.0896 Y55.6646 
G01 X23.1146 Y55.6396 
G01 X23.1473 Y55.6261 
G01 X23.1521 Y55.6261 
G01 X23.1521 Y54.9639 
G01 X22.5773 Y54.9639 
G01 X22.5446 Y54.9504 
G01 X22.5196 Y54.9254 
G01 X22.5061 Y54.8927 
G01 X22.5061 Y53.0573 
G01 X22.5196 Y53.0246 
G01 X22.5446 Y52.9996 
G01 X22.5773 Y52.9861 
G01 X24.4127 Y52.9861 
G01 X24.4454 Y52.9996 
G01 X24.4704 Y53.0246 
G01 X24.4839 Y53.0573 
G00 Z2.5400 
G00 X4.1639 Y1.8076 
G01 Z-0.1000 F254.00 
G01 X4.1639 Y2.0024 F200.00 
G01 X4.1259 Y2.1934 
G01 X4.0514 Y2.3734 
G01 X3.9431 Y2.5354 
G01 X3.8054 Y2.6731 
G01 X3.6434 Y2.7814 
G01 X3.4635 Y2.8559 
G01 X3.2724 Y2.8939 
G01 X3.0776 Y2.8939 
G01 X2.8865 Y2.8559 
G01 X2.7066 Y2.7814 
G01 X2.5446 Y2.6731 
G01 X2.4069 Y2.5354 
G01 X2.2986 Y2.3734 
G01 X2.2241 Y2.1934 
G01 X2.1861 Y2.0024 
G01 X2.1861 Y1.8076 
G01 X2.2241 Y1.6165 
G01 X2.2986 Y1.4366 
G01 X2.4069 Y1.2746 
G01 X2.5446 Y1.1369 
G01 X2.7066 Y1.0286 
G01 X2.8865 Y0.9541 
G01 X3.0776 Y0.9161 
G01 X3.2724 Y0.9161 
G01 X3.4635 Y0.9541 
G01 X3.6434 Y1.0286 
G01 X3.8054 Y1.1369 
G01 X3.9431 Y1.2746 
G01 X4.0514 Y1.4366 
G01 X4.1259 Y1.6165 
G01 X4.1639 Y1.8076 
G00 Z2.5400 
G00 X30.8339 Y1.8076 
G01 Z-0.1000 F254.00 
G01 X30.8339 Y2.0024 F200.00 
G01 X30.7959 Y2.1934 
G01 X30.7214 Y2.3734 
G01 X30.6131 Y2.5354 
G01 X30.4754 Y2.6731 
G01 X30.3134 Y2.7814 
G01 X30.1334 Y2.8559 
G01 X29.9424 Y2.8939 
G01 X29.7476 Y2.8939 
G01 X29.5565 Y2.8559 
G01 X29.3766 Y2.7814 
G01 X29.2146 Y2.6731 
G01 X29.0769 Y2.5354 
G01 X28.9686 Y2.3734 
G01 X28.8941 Y2.1934 
G01 X28.8561 Y2.0024 
G01 X28.8561 Y1.8076 
G01 X28.8941 Y1.6165 
G01 X28.9686 Y1.4366 
G01 X29.0769 Y1.2746 
G01 X29.2146 Y1.1369 
G01 X29.3766 Y1.0286 
G01 X29.5565 Y0.9541 
G01 X29.7476 Y0.9161 
G01 X29.9424 Y0.9161 
G01 X30.1334 Y0.9541 
G01 X30.3134 Y1.0286 
G01 X30.4754 Y1.1369 
G01 X30.6131 Y1.2746 
G01 X30.7214 Y1.4366 
G01 X30.7959 Y1.6165 
G01 X30.8339 Y1.8076 
G00 Z2.5400 
G00 X4.1639 Y71.6576 
G01 Z-0.1000 F254.00 
G01 X4.1639 Y71.8524 F200.00 
G01 X4.1259 Y72.0435 
G01 X4.0514 Y72.2234 
G01 X3.9431 Y72.3854 
G01 X3.8054 Y72.5231 
G01 X3.6434 Y72.6313 
G01 X3.4635 Y72.7059 
G01 X3.2724 Y72.7439 
G01 X3.0776 Y72.7439 
G01 X2.8865 Y72.7059 
G01 X2.7066 Y72.6313 
G01 X2.5446 Y72.5231 
G01 X2.4069 Y72.3854 
G01 X2.2986 Y72.2234 
G01 X2.2241 Y72.0435 
G01 X2.1861 Y71.8524 
G01 X2.1861 Y71.6576 
G01 X2.2241 Y71.4665 
G01 X2.2986 Y71.2866 
G01 X2.4069 Y71.1246 
G01 X2.5446 Y70.9869 
G01 X2.7066 Y70.8786 
G01 X2.8865 Y70.8041 
G01 X3.0776 Y70.7661 
G01 X3.2724 Y70.7661 
G01 X3.4635 Y70.8041 
G01 X3.6434 Y70.8786 
G01 X3.8054 Y70.9869 
G01 X3.9431 Y71.1246 
G01 X4.0514 Y71.2866 
G01 X4.1259 Y71.4665 
G01 X4.1639 Y71.6576 
G00 Z2.5400 
G00 X30.8339 Y71.6576 
G01 Z-0.1000 F254.00 
G01 X30.8339 Y71.8524 F200.00 
G01 X30.7959 Y72.0435 
G01 X30.7214 Y72.2234 
G01 X30.6131 Y72.3854 
G01 X30.4754 Y72.5231 
G01 X30.3134 Y72.6313 
G01 X30.1334 Y72.7059 
G01 X29.9424 Y72.7439 
G01 X29.7476 Y72.7439 
G01 X29.5565 Y72.7059 
G01 X29.3766 Y72.6313 
G01 X29.2146 Y72.5231 
G01 X29.0769 Y72.3854 
G01 X28.9686 Y72.2234 
G01 X28.8941 Y72.0435 
G01 X28.8561 Y71.8524 
G01 X28.8561 Y71.6576 
G01 X28.8941 Y71.4665 
G01 X28.9686 Y71.2866 
G01 X29.0769 Y71.1246 
G01 X29.2146 Y70.9869 
G01 X29.3766 Y70.8786 
G01 X29.5565 Y70.8041 
G01 X29.7476 Y70.7661 
G01 X29.9424 Y70.7661 
G01 X30.1334 Y70.8041 
G01 X30.3134 Y70.8786 
G01 X30.4754 Y70.9869 
G01 X30.6131 Y71.1246 
G01 X30.7214 Y71.2866 
G01 X30.7959 Y71.4665 
G01 X30.8339 Y71.6576 
G00 Z2.5400 
G00 X12.3857 Y43.4218 
G01 Z-0.1000 F254.00 
G01 X12.7921 Y43.0154 F200.00 
G01 X12.7921 Y42.5254 
G01 X12.4582 Y42.8593 
G01 X11.8835 Y42.8593 
G01 X10.7029 Y44.0399 
G01 X10.7029 Y47.4302 
G01 X10.7651 Y47.4718 
G01 X10.8974 Y47.6041 
G01 X11.0013 Y47.7595 
G01 X11.0728 Y47.9323 
G01 X11.1093 Y48.1157 
G01 X11.1093 Y49.6221 
G01 X11.7507 Y49.6221 
G01 X11.7507 Y48.1157 
G01 X11.7872 Y47.9323 
G01 X11.8587 Y47.7595 
G01 X11.9626 Y47.6041 
G01 X12.0949 Y47.4718 
G01 X12.1571 Y47.4302 
G01 X12.1571 Y44.3785 
G01 X12.1941 Y44.2404 
G01 X12.2656 Y44.1166 
G01 X12.3857 Y43.9965 
G01 X12.3857 Y43.4218 
G00 Z2.5400 
G00 X24.6839 Y53.0370 
G01 Z-0.1000 F254.00 
G01 X24.6839 Y54.9130 F200.00 
G01 X24.6642 Y54.9865 
G01 X24.6262 Y55.0524 
G01 X24.5724 Y55.1062 
G01 X24.5065 Y55.1442 
G01 X24.4330 Y55.1639 
G01 X24.0379 Y55.1639 
G01 X24.0379 Y55.4261 
G01 X24.5030 Y55.4261 
G01 X24.5765 Y55.4458 
G01 X24.6424 Y55.4838 
G01 X24.6962 Y55.5376 
G01 X24.7342 Y55.6035 
G01 X24.7539 Y55.6770 
G01 X24.7539 Y57.3530 
G01 X24.7342 Y57.4265 
G01 X24.6962 Y57.4924 
G01 X24.6424 Y57.5462 
G01 X24.5765 Y57.5842 
G01 X24.5030 Y57.6039 
G01 X24.3579 Y57.6039 
G01 X24.3579 Y59.8711 
G01 X24.5030 Y59.8711 
G01 X24.5765 Y59.8908 
G01 X24.6424 Y59.9288 
G01 X24.6962 Y59.9826 
G01 X24.7342 Y60.0485 
G01 X24.7539 Y60.1220 
G01 X24.7539 Y61.7980 
G01 X24.7342 Y61.8715 
G01 X24.6962 Y61.9374 
G01 X24.6424 Y61.9912 
G01 X24.5765 Y62.0292 
G01 X24.5030 Y62.0489 
G01 X23.1270 Y62.0489 
G01 X23.0535 Y62.0292 
G01 X22.9876 Y61.9912 
G01 X22.9338 Y61.9374 
G01 X22.8958 Y61.8715 
G01 X22.8761 Y61.7980 
G01 X22.8761 Y60.1220 
G01 X22.8958 Y60.0485 
G01 X22.9338 Y59.9826 
G01 X22.9876 Y59.9288 
G01 X23.0535 Y59.8908 
G01 X23.1270 Y59.8711 
G01 X23.2721 Y59.8711 
G01 X23.2721 Y57.6039 
G01 X23.1270 Y57.6039 
G01 X23.0535 Y57.5842 
G01 X22.9876 Y57.5462 
G01 X22.9338 Y57.4924 
G01 X22.8958 Y57.4265 
G01 X22.8761 Y57.3530 
G01 X22.8761 Y55.6770 
G01 X22.8958 Y55.6035 
G01 X22.9338 Y55.5376 
G01 X22.9521 Y55.5193 
G01 X22.9521 Y55.1639 
G01 X22.5570 Y55.1639 
G01 X22.4835 Y55.1442 
G01 X22.4176 Y55.1062 
G01 X22.3638 Y55.0524 
G01 X22.3258 Y54.9865 
G01 X22.3061 Y54.9130 
G01 X22.3061 Y53.0370 
G01 X22.3258 Y52.9635 
G01 X22.3638 Y52.8976 
G01 X22.4176 Y52.8438 
G01 X22.4835 Y52.8058 
G01 X22.5570 Y52.7861 
G01 X24.4330 Y52.7861 
G01 X24.5065 Y52.8058 
G01 X24.5724 Y52.8438 
G01 X24.6262 Y52.8976 
G01 X24.6642 Y52.9635 
G01 X24.6839 Y53.0370 
G00 Z2.5400 
G00 X18.2468 Y5.8014 
G01 Z-0.1000 F254.00 
G01 X18.1618 Y5.9681 F200.00 
G01 X18.0518 Y6.1195 
G01 X17.9195 Y6.2518 
G01 X17.7681 Y6.3618 
G01 X17.6014 Y6.4468 
G01 X17.4234 Y6.5046 
G01 X17.2386 Y6.5339 
G01 X17.0514 Y6.5339 
G01 X16.8666 Y6.5046 
G01 X16.6886 Y6.4468 
G01 X16.5219 Y6.3618 
G01 X16.3705 Y6.2518 
G01 X16.2382 Y6.1195 
G01 X16.1282 Y5.9681 
G01 X16.0432 Y5.8014 
G01 X15.9854 Y5.6234 
G01 X15.9561 Y5.4386 
G01 X15.9561 Y3.4514 
G01 X15.9854 Y3.2666 
G01 X16.0432 Y3.0886 
G01 X16.1282 Y2.9219 
G01 X16.2382 Y2.7705 
G01 X16.3705 Y2.6382 
G01 X16.5219 Y2.5282 
G01 X16.6886 Y2.4432 
G01 X16.8666 Y2.3854 
G01 X17.0514 Y2.3561 
G01 X17.2386 Y2.3561 
G01 X17.4234 Y2.3854 
G01 X17.6014 Y2.4432 
G01 X17.7681 Y2.5282 
G01 X17.9195 Y2.6382 
G01 X18.0518 Y2.7705 
G01 X18.1618 Y2.9219 
G01 X18.2468 Y3.0886 
G01 X18.3012 Y3.2561 
G01 X18.5288 Y3.2561 
G01 X18.5832 Y3.0886 
G01 X18.6682 Y2.9219 
G01 X18.7782 Y2.7705 
G01 X18.9105 Y2.6382 
G01 X19.0619 Y2.5282 
G01 X19.1421 Y2.4873 
G01 X19.1421 Y2.4685 
G01 X19.1791 Y2.3304 
G01 X19.2506 Y2.2067 
G01 X19.8856 Y1.5716 
G01 X19.9867 Y1.4706 
G01 X20.1104 Y1.3991 
G01 X20.2485 Y1.3621 
G01 X23.8815 Y1.3621 
G01 X24.0196 Y1.3991 
G01 X24.1433 Y1.4706 
G01 X24.2444 Y1.5716 
G01 X27.7689 Y5.0961 
G01 X28.7780 Y5.0961 
G01 X28.8515 Y5.1158 
G01 X28.9174 Y5.1538 
G01 X28.9712 Y5.2076 
G01 X29.0092 Y5.2735 
G01 X29.0289 Y5.3470 
G01 X29.0289 Y6.7230 
G01 X29.0092 Y6.7965 
G01 X28.9712 Y6.8624 
G01 X28.9174 Y6.9162 
G01 X28.8515 Y6.9542 
G01 X28.7780 Y6.9739 
G01 X27.1020 Y6.9739 
G01 X27.0285 Y6.9542 
G01 X26.9626 Y6.9162 
G01 X26.9088 Y6.8624 
G01 X26.8708 Y6.7965 
G01 X26.8511 Y6.7230 
G01 X26.8511 Y5.7139 
G01 X23.5851 Y2.4479 
G01 X22.6906 Y2.4479 
G01 X22.8481 Y2.5282 
G01 X22.9995 Y2.6382 
G01 X23.1318 Y2.7705 
G01 X23.2418 Y2.9219 
G01 X23.3268 Y3.0886 
G01 X23.3846 Y3.2666 
G01 X23.4139 Y3.4514 
G01 X23.4139 Y3.5620 
G01 X23.4994 Y3.6069 
G01 X23.7442 Y3.7759 
G01 X23.9669 Y3.9731 
G01 X24.1641 Y4.1958 
G01 X24.3331 Y4.4406 
G01 X24.4714 Y4.7040 
G01 X24.5769 Y4.9821 
G01 X24.6480 Y5.2710 
G01 X24.6839 Y5.5663 
G01 X24.6839 Y9.0061 
G01 X25.0330 Y9.0061 
G01 X25.1065 Y9.0258 
G01 X25.1724 Y9.0638 
G01 X25.2262 Y9.1176 
G01 X25.2642 Y9.1835 
G01 X25.2839 Y9.2570 
G01 X25.2839 Y12.3330 
G01 X25.2642 Y12.4065 
G01 X25.2262 Y12.4724 
G01 X25.1724 Y12.5262 
G01 X25.1065 Y12.5642 
G01 X25.0330 Y12.5839 
G01 X23.1489 Y12.5839 
G01 X23.1489 Y12.7380 
G01 X23.1292 Y12.8115 
G01 X23.0912 Y12.8774 
G01 X23.0374 Y12.9312 
G01 X22.9715 Y12.9692 
G01 X22.8980 Y12.9889 
G01 X22.2097 Y12.9889 
G01 X21.2197 Y14.0621 
G01 X22.3061 Y14.0621 
G01 X22.3061 Y13.6670 
G01 X22.3258 Y13.5935 
G01 X22.3638 Y13.5276 
G01 X22.4176 Y13.4738 
G01 X22.4835 Y13.4358 
G01 X22.5570 Y13.4161 
G01 X24.4330 Y13.4161 
G01 X24.5065 Y13.4358 
G01 X24.5724 Y13.4738 
G01 X24.6262 Y13.5276 
G01 X24.6642 Y13.5935 
G01 X24.6839 Y13.6670 
G01 X24.6839 Y15.5430 
G01 X24.6642 Y15.6165 
G01 X24.6262 Y15.6824 
G01 X24.5724 Y15.7362 
G01 X24.5065 Y15.7742 
G01 X24.4330 Y15.7939 
G01 X22.5570 Y15.7939 
G01 X22.4835 Y15.7742 
G01 X22.4176 Y15.7362 
G01 X22.3638 Y15.6824 
G01 X22.3258 Y15.6165 
G01 X22.3061 Y15.5430 
G01 X22.3061 Y15.1479 
G01 X21.6307 Y15.1479 
G01 X22.9744 Y16.4916 
G01 X23.0459 Y16.6154 
G01 X23.0829 Y16.7535 
G01 X23.0829 Y21.3651 
G01 X23.5083 Y21.7906 
G01 X23.6094 Y21.8917 
G01 X23.6809 Y22.0154 
G01 X23.7179 Y22.1535 
G01 X23.7179 Y22.4561 
G01 X23.8630 Y22.4561 
G01 X23.9365 Y22.4758 
G01 X24.0024 Y22.5138 
G01 X24.0562 Y22.5676 
G01 X24.0942 Y22.6335 
G01 X24.1139 Y22.7070 
G01 X24.1139 Y24.2830 
G01 X24.0942 Y24.3565 
G01 X24.0562 Y24.4224 
G01 X24.0024 Y24.4762 
G01 X23.9365 Y24.5142 
G01 X23.8630 Y24.5339 
G01 X23.7179 Y24.5339 
G01 X23.7179 Y24.9461 
G01 X23.8630 Y24.9461 
G01 X23.9365 Y24.9658 
G01 X24.0024 Y25.0038 
G01 X24.0562 Y25.0576 
G01 X24.0942 Y25.1235 
G01 X24.1139 Y25.1970 
G01 X24.1139 Y26.8730 
G01 X24.0942 Y26.9465 
G01 X24.0562 Y27.0124 
G01 X24.0024 Y27.0662 
G01 X23.9365 Y27.1042 
G01 X23.8630 Y27.1239 
G01 X22.4870 Y27.1239 
G01 X22.4135 Y27.1042 
G01 X22.3476 Y27.0662 
G01 X22.2938 Y27.0124 
G01 X22.2558 Y26.9465 
G01 X22.2361 Y26.8730 
G01 X22.2361 Y25.1970 
G01 X22.2558 Y25.1235 
G01 X22.2938 Y25.0576 
G01 X22.3476 Y25.0038 
G01 X22.4135 Y24.9658 
G01 X22.4870 Y24.9461 
G01 X22.6321 Y24.9461 
G01 X22.6321 Y24.5339 
G01 X22.4870 Y24.5339 
G01 X22.4135 Y24.5142 
G01 X22.3476 Y24.4762 
G01 X22.2938 Y24.4224 
G01 X22.2558 Y24.3565 
G01 X22.2361 Y24.2830 
G01 X22.2361 Y22.7070 
G01 X22.2558 Y22.6335 
G01 X22.2938 Y22.5676 
G01 X22.3476 Y22.5138 
G01 X22.4135 Y22.4758 
G01 X22.4870 Y22.4561 
G01 X22.6321 Y22.4561 
G01 X22.6321 Y22.4499 
G01 X22.2067 Y22.0244 
G01 X22.1056 Y21.9233 
G01 X21.5411 Y21.3589 
G01 X20.5820 Y21.3589 
G01 X20.5085 Y21.3392 
G01 X20.4426 Y21.3012 
G01 X20.3888 Y21.2474 
G01 X20.3508 Y21.1815 
G01 X20.3311 Y21.1080 
G01 X20.3311 Y19.5320 
G01 X20.3508 Y19.4585 
G01 X20.3888 Y19.3926 
G01 X20.4426 Y19.3388 
G01 X20.5085 Y19.3008 
G01 X20.5820 Y19.2811 
G01 X21.9580 Y19.2811 
G01 X21.9971 Y19.2916 
G01 X21.9971 Y17.0499 
G01 X20.7079 Y15.7607 
G01 X20.6624 Y15.8062 
G01 X20.5965 Y15.8442 
G01 X20.5230 Y15.8639 
G01 X18.8470 Y15.8639 
G01 X18.7735 Y15.8442 
G01 X18.7076 Y15.8062 
G01 X18.6538 Y15.7524 
G01 X18.6158 Y15.6865 
G01 X18.5961 Y15.6130 
G01 X18.5961 Y14.2370 
G01 X18.6158 Y14.1635 
G01 X18.6538 Y14.0976 
G01 X18.7076 Y14.0438 
G01 X18.7735 Y14.0058 
G01 X18.8470 Y13.9861 
G01 X19.8125 Y13.9861 
G01 X20.7325 Y12.9889 
G01 X19.6470 Y12.9889 
G01 X19.5735 Y12.9692 
G01 X19.5076 Y12.9312 
G01 X19.4538 Y12.8774 
G01 X19.4158 Y12.8115 
G01 X19.3961 Y12.7380 
G01 X19.3961 Y9.4870 
G01 X19.4158 Y9.4135 
G01 X19.4538 Y9.3476 
G01 X19.5076 Y9.2938 
G01 X19.5735 Y9.2558 
G01 X19.6470 Y9.2361 
G01 X21.7117 Y9.2361 
G01 X21.7258 Y9.1835 
G01 X21.7638 Y9.1176 
G01 X21.8176 Y9.0638 
G01 X21.8835 Y9.0258 
G01 X21.9570 Y9.0061 
G01 X22.3061 Y9.0061 
G01 X22.3061 Y6.5339 
G01 X22.1314 Y6.5339 
G01 X21.9466 Y6.5046 
G01 X21.7686 Y6.4468 
G01 X21.6019 Y6.3618 
G01 X21.4505 Y6.2518 
G01 X21.3182 Y6.1195 
G01 X21.2082 Y5.9681 
G01 X21.1232 Y5.8014 
G01 X21.0654 Y5.6234 
G01 X21.0361 Y5.4386 
G01 X21.0361 Y3.4514 
G01 X21.0654 Y3.2666 
G01 X21.1232 Y3.0886 
G01 X21.2082 Y2.9219 
G01 X21.3182 Y2.7705 
G01 X21.4505 Y2.6382 
G01 X21.6019 Y2.5282 
G01 X21.7594 Y2.4479 
G01 X20.5449 Y2.4479 
G01 X20.3988 Y2.5940 
G01 X20.4595 Y2.6382 
G01 X20.5918 Y2.7705 
G01 X20.7018 Y2.9219 
G01 X20.7868 Y3.0886 
G01 X20.8446 Y3.2666 
G01 X20.8739 Y3.4514 
G01 X20.8739 Y5.4386 
G01 X20.8446 Y5.6234 
G01 X20.7868 Y5.8014 
G01 X20.7018 Y5.9681 
G01 X20.5918 Y6.1195 
G01 X20.4595 Y6.2518 
G01 X20.3081 Y6.3618 
G01 X20.1414 Y6.4468 
G01 X19.9634 Y6.5046 
G01 X19.7786 Y6.5339 
G01 X19.5914 Y6.5339 
G01 X19.4066 Y6.5046 
G01 X19.2286 Y6.4468 
G01 X19.0619 Y6.3618 
G01 X18.9105 Y6.2518 
G01 X18.7782 Y6.1195 
G01 X18.6682 Y5.9681 
G01 X18.5832 Y5.8014 
G01 X18.5288 Y5.6339 
G01 X18.3012 Y5.6339 
G01 X18.2468 Y5.8014 
G00 Z2.5400 
G00 X27.5468 Y51.7493 
G01 Z-0.1000 F254.00 
G01 X26.9907 Y51.1932 F200.00 
G01 X26.9907 Y50.4068 
G01 X27.5468 Y49.8507 
G01 X28.0321 Y49.8507 
G01 X28.0321 Y43.3748 
G01 X27.9699 Y43.3332 
G01 X27.8376 Y43.2009 
G01 X27.7337 Y43.0455 
G01 X27.6622 Y42.8727 
G01 X27.6257 Y42.6893 
G01 X27.6257 Y41.1815 
G01 X27.6403 Y41.1081 
G01 X25.8101 Y39.2779 
G01 X24.9899 Y39.2779 
G01 X22.1329 Y42.1349 
G01 X22.1329 Y45.5760 
G01 X22.1951 Y45.6176 
G01 X22.3274 Y45.7499 
G01 X22.4313 Y45.9053 
G01 X22.5028 Y46.0781 
G01 X22.5393 Y46.2615 
G01 X22.5393 Y47.7693 
G01 X22.5028 Y47.9527 
G01 X22.4313 Y48.1255 
G01 X22.3274 Y48.2809 
G01 X22.1951 Y48.4132 
G01 X22.1329 Y48.4548 
G01 X22.1329 Y49.6015 
G01 X22.0959 Y49.7396 
G01 X22.0244 Y49.8633 
G01 X21.2693 Y50.6185 
G01 X21.2693 Y51.1932 
G01 X20.7132 Y51.7493 
G01 X19.9268 Y51.7493 
G01 X19.5929 Y51.4154 
G01 X19.5929 Y51.5065 
G01 X19.5559 Y51.6446 
G01 X19.4844 Y51.7683 
G01 X19.3833 Y51.8694 
G01 X19.3643 Y51.8885 
G01 X19.3643 Y52.4632 
G01 X18.9579 Y52.8696 
G01 X18.9579 Y54.3851 
G01 X19.7994 Y55.2266 
G01 X19.8709 Y55.3504 
G01 X19.9079 Y55.4885 
G01 X19.9079 Y56.0611 
G01 X20.0530 Y56.0611 
G01 X20.1265 Y56.0808 
G01 X20.1924 Y56.1188 
G01 X20.2462 Y56.1726 
G01 X20.2842 Y56.2385 
G01 X20.3039 Y56.3120 
G01 X20.3039 Y57.9880 
G01 X20.2842 Y58.0615 
G01 X20.2462 Y58.1274 
G01 X20.1924 Y58.1812 
G01 X20.1265 Y58.2192 
G01 X20.0530 Y58.2389 
G01 X18.6770 Y58.2389 
G01 X18.6035 Y58.2192 
G01 X18.5376 Y58.1812 
G01 X18.4838 Y58.1274 
G01 X18.4458 Y58.0615 
G01 X18.4261 Y57.9880 
G01 X18.4261 Y56.3120 
G01 X18.4458 Y56.2385 
G01 X18.4838 Y56.1726 
G01 X18.5376 Y56.1188 
G01 X18.6035 Y56.0808 
G01 X18.6770 Y56.0611 
G01 X18.8221 Y56.0611 
G01 X18.8221 Y55.7849 
G01 X17.9806 Y54.9433 
G01 X17.9091 Y54.8195 
G01 X17.8721 Y54.6815 
G01 X17.8721 Y52.8696 
G01 X17.4657 Y52.4632 
G01 X17.4657 Y51.6768 
G01 X18.0218 Y51.1207 
G01 X18.5071 Y51.1207 
G01 X18.5071 Y48.4548 
G01 X18.4449 Y48.4132 
G01 X18.3126 Y48.2809 
G01 X18.2087 Y48.1255 
G01 X18.1372 Y47.9527 
G01 X18.1007 Y47.7693 
G01 X18.1007 Y46.2615 
G01 X18.1372 Y46.0781 
G01 X18.2087 Y45.9053 
G01 X18.3126 Y45.7499 
G01 X18.4449 Y45.6176 
G01 X18.6003 Y45.5137 
G01 X18.7731 Y45.4422 
G01 X18.9565 Y45.4057 
G01 X19.1435 Y45.4057 
G01 X19.3269 Y45.4422 
G01 X19.4997 Y45.5137 
G01 X19.6551 Y45.6176 
G01 X19.7874 Y45.7499 
G01 X19.8913 Y45.9053 
G01 X19.9628 Y46.0781 
G01 X19.9993 Y46.2615 
G01 X19.9993 Y47.7693 
G01 X19.9628 Y47.9527 
G01 X19.8913 Y48.1255 
G01 X19.7874 Y48.2809 
G01 X19.6551 Y48.4132 
G01 X19.5929 Y48.4548 
G01 X19.5929 Y50.1846 
G01 X19.9268 Y49.8507 
G01 X20.5015 Y49.8507 
G01 X21.0471 Y49.3051 
G01 X21.0471 Y48.4548 
G01 X20.9849 Y48.4132 
G01 X20.8526 Y48.2809 
G01 X20.7487 Y48.1255 
G01 X20.6772 Y47.9527 
G01 X20.6407 Y47.7693 
G01 X20.6407 Y46.2615 
G01 X20.6553 Y46.1881 
G01 X19.4601 Y44.9929 
G01 X18.0049 Y44.9929 
G01 X17.6879 Y45.3099 
G01 X17.6879 Y50.2365 
G01 X17.6509 Y50.3745 
G01 X17.5794 Y50.4983 
G01 X11.0947 Y56.9831 
G01 X11.1093 Y57.0565 
G01 X11.1093 Y58.5643 
G01 X11.0728 Y58.7477 
G01 X11.0013 Y58.9205 
G01 X10.8974 Y59.0759 
G01 X10.7651 Y59.2082 
G01 X10.6097 Y59.3121 
G01 X10.4369 Y59.3836 
G01 X10.2535 Y59.4201 
G01 X10.0665 Y59.4201 
G01 X9.8831 Y59.3836 
G01 X9.7103 Y59.3121 
G01 X9.5549 Y59.2082 
G01 X9.4226 Y59.0759 
G01 X9.3187 Y58.9205 
G01 X9.2472 Y58.7477 
G01 X9.2107 Y58.5643 
G01 X9.2107 Y57.0565 
G01 X9.2472 Y56.8731 
G01 X9.3187 Y56.7003 
G01 X9.4226 Y56.5449 
G01 X9.5549 Y56.4126 
G01 X9.7103 Y56.3087 
G01 X9.8831 Y56.2372 
G01 X10.0665 Y56.2007 
G01 X10.2535 Y56.2007 
G01 X10.3269 Y56.2153 
G01 X16.6021 Y49.9401 
G01 X16.6021 Y45.0135 
G01 X16.6391 Y44.8754 
G01 X16.7106 Y44.7517 
G01 X16.8117 Y44.6506 
G01 X17.4467 Y44.0156 
G01 X17.5704 Y43.9441 
G01 X17.7085 Y43.9071 
G01 X19.7565 Y43.9071 
G01 X19.8946 Y43.9441 
G01 X20.0183 Y44.0156 
G01 X20.1194 Y44.1166 
G01 X21.0471 Y45.0443 
G01 X21.0471 Y41.8385 
G01 X21.0841 Y41.7004 
G01 X21.1556 Y41.5767 
G01 X24.3306 Y38.4017 
G01 X24.4317 Y38.3006 
G01 X24.5554 Y38.2291 
G01 X24.6935 Y38.1921 
G01 X26.1065 Y38.1921 
G01 X26.2446 Y38.2291 
G01 X26.3683 Y38.3006 
G01 X26.4694 Y38.4017 
G01 X28.4081 Y40.3403 
G01 X28.4815 Y40.3257 
G01 X28.6685 Y40.3257 
G01 X28.8519 Y40.3622 
G01 X29.0247 Y40.4337 
G01 X29.1801 Y40.5376 
G01 X29.3124 Y40.6699 
G01 X29.4163 Y40.8253 
G01 X29.4878 Y40.9981 
G01 X29.5243 Y41.1815 
G01 X29.5243 Y42.6893 
G01 X29.4878 Y42.8727 
G01 X29.4163 Y43.0455 
G01 X29.3124 Y43.2009 
G01 X29.1801 Y43.3332 
G01 X29.1179 Y43.3748 
G01 X29.1179 Y50.2365 
G01 X29.0809 Y50.3745 
G01 X29.0094 Y50.4983 
G01 X28.8893 Y50.6185 
G01 X28.8893 Y50.9815 
G01 X30.2794 Y52.3717 
G01 X30.3509 Y52.4954 
G01 X30.3879 Y52.6335 
G01 X30.3879 Y66.1115 
G01 X30.3509 Y66.2495 
G01 X30.2794 Y66.3733 
G01 X30.1783 Y66.4744 
G01 X28.9909 Y67.6619 
G01 X28.9909 Y68.7897 
G01 X28.9650 Y68.9531 
G01 X28.9139 Y69.1104 
G01 X28.8388 Y69.2578 
G01 X28.7416 Y69.3916 
G01 X28.6246 Y69.5086 
G01 X28.4908 Y69.6058 
G01 X28.3434 Y69.6809 
G01 X28.1861 Y69.7320 
G01 X28.0227 Y69.7579 
G01 X27.8573 Y69.7579 
G01 X27.6939 Y69.7320 
G01 X27.5366 Y69.6809 
G01 X27.3892 Y69.6058 
G01 X27.2554 Y69.5086 
G01 X27.1384 Y69.3916 
G01 X27.0412 Y69.2578 
G01 X26.9661 Y69.1104 
G01 X26.9150 Y68.9531 
G01 X26.8891 Y68.7897 
G01 X26.8891 Y67.1003 
G01 X26.9150 Y66.9369 
G01 X26.9661 Y66.7796 
G01 X27.0412 Y66.6322 
G01 X27.1384 Y66.4984 
G01 X27.2554 Y66.3814 
G01 X27.3892 Y66.2842 
G01 X27.5366 Y66.2091 
G01 X27.6939 Y66.1580 
G01 X27.8573 Y66.1321 
G01 X28.0227 Y66.1321 
G01 X28.1861 Y66.1580 
G01 X28.3434 Y66.2091 
G01 X28.4908 Y66.2842 
G01 X28.6246 Y66.3814 
G01 X28.6802 Y66.4370 
G01 X29.3021 Y65.8151 
G01 X29.3021 Y52.9299 
G01 X28.1215 Y51.7493 
G01 X27.5468 Y51.7493 
G00 Z2.5400 
G00 X21.2693 Y52.9468 
G01 Z-0.1000 F254.00 
G01 X21.2693 Y53.5215 F200.00 
G01 X21.2883 Y53.5406 
G01 X21.3894 Y53.6417 
G01 X21.4609 Y53.7654 
G01 X21.4979 Y53.9035 
G01 X21.4979 Y59.4415 
G01 X21.4609 Y59.5796 
G01 X21.3894 Y59.7033 
G01 X21.2883 Y59.8044 
G01 X20.3039 Y60.7889 
G01 X20.3039 Y61.1311 
G01 X20.7544 Y61.5817 
G01 X20.8259 Y61.7054 
G01 X20.8629 Y61.8435 
G01 X20.8629 Y66.2802 
G01 X20.8708 Y66.2842 
G01 X21.0046 Y66.3814 
G01 X21.1216 Y66.4984 
G01 X21.2188 Y66.6322 
G01 X21.2939 Y66.7796 
G01 X21.3450 Y66.9369 
G01 X21.3709 Y67.1003 
G01 X21.3709 Y68.7897 
G01 X21.3450 Y68.9531 
G01 X21.2939 Y69.1104 
G01 X21.2188 Y69.2578 
G01 X21.1216 Y69.3916 
G01 X21.0046 Y69.5086 
G01 X20.8708 Y69.6058 
G01 X20.7234 Y69.6809 
G01 X20.5661 Y69.7320 
G01 X20.4027 Y69.7579 
G01 X20.2373 Y69.7579 
G01 X20.0739 Y69.7320 
G01 X19.9166 Y69.6809 
G01 X19.7692 Y69.6058 
G01 X19.6354 Y69.5086 
G01 X19.5184 Y69.3916 
G01 X19.4212 Y69.2578 
G01 X19.3461 Y69.1104 
G01 X19.2950 Y68.9531 
G01 X19.2691 Y68.7897 
G01 X19.2691 Y67.1003 
G01 X19.2950 Y66.9369 
G01 X19.3461 Y66.7796 
G01 X19.4212 Y66.6322 
G01 X19.5184 Y66.4984 
G01 X19.6354 Y66.3814 
G01 X19.7692 Y66.2842 
G01 X19.7771 Y66.2802 
G01 X19.7771 Y62.1399 
G01 X19.6861 Y62.0489 
G01 X18.6770 Y62.0489 
G01 X18.6035 Y62.0292 
G01 X18.5376 Y61.9912 
G01 X18.4838 Y61.9374 
G01 X18.4458 Y61.8715 
G01 X18.4261 Y61.7980 
G01 X18.4261 Y60.1220 
G01 X18.4458 Y60.0485 
G01 X18.4838 Y59.9826 
G01 X18.5376 Y59.9288 
G01 X18.6035 Y59.8908 
G01 X18.6770 Y59.8711 
G01 X19.6861 Y59.8711 
G01 X20.4121 Y59.1451 
G01 X20.4121 Y54.2893 
G01 X19.9268 Y54.2893 
G01 X19.3707 Y53.7332 
G01 X19.3707 Y52.9468 
G01 X19.9268 Y52.3907 
G01 X20.7132 Y52.3907 
G01 X21.2693 Y52.9468 
G00 Z2.5400 
G00 X18.3689 Y28.7670 
G01 Z-0.1000 F254.00 
G01 X18.3689 Y31.0430 F200.00 
G01 X18.3492 Y31.1165 
G01 X18.3229 Y31.1621 
G01 X18.3229 Y31.7661 
G01 X19.8880 Y31.7661 
G01 X19.9615 Y31.7858 
G01 X20.0274 Y31.8238 
G01 X20.0812 Y31.8776 
G01 X20.1192 Y31.9435 
G01 X20.1389 Y32.0170 
G01 X20.1389 Y33.3930 
G01 X20.1192 Y33.4665 
G01 X20.0812 Y33.5324 
G01 X20.0274 Y33.5862 
G01 X19.9615 Y33.6242 
G01 X19.8880 Y33.6439 
G01 X18.2120 Y33.6439 
G01 X18.1385 Y33.6242 
G01 X18.0726 Y33.5862 
G01 X18.0493 Y33.5629 
G01 X17.7085 Y33.5629 
G01 X17.5704 Y33.5259 
G01 X17.4467 Y33.4544 
G01 X17.3456 Y33.3533 
G01 X17.2741 Y33.2296 
G01 X17.2371 Y33.0915 
G01 X17.2371 Y31.1621 
G01 X17.2108 Y31.1165 
G01 X17.1911 Y31.0430 
G01 X17.1911 Y28.7670 
G01 X17.2108 Y28.6935 
G01 X17.2488 Y28.6276 
G01 X17.3026 Y28.5738 
G01 X17.3685 Y28.5358 
G01 X17.4420 Y28.5161 
G01 X18.1180 Y28.5161 
G01 X18.1915 Y28.5358 
G01 X18.2574 Y28.5738 
G01 X18.3112 Y28.6276 
G01 X18.3492 Y28.6935 
G01 X18.3689 Y28.7670 
G00 Z2.5400 
G00 X17.0989 Y23.5670 
G01 Z-0.1000 F254.00 
G01 X17.0989 Y25.8430 F200.00 
G01 X17.0792 Y25.9165 
G01 X17.0412 Y25.9824 
G01 X16.9874 Y26.0362 
G01 X16.9215 Y26.0742 
G01 X16.8480 Y26.0939 
G01 X16.1720 Y26.0939 
G01 X16.0985 Y26.0742 
G01 X16.0326 Y26.0362 
G01 X15.9788 Y25.9824 
G01 X15.9408 Y25.9165 
G01 X15.9211 Y25.8430 
G01 X15.9211 Y23.5670 
G01 X15.9408 Y23.4935 
G01 X15.9671 Y23.4479 
G01 X15.9671 Y20.8629 
G01 X15.2239 Y20.8629 
G01 X15.2239 Y21.1080 
G01 X15.2042 Y21.1815 
G01 X15.1662 Y21.2474 
G01 X15.1124 Y21.3012 
G01 X15.0465 Y21.3392 
G01 X14.9730 Y21.3589 
G01 X13.5970 Y21.3589 
G01 X13.5235 Y21.3392 
G01 X13.4576 Y21.3012 
G01 X13.4038 Y21.2474 
G01 X13.3658 Y21.1815 
G01 X13.3461 Y21.1080 
G01 X13.3461 Y19.5320 
G01 X13.3658 Y19.4585 
G01 X13.4038 Y19.3926 
G01 X13.4576 Y19.3388 
G01 X13.5235 Y19.3008 
G01 X13.5970 Y19.2811 
G01 X14.9730 Y19.2811 
G01 X15.0465 Y19.3008 
G01 X15.1124 Y19.3388 
G01 X15.1662 Y19.3926 
G01 X15.2042 Y19.4585 
G01 X15.2239 Y19.5320 
G01 X15.2239 Y19.7771 
G01 X15.9671 Y19.7771 
G01 X15.9671 Y17.7639 
G01 X15.0370 Y17.7639 
G01 X14.9635 Y17.7442 
G01 X14.8976 Y17.7062 
G01 X14.8438 Y17.6524 
G01 X14.8058 Y17.5865 
G01 X14.7861 Y17.5130 
G01 X14.7861 Y16.1370 
G01 X14.8058 Y16.0635 
G01 X14.8438 Y15.9976 
G01 X14.8976 Y15.9438 
G01 X14.9635 Y15.9058 
G01 X15.0370 Y15.8861 
G01 X16.7130 Y15.8861 
G01 X16.7865 Y15.9058 
G01 X16.8524 Y15.9438 
G01 X16.9062 Y15.9976 
G01 X16.9442 Y16.0635 
G01 X16.9639 Y16.1370 
G01 X16.9639 Y17.1604 
G01 X17.0159 Y17.2504 
G01 X17.0529 Y17.3885 
G01 X17.0529 Y23.4479 
G01 X17.0792 Y23.4935 
G01 X17.0989 Y23.5670 
G00 Z2.5400 
G00 X4.8609 Y67.1003 
G01 Z-0.1000 F254.00 
G01 X4.8609 Y68.7897 F200.00 
G01 X4.8350 Y68.9531 
G01 X4.7839 Y69.1104 
G01 X4.7088 Y69.2578 
G01 X4.6116 Y69.3916 
G01 X4.4946 Y69.5086 
G01 X4.3608 Y69.6058 
G01 X4.2134 Y69.6809 
G01 X4.0561 Y69.7320 
G01 X3.8927 Y69.7579 
G01 X3.7273 Y69.7579 
G01 X3.5639 Y69.7320 
G01 X3.4066 Y69.6809 
G01 X3.2592 Y69.6058 
G01 X3.1254 Y69.5086 
G01 X3.0084 Y69.3916 
G01 X2.9112 Y69.2578 
G01 X2.8361 Y69.1104 
G01 X2.7850 Y68.9531 
G01 X2.7591 Y68.7897 
G01 X2.7591 Y67.6619 
G01 X2.7406 Y67.6433 
G01 X2.6691 Y67.5196 
G01 X2.6321 Y67.3815 
G01 X2.6321 Y46.2835 
G01 X2.6691 Y46.1454 
G01 X2.7406 Y46.0217 
G01 X2.8417 Y45.9206 
G01 X4.1507 Y44.6115 
G01 X4.1371 Y44.5429 
G01 X4.1371 Y44.3571 
G01 X4.1733 Y44.1750 
G01 X4.2444 Y44.0034 
G01 X4.3476 Y43.8489 
G01 X4.4789 Y43.7176 
G01 X4.6334 Y43.6144 
G01 X4.8050 Y43.5433 
G01 X4.9871 Y43.5071 
G01 X5.1729 Y43.5071 
G01 X5.3550 Y43.5433 
G01 X5.5266 Y43.6144 
G01 X5.6811 Y43.7176 
G01 X5.8124 Y43.8489 
G01 X5.9156 Y44.0034 
G01 X5.9867 Y44.1750 
G01 X6.0229 Y44.3571 
G01 X6.0229 Y44.5429 
G01 X5.9867 Y44.7250 
G01 X5.9156 Y44.8966 
G01 X5.8124 Y45.0511 
G01 X5.6811 Y45.1824 
G01 X5.5266 Y45.2856 
G01 X5.3550 Y45.3567 
G01 X5.1729 Y45.3929 
G01 X4.9871 Y45.3929 
G01 X4.9185 Y45.3792 
G01 X3.7179 Y46.5799 
G01 X3.7179 Y66.1336 
G01 X3.7273 Y66.1321 
G01 X3.8927 Y66.1321 
G01 X4.0561 Y66.1580 
G01 X4.2134 Y66.2091 
G01 X4.3608 Y66.2842 
G01 X4.4946 Y66.3814 
G01 X4.6116 Y66.4984 
G01 X4.7088 Y66.6322 
G01 X4.7839 Y66.7796 
G01 X4.8350 Y66.9369 
G01 X4.8609 Y67.1003 
G00 Z2.5400 
G00 X7.4009 Y67.1003 
G01 Z-0.1000 F254.00 
G01 X7.4009 Y68.7897 F200.00 
G01 X7.3750 Y68.9531 
G01 X7.3239 Y69.1104 
G01 X7.2488 Y69.2578 
G01 X7.1516 Y69.3916 
G01 X7.0346 Y69.5086 
G01 X6.9008 Y69.6058 
G01 X6.7534 Y69.6809 
G01 X6.5961 Y69.7320 
G01 X6.4327 Y69.7579 
G01 X6.2673 Y69.7579 
G01 X6.1039 Y69.7320 
G01 X5.9466 Y69.6809 
G01 X5.7992 Y69.6058 
G01 X5.6654 Y69.5086 
G01 X5.5484 Y69.3916 
G01 X5.4512 Y69.2578 
G01 X5.3761 Y69.1104 
G01 X5.3250 Y68.9531 
G01 X5.2991 Y68.7897 
G01 X5.2991 Y67.1003 
G01 X5.3250 Y66.9369 
G01 X5.3761 Y66.7796 
G01 X5.4512 Y66.6322 
G01 X5.5484 Y66.4984 
G01 X5.6654 Y66.3814 
G01 X5.7992 Y66.2842 
G01 X5.9466 Y66.2091 
G01 X6.1039 Y66.1580 
G01 X6.2673 Y66.1321 
G01 X6.4327 Y66.1321 
G01 X6.5961 Y66.1580 
G01 X6.7534 Y66.2091 
G01 X6.9008 Y66.2842 
G01 X7.0346 Y66.3814 
G01 X7.1516 Y66.4984 
G01 X7.2488 Y66.6322 
G01 X7.3239 Y66.7796 
G01 X7.3750 Y66.9369 
G01 X7.4009 Y67.1003 
G00 Z2.5400 
G00 X24.3491 Y68.7897 
G01 Z-0.1000 F254.00 
G01 X24.3491 Y67.1003 F200.00 
G01 X24.3750 Y66.9369 
G01 X24.4261 Y66.7796 
G01 X24.5012 Y66.6322 
G01 X24.5984 Y66.4984 
G01 X24.7154 Y66.3814 
G01 X24.8492 Y66.2842 
G01 X24.9966 Y66.2091 
G01 X25.1539 Y66.1580 
G01 X25.3173 Y66.1321 
G01 X25.4827 Y66.1321 
G01 X25.6461 Y66.1580 
G01 X25.8034 Y66.2091 
G01 X25.9508 Y66.2842 
G01 X26.0846 Y66.3814 
G01 X26.2016 Y66.4984 
G01 X26.2988 Y66.6322 
G01 X26.3739 Y66.7796 
G01 X26.4250 Y66.9369 
G01 X26.4509 Y67.1003 
G01 X26.4509 Y68.7897 
G01 X26.4250 Y68.9531 
G01 X26.3739 Y69.1104 
G01 X26.2988 Y69.2578 
G01 X26.2016 Y69.3916 
G01 X26.0846 Y69.5086 
G01 X25.9508 Y69.6058 
G01 X25.8034 Y69.6809 
G01 X25.6461 Y69.7320 
G01 X25.4827 Y69.7579 
G01 X25.3173 Y69.7579 
G01 X25.1539 Y69.7320 
G01 X25.0496 Y69.6981 
G01 X23.2944 Y71.4533 
G01 X23.1933 Y71.5544 
G01 X23.0695 Y71.6259 
G01 X22.9315 Y71.6629 
G01 X16.4385 Y71.6629 
G01 X16.3004 Y71.6259 
G01 X16.1767 Y71.5544 
G01 X16.0756 Y71.4533 
G01 X12.9006 Y68.2783 
G01 X12.8291 Y68.1546 
G01 X12.7921 Y68.0165 
G01 X12.7921 Y64.1189 
G01 X11.8620 Y64.1189 
G01 X11.7885 Y64.0992 
G01 X11.7226 Y64.0612 
G01 X11.6688 Y64.0074 
G01 X11.6308 Y63.9415 
G01 X11.6111 Y63.8680 
G01 X11.6111 Y62.4920 
G01 X11.6308 Y62.4185 
G01 X11.6688 Y62.3526 
G01 X11.7226 Y62.2988 
G01 X11.7885 Y62.2608 
G01 X11.8620 Y62.2411 
G01 X13.5380 Y62.2411 
G01 X13.6115 Y62.2608 
G01 X13.6774 Y62.2988 
G01 X13.7312 Y62.3526 
G01 X13.7692 Y62.4185 
G01 X13.7889 Y62.4920 
G01 X13.7889 Y63.5154 
G01 X13.8409 Y63.6054 
G01 X13.8779 Y63.7435 
G01 X13.8779 Y67.7201 
G01 X16.7349 Y70.5771 
G01 X22.6351 Y70.5771 
G01 X24.3591 Y68.8531 
G01 X24.3491 Y68.7897 
G00 Z2.5400 
G00 X21.8091 Y68.7897 
G01 Z-0.1000 F254.00 
G01 X21.8091 Y67.1003 F200.00 
G01 X21.8350 Y66.9369 
G01 X21.8861 Y66.7796 
G01 X21.9612 Y66.6322 
G01 X22.0584 Y66.4984 
G01 X22.1754 Y66.3814 
G01 X22.3092 Y66.2842 
G01 X22.3171 Y66.2802 
G01 X22.3171 Y65.3335 
G01 X22.3541 Y65.1954 
G01 X22.4256 Y65.0717 
G01 X22.5267 Y64.9706 
G01 X25.1721 Y62.3251 
G01 X25.1721 Y62.0489 
G01 X25.0270 Y62.0489 
G01 X24.9535 Y62.0292 
G01 X24.8876 Y61.9912 
G01 X24.8338 Y61.9374 
G01 X24.7958 Y61.8715 
G01 X24.7761 Y61.7980 
G01 X24.7761 Y60.1220 
G01 X24.7958 Y60.0485 
G01 X24.8338 Y59.9826 
G01 X24.8876 Y59.9288 
G01 X24.9535 Y59.8908 
G01 X25.0270 Y59.8711 
G01 X26.0361 Y59.8711 
G01 X27.3971 Y58.5101 
G01 X27.3971 Y54.1396 
G01 X26.9907 Y53.7332 
G01 X26.9907 Y52.9468 
G01 X27.5468 Y52.3907 
G01 X28.3332 Y52.3907 
G01 X28.8893 Y52.9468 
G01 X28.8893 Y53.7332 
G01 X28.4829 Y54.1396 
G01 X28.4829 Y58.8065 
G01 X28.4459 Y58.9445 
G01 X28.3744 Y59.0683 
G01 X28.2733 Y59.1694 
G01 X26.6539 Y60.7889 
G01 X26.6539 Y61.7980 
G01 X26.6342 Y61.8715 
G01 X26.5962 Y61.9374 
G01 X26.5424 Y61.9912 
G01 X26.4765 Y62.0292 
G01 X26.4030 Y62.0489 
G01 X26.2579 Y62.0489 
G01 X26.2579 Y62.6215 
G01 X26.2209 Y62.7596 
G01 X26.1494 Y62.8833 
G01 X23.4029 Y65.6299 
G01 X23.4029 Y66.2802 
G01 X23.4108 Y66.2842 
G01 X23.5446 Y66.3814 
G01 X23.6616 Y66.4984 
G01 X23.7588 Y66.6322 
G01 X23.8339 Y66.7796 
G01 X23.8850 Y66.9369 
G01 X23.9109 Y67.1003 
G01 X23.9109 Y68.7897 
G01 X23.8850 Y68.9531 
G01 X23.8339 Y69.1104 
G01 X23.7588 Y69.2578 
G01 X23.6616 Y69.3916 
G01 X23.5446 Y69.5086 
G01 X23.4108 Y69.6058 
G01 X23.2634 Y69.6809 
G01 X23.1061 Y69.7320 
G01 X22.9427 Y69.7579 
G01 X22.7773 Y69.7579 
G01 X22.6139 Y69.7320 
G01 X22.4566 Y69.6809 
G01 X22.3092 Y69.6058 
G01 X22.1754 Y69.5086 
G01 X22.0584 Y69.3916 
G01 X21.9612 Y69.2578 
G01 X21.8861 Y69.1104 
G01 X21.8350 Y68.9531 
G01 X21.8091 Y68.7897 
G00 Z2.5400 
G00 X28.7780 Y29.1939 
G01 Z-0.1000 F254.00 
G01 X27.1020 Y29.1939 F200.00 
G01 X27.0285 Y29.1742 
G01 X26.9626 Y29.1362 
G01 X26.9088 Y29.0824 
G01 X26.8708 Y29.0165 
G01 X26.8530 Y28.9503 
G01 X24.1139 Y28.9503 
G01 X24.1139 Y29.4130 
G01 X24.0942 Y29.4865 
G01 X24.0562 Y29.5524 
G01 X24.0024 Y29.6062 
G01 X23.9365 Y29.6442 
G01 X23.8630 Y29.6639 
G01 X22.4870 Y29.6639 
G01 X22.4135 Y29.6442 
G01 X22.3476 Y29.6062 
G01 X22.2938 Y29.5524 
G01 X22.2558 Y29.4865 
G01 X22.2361 Y29.4130 
G01 X22.2361 Y27.7370 
G01 X22.2558 Y27.6635 
G01 X22.2938 Y27.5976 
G01 X22.3476 Y27.5438 
G01 X22.4135 Y27.5058 
G01 X22.4870 Y27.4861 
G01 X23.8630 Y27.4861 
G01 X23.9365 Y27.5058 
G01 X24.0024 Y27.5438 
G01 X24.0183 Y27.5597 
G01 X26.8530 Y27.5597 
G01 X26.8708 Y27.4935 
G01 X26.9088 Y27.4276 
G01 X26.9626 Y27.3738 
G01 X27.0285 Y27.3358 
G01 X27.1020 Y27.3161 
G01 X28.7780 Y27.3161 
G01 X28.8515 Y27.3358 
G01 X28.9174 Y27.3738 
G01 X28.9712 Y27.4276 
G01 X29.0092 Y27.4935 
G01 X29.0289 Y27.5670 
G01 X29.0289 Y28.9430 
G01 X29.0092 Y29.0165 
G01 X28.9712 Y29.0824 
G01 X28.9174 Y29.1362 
G01 X28.8515 Y29.1742 
G01 X28.7780 Y29.1939 
G00 Z2.5400 
G00 X28.7780 Y27.2939 
G01 Z-0.1000 F254.00 
G01 X27.1020 Y27.2939 F200.00 
G01 X27.0285 Y27.2742 
G01 X26.9626 Y27.2362 
G01 X26.9088 Y27.1824 
G01 X26.8708 Y27.1165 
G01 X26.8511 Y27.0430 
G01 X26.8511 Y25.6670 
G01 X26.8708 Y25.5935 
G01 X26.9088 Y25.5276 
G01 X26.9626 Y25.4738 
G01 X27.0285 Y25.4358 
G01 X27.1020 Y25.4161 
G01 X27.2447 Y25.4161 
G01 X27.2447 Y24.1139 
G01 X27.1020 Y24.1139 
G01 X27.0285 Y24.0942 
G01 X26.9626 Y24.0562 
G01 X26.9088 Y24.0024 
G01 X26.8708 Y23.9365 
G01 X26.8511 Y23.8630 
G01 X26.8511 Y22.4870 
G01 X26.8708 Y22.4135 
G01 X26.9088 Y22.3476 
G01 X26.9626 Y22.2938 
G01 X27.0285 Y22.2558 
G01 X27.1020 Y22.2361 
G01 X28.7780 Y22.2361 
G01 X28.8515 Y22.2558 
G01 X28.9174 Y22.2938 
G01 X28.9712 Y22.3476 
G01 X29.0092 Y22.4135 
G01 X29.0289 Y22.4870 
G01 X29.0289 Y23.8630 
G01 X29.0092 Y23.9365 
G01 X28.9712 Y24.0024 
G01 X28.9174 Y24.0562 
G01 X28.8515 Y24.0942 
G01 X28.7780 Y24.1139 
G01 X28.6353 Y24.1139 
G01 X28.6353 Y25.4161 
G01 X28.7780 Y25.4161 
G01 X28.8515 Y25.4358 
G01 X28.9174 Y25.4738 
G01 X28.9712 Y25.5276 
G01 X29.0092 Y25.5935 
G01 X29.0289 Y25.6670 
G01 X29.0289 Y27.0430 
G01 X29.0092 Y27.1165 
G01 X28.9712 Y27.1824 
G01 X28.9174 Y27.2362 
G01 X28.8515 Y27.2742 
G01 X28.7780 Y27.2939 
G00 Z2.5400 
G00 X8.2711 Y18.6180 
G01 Z-0.1000 F254.00 
G01 X8.2711 Y16.9420 F200.00 
G01 X8.2908 Y16.8685 
G01 X8.3288 Y16.8026 
G01 X8.3826 Y16.7488 
G01 X8.4485 Y16.7108 
G01 X8.5220 Y16.6911 
G01 X9.8980 Y16.6911 
G01 X9.9715 Y16.7108 
G01 X10.0374 Y16.7488 
G01 X10.0912 Y16.8026 
G01 X10.1292 Y16.8685 
G01 X10.1489 Y16.9420 
G01 X10.1489 Y18.6180 
G01 X10.1292 Y18.6915 
G01 X10.0912 Y18.7574 
G01 X10.0374 Y18.8112 
G01 X9.9715 Y18.8492 
G01 X9.8980 Y18.8689 
G01 X9.7529 Y18.8689 
G01 X9.7529 Y23.0154 
G01 X9.8393 Y23.1018 
G01 X9.8393 Y23.8882 
G01 X9.2832 Y24.4443 
G01 X8.4968 Y24.4443 
G01 X7.9407 Y23.8882 
G01 X7.9407 Y23.1018 
G01 X8.4968 Y22.5457 
G01 X8.6671 Y22.5457 
G01 X8.6671 Y18.8689 
G01 X8.5220 Y18.8689 
G01 X8.4485 Y18.8492 
G01 X8.3826 Y18.8112 
G01 X8.3288 Y18.7574 
G01 X8.2908 Y18.6915 
G01 X8.2711 Y18.6180 
G00 Z2.5400 
G00 X16.7130 Y15.8639 
G01 Z-0.1000 F254.00 
G01 X15.0370 Y15.8639 F200.00 
G01 X14.9635 Y15.8442 
G01 X14.8976 Y15.8062 
G01 X14.8438 Y15.7524 
G01 X14.8058 Y15.6865 
G01 X14.7861 Y15.6130 
G01 X14.7861 Y14.2370 
G01 X14.7947 Y14.2048 
G01 X14.0469 Y12.9889 
G01 X13.9320 Y12.9889 
G01 X13.8585 Y12.9692 
G01 X13.7926 Y12.9312 
G01 X13.7388 Y12.8774 
G01 X13.7008 Y12.8115 
G01 X13.6811 Y12.7380 
G01 X13.6811 Y12.5839 
G01 X11.7970 Y12.5839 
G01 X11.7235 Y12.5642 
G01 X11.6576 Y12.5262 
G01 X11.6038 Y12.4724 
G01 X11.5658 Y12.4065 
G01 X11.5461 Y12.3330 
G01 X11.5461 Y9.2570 
G01 X11.5658 Y9.1835 
G01 X11.6038 Y9.1176 
G01 X11.6576 Y9.0638 
G01 X11.7235 Y9.0258 
G01 X11.7970 Y9.0061 
G01 X12.1461 Y9.0061 
G01 X12.1461 Y5.5663 
G01 X12.1820 Y5.2710 
G01 X12.2531 Y4.9821 
G01 X12.3586 Y4.7040 
G01 X12.4969 Y4.4406 
G01 X12.6659 Y4.1958 
G01 X12.8631 Y3.9731 
G01 X13.0858 Y3.7759 
G01 X13.3306 Y3.6069 
G01 X13.4161 Y3.5620 
G01 X13.4161 Y3.4514 
G01 X13.4454 Y3.2666 
G01 X13.5032 Y3.0886 
G01 X13.5882 Y2.9219 
G01 X13.6982 Y2.7705 
G01 X13.8305 Y2.6382 
G01 X13.9819 Y2.5282 
G01 X14.1486 Y2.4432 
G01 X14.3266 Y2.3854 
G01 X14.5114 Y2.3561 
G01 X14.6986 Y2.3561 
G01 X14.8834 Y2.3854 
G01 X15.0614 Y2.4432 
G01 X15.2281 Y2.5282 
G01 X15.3795 Y2.6382 
G01 X15.5118 Y2.7705 
G01 X15.6218 Y2.9219 
G01 X15.7068 Y3.0886 
G01 X15.7646 Y3.2666 
G01 X15.7939 Y3.4514 
G01 X15.7939 Y5.4386 
G01 X15.7646 Y5.6234 
G01 X15.7068 Y5.8014 
G01 X15.6218 Y5.9681 
G01 X15.5118 Y6.1195 
G01 X15.3795 Y6.2518 
G01 X15.2281 Y6.3618 
G01 X15.0614 Y6.4468 
G01 X14.8834 Y6.5046 
G01 X14.6986 Y6.5339 
G01 X14.5239 Y6.5339 
G01 X14.5239 Y9.0061 
G01 X14.8730 Y9.0061 
G01 X14.9465 Y9.0258 
G01 X15.0124 Y9.0638 
G01 X15.0662 Y9.1176 
G01 X15.1042 Y9.1835 
G01 X15.1183 Y9.2361 
G01 X17.1830 Y9.2361 
G01 X17.2565 Y9.2558 
G01 X17.3224 Y9.2938 
G01 X17.3762 Y9.3476 
G01 X17.4142 Y9.4135 
G01 X17.4339 Y9.4870 
G01 X17.4339 Y12.7380 
G01 X17.4142 Y12.8115 
G01 X17.3762 Y12.8774 
G01 X17.3224 Y12.9312 
G01 X17.2565 Y12.9692 
G01 X17.1830 Y12.9889 
G01 X15.3216 Y12.9889 
G01 X15.9349 Y13.9861 
G01 X16.7130 Y13.9861 
G01 X16.7865 Y14.0058 
G01 X16.8524 Y14.0438 
G01 X16.9062 Y14.0976 
G01 X16.9442 Y14.1635 
G01 X16.9639 Y14.2370 
G01 X16.9639 Y15.6130 
G01 X16.9442 Y15.6865 
G01 X16.9062 Y15.7524 
G01 X16.8524 Y15.8062 
G01 X16.7865 Y15.8442 
G01 X16.7130 Y15.8639 
G00 Z2.5400 
G00 X12.0761 Y35.7630 
G01 Z-0.1000 F254.00 
G01 X12.0761 Y34.0870 F200.00 
G01 X12.0958 Y34.0135 
G01 X12.1338 Y33.9476 
G01 X12.1876 Y33.8938 
G01 X12.2535 Y33.8558 
G01 X12.3270 Y33.8361 
G01 X12.7921 Y33.8361 
G01 X12.7921 Y31.7385 
G01 X12.8291 Y31.6004 
G01 X12.9006 Y31.4767 
G01 X14.6511 Y29.7261 
G01 X14.6511 Y28.7670 
G01 X14.6708 Y28.6935 
G01 X14.7088 Y28.6276 
G01 X14.7626 Y28.5738 
G01 X14.8285 Y28.5358 
G01 X14.9020 Y28.5161 
G01 X15.5780 Y28.5161 
G01 X15.6515 Y28.5358 
G01 X15.7174 Y28.5738 
G01 X15.7712 Y28.6276 
G01 X15.8092 Y28.6935 
G01 X15.8289 Y28.7670 
G01 X15.8289 Y31.0430 
G01 X15.8092 Y31.1165 
G01 X15.7712 Y31.1824 
G01 X15.7174 Y31.2362 
G01 X15.6515 Y31.2742 
G01 X15.5780 Y31.2939 
G01 X14.9020 Y31.2939 
G01 X14.8285 Y31.2742 
G01 X14.7626 Y31.2362 
G01 X14.7196 Y31.1932 
G01 X13.8779 Y32.0349 
G01 X13.8779 Y33.9293 
G01 X13.8962 Y33.9476 
G01 X13.9342 Y34.0135 
G01 X13.9539 Y34.0870 
G01 X13.9539 Y34.7761 
G01 X14.9383 Y35.7606 
G01 X15.0394 Y35.8617 
G01 X15.1109 Y35.9854 
G01 X15.1479 Y36.1235 
G01 X15.1479 Y41.1104 
G01 X15.5543 Y41.5168 
G01 X15.5543 Y42.3032 
G01 X14.9982 Y42.8593 
G01 X14.2118 Y42.8593 
G01 X13.8779 Y42.5254 
G01 X13.8779 Y43.0154 
G01 X14.2843 Y43.4218 
G01 X14.2843 Y44.2082 
G01 X13.7282 Y44.7643 
G01 X13.2429 Y44.7643 
G01 X13.2429 Y47.4302 
G01 X13.3051 Y47.4718 
G01 X13.4374 Y47.6041 
G01 X13.5413 Y47.7595 
G01 X13.6128 Y47.9323 
G01 X13.6493 Y48.1157 
G01 X13.6493 Y49.6221 
G01 X15.0151 Y49.6221 
G01 X15.3321 Y49.3051 
G01 X15.3321 Y44.3785 
G01 X15.3691 Y44.2404 
G01 X15.4406 Y44.1166 
G01 X20.6553 Y38.9019 
G01 X20.6407 Y38.8285 
G01 X20.6407 Y37.3207 
G01 X20.6772 Y37.1373 
G01 X20.7487 Y36.9645 
G01 X20.8526 Y36.8091 
G01 X20.9849 Y36.6768 
G01 X21.1403 Y36.5729 
G01 X21.3131 Y36.5014 
G01 X21.4965 Y36.4649 
G01 X21.6835 Y36.4649 
G01 X21.8669 Y36.5014 
G01 X22.0397 Y36.5729 
G01 X22.1951 Y36.6768 
G01 X22.3274 Y36.8091 
G01 X22.4313 Y36.9645 
G01 X22.4785 Y37.0787 
G01 X23.6956 Y35.8617 
G01 X23.7966 Y35.7606 
G01 X23.9204 Y35.6891 
G01 X24.0585 Y35.6521 
G01 X26.4451 Y35.6521 
G01 X27.8374 Y34.2598 
G01 X27.7337 Y34.1047 
G01 X27.6622 Y33.9319 
G01 X27.6257 Y33.7485 
G01 X27.6257 Y32.2407 
G01 X27.6622 Y32.0573 
G01 X27.7337 Y31.8845 
G01 X27.8376 Y31.7291 
G01 X27.9699 Y31.5968 
G01 X28.0321 Y31.5552 
G01 X28.0321 Y31.3399 
G01 X27.7151 Y31.0229 
G01 X19.6389 Y31.0229 
G01 X19.6389 Y31.0430 
G01 X19.6192 Y31.1165 
G01 X19.5812 Y31.1824 
G01 X19.5274 Y31.2362 
G01 X19.4615 Y31.2742 
G01 X19.3880 Y31.2939 
G01 X18.7120 Y31.2939 
G01 X18.6385 Y31.2742 
G01 X18.5726 Y31.2362 
G01 X18.5188 Y31.1824 
G01 X18.4808 Y31.1165 
G01 X18.4611 Y31.0430 
G01 X18.4611 Y28.7670 
G01 X18.4808 Y28.6935 
G01 X18.5188 Y28.6276 
G01 X18.5726 Y28.5738 
G01 X18.6385 Y28.5358 
G01 X18.7120 Y28.5161 
G01 X19.3880 Y28.5161 
G01 X19.4615 Y28.5358 
G01 X19.5274 Y28.5738 
G01 X19.5812 Y28.6276 
G01 X19.6192 Y28.6935 
G01 X19.6389 Y28.7670 
G01 X19.6389 Y29.7261 
G01 X19.8499 Y29.9371 
G01 X28.0115 Y29.9371 
G01 X28.1496 Y29.9741 
G01 X28.2733 Y30.0456 
G01 X28.3744 Y30.1467 
G01 X29.0094 Y30.7817 
G01 X29.0809 Y30.9054 
G01 X29.1179 Y31.0435 
G01 X29.1179 Y31.5552 
G01 X29.1801 Y31.5968 
G01 X29.3124 Y31.7291 
G01 X29.4163 Y31.8845 
G01 X29.4878 Y32.0573 
G01 X29.5243 Y32.2407 
G01 X29.5243 Y33.7485 
G01 X29.4878 Y33.9319 
G01 X29.4163 Y34.1047 
G01 X29.3124 Y34.2601 
G01 X29.1801 Y34.3924 
G01 X29.0942 Y34.4498 
G01 X29.0809 Y34.4995 
G01 X29.0094 Y34.6233 
G01 X27.1044 Y36.5283 
G01 X27.0033 Y36.6294 
G01 X26.8796 Y36.7009 
G01 X26.7415 Y36.7379 
G01 X24.3549 Y36.7379 
G01 X22.5393 Y38.5535 
G01 X22.5393 Y38.8285 
G01 X22.5028 Y39.0119 
G01 X22.4313 Y39.1847 
G01 X22.3274 Y39.3401 
G01 X22.1951 Y39.4724 
G01 X22.0397 Y39.5763 
G01 X21.8669 Y39.6478 
G01 X21.6835 Y39.6843 
G01 X21.4965 Y39.6843 
G01 X21.4231 Y39.6697 
G01 X16.4179 Y44.6749 
G01 X16.4179 Y49.6015 
G01 X16.3809 Y49.7396 
G01 X16.3094 Y49.8633 
G01 X16.2083 Y49.9644 
G01 X15.5733 Y50.5994 
G01 X15.4496 Y50.6709 
G01 X15.3115 Y50.7079 
G01 X10.7235 Y50.7079 
G01 X10.5854 Y50.6709 
G01 X10.4617 Y50.5994 
G01 X10.3606 Y50.4983 
G01 X10.3269 Y50.4647 
G01 X10.2535 Y50.4793 
G01 X10.0665 Y50.4793 
G01 X9.8831 Y50.4428 
G01 X9.7103 Y50.3713 
G01 X9.5549 Y50.2674 
G01 X9.4226 Y50.1351 
G01 X9.3187 Y49.9797 
G01 X9.2472 Y49.8069 
G01 X9.2107 Y49.6235 
G01 X9.2107 Y48.1157 
G01 X9.2472 Y47.9323 
G01 X9.3187 Y47.7595 
G01 X9.4226 Y47.6041 
G01 X9.5549 Y47.4718 
G01 X9.6171 Y47.4302 
G01 X9.6171 Y43.7435 
G01 X9.6541 Y43.6054 
G01 X9.7256 Y43.4817 
G01 X10.7543 Y42.4529 
G01 X5.8513 Y42.4529 
G01 X5.8124 Y42.5111 
G01 X5.6811 Y42.6424 
G01 X5.5266 Y42.7456 
G01 X5.3550 Y42.8167 
G01 X5.1729 Y42.8529 
G01 X4.9871 Y42.8529 
G01 X4.8050 Y42.8167 
G01 X4.6334 Y42.7456 
G01 X4.4789 Y42.6424 
G01 X4.3476 Y42.5111 
G01 X4.2444 Y42.3566 
G01 X4.1733 Y42.1850 
G01 X4.1371 Y42.0029 
G01 X4.1371 Y41.8171 
G01 X4.1507 Y41.7485 
G01 X2.8417 Y40.4394 
G01 X2.7406 Y40.3383 
G01 X2.6691 Y40.2146 
G01 X2.6321 Y40.0765 
G01 X2.6321 Y37.3935 
G01 X2.6691 Y37.2554 
G01 X2.7406 Y37.1317 
G01 X2.8417 Y37.0306 
G01 X5.2806 Y34.5917 
G01 X5.3817 Y34.4906 
G01 X5.5054 Y34.4191 
G01 X5.6435 Y34.3821 
G01 X5.7311 Y34.3821 
G01 X5.7311 Y34.1370 
G01 X5.7508 Y34.0635 
G01 X5.7888 Y33.9976 
G01 X5.8071 Y33.9793 
G01 X5.8071 Y31.6785 
G01 X5.8441 Y31.5404 
G01 X5.9156 Y31.4167 
G01 X7.1823 Y30.1499 
G01 X7.1680 Y30.1060 
G01 X7.1406 Y29.9327 
G01 X7.1406 Y29.7573 
G01 X7.1680 Y29.5840 
G01 X7.1823 Y29.5401 
G01 X6.6517 Y29.0094 
G01 X6.5506 Y28.9083 
G01 X6.4791 Y28.7846 
G01 X6.4421 Y28.6465 
G01 X6.4421 Y14.5335 
G01 X6.4791 Y14.3954 
G01 X6.5506 Y14.2717 
G01 X6.6517 Y14.1706 
G01 X6.7754 Y14.0991 
G01 X6.9135 Y14.0621 
G01 X11.5111 Y14.0621 
G01 X11.5111 Y13.6670 
G01 X11.5308 Y13.5935 
G01 X11.5688 Y13.5276 
G01 X11.6226 Y13.4738 
G01 X11.6885 Y13.4358 
G01 X11.7620 Y13.4161 
G01 X13.6380 Y13.4161 
G01 X13.7115 Y13.4358 
G01 X13.7774 Y13.4738 
G01 X13.8312 Y13.5276 
G01 X13.8692 Y13.5935 
G01 X13.8889 Y13.6670 
G01 X13.8889 Y15.5430 
G01 X13.8692 Y15.6165 
G01 X13.8312 Y15.6824 
G01 X13.7774 Y15.7362 
G01 X13.7115 Y15.7742 
G01 X13.6380 Y15.7939 
G01 X12.9279 Y15.7939 
G01 X12.9279 Y19.2811 
G01 X13.0730 Y19.2811 
G01 X13.1465 Y19.3008 
G01 X13.2124 Y19.3388 
G01 X13.2662 Y19.3926 
G01 X13.3042 Y19.4585 
G01 X13.3239 Y19.5320 
G01 X13.3239 Y21.1080 
G01 X13.3042 Y21.1815 
G01 X13.2662 Y21.2474 
G01 X13.2124 Y21.3012 
G01 X13.1465 Y21.3392 
G01 X13.0730 Y21.3589 
G01 X11.6970 Y21.3589 
G01 X11.6235 Y21.3392 
G01 X11.5576 Y21.3012 
G01 X11.5038 Y21.2474 
G01 X11.4658 Y21.1815 
G01 X11.4461 Y21.1080 
G01 X11.4461 Y19.5320 
G01 X11.4658 Y19.4585 
G01 X11.5038 Y19.3926 
G01 X11.5576 Y19.3388 
G01 X11.6235 Y19.3008 
G01 X11.6970 Y19.2811 
G01 X11.8421 Y19.2811 
G01 X11.8421 Y18.8571 
G01 X11.7980 Y18.8689 
G01 X10.4220 Y18.8689 
G01 X10.3485 Y18.8492 
G01 X10.2826 Y18.8112 
G01 X10.2288 Y18.7574 
G01 X10.1908 Y18.6915 
G01 X10.1711 Y18.6180 
G01 X10.1711 Y16.9420 
G01 X10.1908 Y16.8685 
G01 X10.2288 Y16.8026 
G01 X10.2826 Y16.7488 
G01 X10.3485 Y16.7108 
G01 X10.4220 Y16.6911 
G01 X11.7980 Y16.6911 
G01 X11.8421 Y16.7029 
G01 X11.8421 Y15.7939 
G01 X11.7620 Y15.7939 
G01 X11.6885 Y15.7742 
G01 X11.6226 Y15.7362 
G01 X11.5688 Y15.6824 
G01 X11.5308 Y15.6165 
G01 X11.5111 Y15.5430 
G01 X11.5111 Y15.1479 
G01 X7.5279 Y15.1479 
G01 X7.5279 Y28.3501 
G01 X7.9501 Y28.7723 
G01 X7.9940 Y28.7580 
G01 X8.1673 Y28.7306 
G01 X8.3427 Y28.7306 
G01 X8.5160 Y28.7580 
G01 X8.6828 Y28.8122 
G01 X8.8391 Y28.8919 
G01 X8.9810 Y28.9950 
G01 X9.1050 Y29.1190 
G01 X9.2081 Y29.2609 
G01 X9.2878 Y29.4172 
G01 X9.3420 Y29.5840 
G01 X9.3694 Y29.7573 
G01 X9.3694 Y29.9327 
G01 X9.3420 Y30.1060 
G01 X9.2878 Y30.2728 
G01 X9.2081 Y30.4291 
G01 X9.1050 Y30.5710 
G01 X8.9810 Y30.6950 
G01 X8.8391 Y30.7981 
G01 X8.6828 Y30.8778 
G01 X8.5160 Y30.9320 
G01 X8.3427 Y30.9594 
G01 X8.1673 Y30.9594 
G01 X7.9940 Y30.9320 
G01 X7.9501 Y30.9177 
G01 X6.8929 Y31.9749 
G01 X6.8929 Y33.8861 
G01 X7.3580 Y33.8861 
G01 X7.4315 Y33.9058 
G01 X7.4974 Y33.9438 
G01 X7.5512 Y33.9976 
G01 X7.5892 Y34.0635 
G01 X7.6089 Y34.1370 
G01 X7.6089 Y35.7130 
G01 X7.5892 Y35.7865 
G01 X7.5512 Y35.8524 
G01 X7.4974 Y35.9062 
G01 X7.4315 Y35.9442 
G01 X7.3580 Y35.9639 
G01 X5.9820 Y35.9639 
G01 X5.9085 Y35.9442 
G01 X5.8426 Y35.9062 
G01 X5.7888 Y35.8524 
G01 X5.7508 Y35.7865 
G01 X5.7311 Y35.7130 
G01 X5.7311 Y35.6767 
G01 X3.7179 Y37.6899 
G01 X3.7179 Y39.7801 
G01 X4.9185 Y40.9807 
G01 X4.9871 Y40.9671 
G01 X5.1729 Y40.9671 
G01 X5.3550 Y41.0033 
G01 X5.5266 Y41.0744 
G01 X5.6811 Y41.1776 
G01 X5.8124 Y41.3089 
G01 X5.8513 Y41.3671 
G01 X11.2654 Y41.3671 
G01 X11.6718 Y40.9607 
G01 X12.4582 Y40.9607 
G01 X12.7921 Y41.2946 
G01 X12.7921 Y39.1889 
G01 X12.3270 Y39.1889 
G01 X12.2535 Y39.1692 
G01 X12.1876 Y39.1312 
G01 X12.1338 Y39.0774 
G01 X12.0958 Y39.0115 
G01 X12.0761 Y38.9380 
G01 X12.0761 Y37.2620 
G01 X12.0958 Y37.1885 
G01 X12.1338 Y37.1226 
G01 X12.1876 Y37.0688 
G01 X12.2535 Y37.0308 
G01 X12.3270 Y37.0111 
G01 X13.7030 Y37.0111 
G01 X13.7765 Y37.0308 
G01 X13.8424 Y37.0688 
G01 X13.8962 Y37.1226 
G01 X13.9342 Y37.1885 
G01 X13.9539 Y37.2620 
G01 X13.9539 Y38.9380 
G01 X13.9342 Y39.0115 
G01 X13.8962 Y39.0774 
G01 X13.8779 Y39.0957 
