(.../romang/EAGLE/ulps/pcb-gcode.ulp)
(Copyright 2005 - 2012 by John Johnson)
(See readme.txt for licensing terms.)
(This file generated from the board:)
(.../HLS8012/hlw8012_test_board.brd)
(Current profile is .../EAGLE/ulps/profiles/generic.pp  )
(This file generated 29.09.19 17:05)
(Settings from pcb-machine.h)
(  Tool Size)
(0.1700 )
(Z Axis Settings)
(  High     Up        Down     Drill)
(12.7000 	2.5400 	-0.1000 	-2.0000 )
(spindle on time = 3.0000)
(milling depth = -2.0000)
(text depth = -0.1270)
(tool change at 12.7000 15.2400 25.4000 )
(feed rate xy = F200.00 )
(feed rate z  = F254.00 )
(Settings from pcb-defaults.h)
(isolate min = 0.0000)
(isolate max = 1.0000)
(isolate step = 0.2000)
(Generated top outlines, top drill, bottom outlines, bottom drill, )
(Unit of measure: mm)
( Tool|       Size       |  Min Sub |  Max Sub |   Count )
( T01  0.350mm 0.0138in 0.0000in 0.0000in )
( T02  0.800mm 0.0315in 0.0000in 0.0000in )
( T03  0.813mm 0.0320in 0.0000in 0.0000in )
( T04  1.016mm 0.0400in 0.0000in 0.0000in )
( T05  1.321mm 0.0520in 0.0000in 0.0000in )
(Metric Mode)
G21
(Absolute Coordinates)
G90
M05
G00 Z25.4000 
G00 X12.7000 Y15.2400 
M06 T01  ; 0.3500 
G01 Z0.0000 F254.00 
M06 T01  ; 0.3500 
G00 Z2.5400 
M03
G04 P3.000000
G00 Z2.540000
G00 X-5.9690 Y34.2900 
G01 Z-2.0000 F254.00 
G01 Z2.540000
(R2.5400  P1.000000)
(G00 Z2.540000)
G00 X-10.6680 Y48.8950 
G01 Z-2.000000
G01 Z2.540000
(G00 Z2.540000)
G00 X-13.5890 Y30.6070 
G01 Z-2.000000
G01 Z2.540000
(G00 Z2.540000)
G00 X-19.5580 Y48.8950 
G01 Z-2.000000
G01 Z2.540000
M05
G00 Z25.4000 
M06 T02  ; 0.8000 
G01 Z0.0000 F254.00 
M06 T02  ; 0.8000 
G00 Z2.5400 
M03
G04 P3.000000
G00 Z2.540000
G00 X-8.0010 Y48.8950 
G01 Z-2.0000 F254.00 
G01 Z2.540000
(R2.5400  P1.000000)
(G00 Z2.540000)
G00 X-8.0010 Y51.4350 
G01 Z-2.000000
G01 Z2.540000
(G00 Z2.540000)
G00 X-8.0010 Y53.9750 
G01 Z-2.000000
G01 Z2.540000
(G00 Z2.540000)
G00 X-8.0010 Y56.5150 
G01 Z-2.000000
G01 Z2.540000
(G00 Z2.540000)
G00 X-28.0000 Y67.0000 
G01 Z-2.000000
G01 Z2.540000
(G00 Z2.540000)
G00 X-28.0000 Y3.0000 
G01 Z-2.000000
G01 Z2.540000
(G00 Z2.540000)
G00 X-3.0000 Y67.0000 
G01 Z-2.000000
G01 Z2.540000
(G00 Z2.540000)
G00 X-3.0000 Y3.0000 
G01 Z-2.000000
G01 Z2.540000
M05
G00 Z25.4000 
M06 T03  ; 0.8128 
G01 Z0.0000 F254.00 
M06 T03  ; 0.8128 
G00 Z2.5400 
M03
G04 P3.000000
G00 Z2.540000
G00 X-13.2080 Y37.4650 
G01 Z-2.0000 F254.00 
G01 Z2.540000
(R2.5400  P1.000000)
(G00 Z2.540000)
G00 X-13.2080 Y40.0050 
G01 Z-2.000000
G01 Z2.540000
(G00 Z2.540000)
G00 X-13.4620 Y47.4980 
G01 Z-2.000000
G01 Z2.540000
(G00 Z2.540000)
G00 X-13.4620 Y55.1180 
G01 Z-2.000000
G01 Z2.540000
(G00 Z2.540000)
G00 X-16.0020 Y47.4980 
G01 Z-2.000000
G01 Z2.540000
(G00 Z2.540000)
G00 X-16.0020 Y55.1180 
G01 Z-2.000000
G01 Z2.540000
(G00 Z2.540000)
G00 X-22.8600 Y47.6250 
G01 Z-2.000000
G01 Z2.540000
(G00 Z2.540000)
G00 X-22.8600 Y55.2450 
G01 Z-2.000000
G01 Z2.540000
(G00 Z2.540000)
G00 X-25.4000 Y47.6250 
G01 Z-2.000000
G01 Z2.540000
(G00 Z2.540000)
G00 X-25.4000 Y55.2450 
G01 Z-2.000000
G01 Z2.540000
M05
G00 Z25.4000 
M06 T04  ; 1.0160 
G01 Z0.0000 F254.00 
M06 T04  ; 1.0160 
G00 Z2.5400 
M03
G04 P3.000000
G00 Z2.540000
G00 X-5.5880 Y61.9760 
G01 Z-2.0000 F254.00 
G01 Z2.540000
(R2.5400  P1.000000)
(G00 Z2.540000)
G00 X-8.1280 Y61.9760 
G01 Z-2.000000
G01 Z2.540000
(G00 Z2.540000)
G00 X-10.6680 Y61.9760 
G01 Z-2.000000
G01 Z2.540000
(G00 Z2.540000)
G00 X-15.1130 Y62.1030 
G01 Z-2.000000
G01 Z2.540000
(G00 Z2.540000)
G00 X-17.6530 Y62.1030 
G01 Z-2.000000
G01 Z2.540000
(G00 Z2.540000)
G00 X-20.1930 Y62.1030 
G01 Z-2.000000
G01 Z2.540000
(G00 Z2.540000)
G00 X-22.7330 Y62.1030 
G01 Z-2.000000
G01 Z2.540000
(G00 Z2.540000)
G00 X-25.2730 Y62.1030 
G01 Z-2.000000
G01 Z2.540000
M05
G00 Z25.4000 
M06 T05  ; 1.3208 
G01 Z0.0000 F254.00 
M06 T05  ; 1.3208 
G00 Z2.5400 
M03
G04 P3.000000
G00 Z2.540000
G00 X-6.6040 Y12.3190 
G01 Z-2.0000 F254.00 
G01 Z2.540000
(R2.5400  P1.000000)
(G00 Z2.540000)
G00 X-11.5824 Y12.3190 
G01 Z-2.000000
G01 Z2.540000
(G00 Z2.540000)
G00 X-16.6116 Y12.3190 
G01 Z-2.000000
G01 Z2.540000
(G00 Z2.540000)
G00 X-21.5900 Y12.3190 
G01 Z-2.000000
G01 Z2.540000
T01 
G00 Z12.7000 
M05
M02
