(.../romang/EAGLE/ulps/pcb-gcode.ulp)
(Copyright 2005 - 2012 by John Johnson)
(See readme.txt for licensing terms.)
(This file generated from the board:)
(.../HLS8012/hlw8012_test_board.brd)
(Current profile is .../EAGLE/ulps/profiles/generic.pp  )
(This file generated 19.08.19 19:37)
(Settings from pcb-machine.h)
(  Tool Size)
(0.1778 )
(Z Axis Settings)
(  High     Up        Down     Drill)
(12.7000 	2.5400 	-0.1000 	-2.0000 )
(spindle on time = 3.0000)
(milling depth = -2.0000)
(text depth = -0.1270)
(tool change at 12.7000 15.2400 25.4000 )
(feed rate xy = F200.00 )
(feed rate z  = F254.00 )
(Settings from pcb-defaults.h)
(isolate min = 0.0000)
(isolate max = 0.2000)
(isolate step = 0.2000)
(Generated top outlines, top drill, bottom outlines, bottom drill, )
(Unit of measure: mm)
( Tool|       Size       |  Min Sub |  Max Sub |   Count )
( T01  0.350mm 0.0138in 0.0000in 0.0000in )
( T02  0.700mm 0.0276in 0.0000in 0.0000in )
( T03  0.800mm 0.0315in 0.0000in 0.0000in )
( T04  0.813mm 0.0320in 0.0000in 0.0000in )
( T05  1.000mm 0.0394in 0.0000in 0.0000in )
( T06  1.016mm 0.0400in 0.0000in 0.0000in )
( T07  1.200mm 0.0472in 0.0000in 0.0000in )
(Metric Mode)
G21
(Absolute Coordinates)
G90
M03
G04 P3.000000
G00 Z2.540000
G00 X12.7000 Y14.6050 
G01 Z-2.0000 F254.00 
G01 Z2.540000
(R2.5400  P1.000000)
(G00 Z2.540000)
G00 X16.5100 Y54.6100 
G01 Z-2.000000
G01 Z2.540000
(G00 Z2.540000)
G00 X23.4950 Y53.9750 
G01 Z-2.000000
G01 Z2.540000
(G00 Z2.540000)
G00 X23.4950 Y14.6050 
G01 Z-2.000000
G01 Z2.540000
G04 P3.000000
G00 Z2.540000
G00 X8.2550 Y29.8450 
G01 Z-2.0000 F254.00 
G01 Z2.540000
(R2.5400  P1.000000)
(G00 Z2.540000)
G00 X10.7950 Y29.8450 
G01 Z-2.000000
G01 Z2.540000
G04 P3.000000
G00 Z2.540000
G00 X3.1750 Y71.7550 
G01 Z-2.0000 F254.00 
G01 Z2.540000
(R2.5400  P1.000000)
(G00 Z2.540000)
G00 X3.1750 Y1.9050 
G01 Z-2.000000
G01 Z2.540000
(G00 Z2.540000)
G00 X5.0800 Y39.3700 
G01 Z-2.000000
G01 Z2.540000
(G00 Z2.540000)
G00 X5.0800 Y41.9100 
G01 Z-2.000000
G01 Z2.540000
(G00 Z2.540000)
G00 X5.0800 Y44.4500 
G01 Z-2.000000
G01 Z2.540000
(G00 Z2.540000)
G00 X5.0800 Y46.9900 
G01 Z-2.000000
G01 Z2.540000
(G00 Z2.540000)
G00 X29.8450 Y71.7550 
G01 Z-2.000000
G01 Z2.540000
(G00 Z2.540000)
G00 X29.8450 Y1.9050 
G01 Z-2.000000
G01 Z2.540000
G04 P3.000000
G00 Z2.540000
G00 X8.8900 Y23.4950 
G01 Z-2.0000 F254.00 
G01 Z2.540000
(R2.5400  P1.000000)
(G00 Z2.540000)
G00 X10.1600 Y49.5300 
G01 Z-2.000000
G01 Z2.540000
(G00 Z2.540000)
G00 X10.1600 Y57.1500 
G01 Z-2.000000
G01 Z2.540000
(G00 Z2.540000)
G00 X11.4300 Y23.4950 
G01 Z-2.000000
G01 Z2.540000
(G00 Z2.540000)
G00 X12.0650 Y41.9100 
G01 Z-2.000000
G01 Z2.540000
(G00 Z2.540000)
G00 X12.7000 Y49.5300 
G01 Z-2.000000
G01 Z2.540000
(G00 Z2.540000)
G00 X12.7000 Y57.1500 
G01 Z-2.000000
G01 Z2.540000
(G00 Z2.540000)
G00 X13.3350 Y43.8150 
G01 Z-2.000000
G01 Z2.540000
(G00 Z2.540000)
G00 X14.6050 Y41.9100 
G01 Z-2.000000
G01 Z2.540000
(G00 Z2.540000)
G00 X18.4150 Y52.0700 
G01 Z-2.000000
G01 Z2.540000
(G00 Z2.540000)
G00 X19.0500 Y38.7350 
G01 Z-2.000000
G01 Z2.540000
(G00 Z2.540000)
G00 X19.0500 Y46.3550 
G01 Z-2.000000
G01 Z2.540000
(G00 Z2.540000)
G00 X20.3200 Y50.8000 
G01 Z-2.000000
G01 Z2.540000
(G00 Z2.540000)
G00 X20.3200 Y53.3400 
G01 Z-2.000000
G01 Z2.540000
(G00 Z2.540000)
G00 X21.5900 Y38.7350 
G01 Z-2.000000
G01 Z2.540000
(G00 Z2.540000)
G00 X21.5900 Y46.3550 
G01 Z-2.000000
G01 Z2.540000
(G00 Z2.540000)
G00 X26.0350 Y33.6550 
G01 Z-2.000000
G01 Z2.540000
(G00 Z2.540000)
G00 X26.0350 Y41.2750 
G01 Z-2.000000
G01 Z2.540000
(G00 Z2.540000)
G00 X26.0350 Y52.0700 
G01 Z-2.000000
G01 Z2.540000
(G00 Z2.540000)
G00 X27.9400 Y50.8000 
G01 Z-2.000000
G01 Z2.540000
(G00 Z2.540000)
G00 X27.9400 Y53.3400 
G01 Z-2.000000
G01 Z2.540000
(G00 Z2.540000)
G00 X28.5750 Y33.6550 
G01 Z-2.000000
G01 Z2.540000
(G00 Z2.540000)
G00 X28.5750 Y41.2750 
G01 Z-2.000000
G01 Z2.540000
M05
G00 Z25.4000
G00 X0.000 Y0.000
G04 P30.000000
M03
G04 P3.000000
G00 Z2.540000
G00 X13.3350 Y10.7950 
G01 Z-2.0000 F254.00 
G01 Z2.540000
(R2.5400  P1.000000)
(G00 Z2.540000)
G00 X23.4950 Y10.7950 
G01 Z-2.000000
G01 Z2.540000
G04 P3.000000
G00 Z2.540000
G00 X3.8100 Y67.9450 
G01 Z-2.0000 F254.00 
G01 Z2.540000
(R2.5400  P1.000000)
(G00 Z2.540000)
G00 X6.3500 Y67.9450 
G01 Z-2.000000
G01 Z2.540000
(G00 Z2.540000)
G00 X8.8900 Y67.9450 
G01 Z-2.000000
G01 Z2.540000
(G00 Z2.540000)
G00 X17.7800 Y67.9450 
G01 Z-2.000000
G01 Z2.540000
(G00 Z2.540000)
G00 X20.3200 Y67.9450 
G01 Z-2.000000
G01 Z2.540000
(G00 Z2.540000)
G00 X22.8600 Y67.9450 
G01 Z-2.000000
G01 Z2.540000
(G00 Z2.540000)
G00 X25.4000 Y67.9450 
G01 Z-2.000000
G01 Z2.540000
(G00 Z2.540000)
G00 X27.9400 Y67.9450 
G01 Z-2.000000
G01 Z2.540000
G04 P3.000000
G00 Z2.540000
G00 X14.6050 Y4.4450 
G01 Z-2.0000 F254.00 
G01 Z2.540000
(R2.5400  P1.000000)
(G00 Z2.540000)
G00 X17.1450 Y4.4450 
G01 Z-2.000000
G01 Z2.540000
(G00 Z2.540000)
G00 X19.6850 Y4.4450 
G01 Z-2.000000
G01 Z2.540000
(G00 Z2.540000)
G00 X22.2250 Y4.4450 
G01 Z-2.000000
G01 Z2.540000
T01 
G00 Z12.7000 
M05
M02
