(.../romang/EAGLE/ulps/pcb-gcode.ulp)
(Copyright 2005 - 2012 by John Johnson)
(See readme.txt for licensing terms.)
(This file generated from the board:)
(.../HLS8012/hlw8012_test_board.brd)
(Current profile is .../EAGLE/ulps/profiles/generic.pp  )
(This file generated 29.09.19 17:05)
(Settings from pcb-machine.h)
(  Tool Size)
(0.1700 )
(Z Axis Settings)
(  High     Up        Down     Drill)
(12.7000 	2.5400 	-0.1000 	-2.0000 )
(spindle on time = 3.0000)
(milling depth = -2.0000)
(text depth = -0.1270)
(tool change at 12.7000 15.2400 25.4000 )
(feed rate xy = F200.00 )
(feed rate z  = F254.00 )
(Settings from pcb-defaults.h)
(isolate min = 0.0000)
(isolate max = 1.0000)
(isolate step = 0.2000)
(Generated top outlines, top drill, bottom outlines, bottom drill, )
(Unit of measure: mm)
(Metric Mode)
G21
(Absolute Coordinates)
G90
G00 X0.0000 Y0.0000 
M03
G04 P3.000000
G00 Z2.5400 
G00 X-20.2930 Y48.2281 
G01 Z-0.1000 F254.00 
G01 X-20.2930 Y49.5619 F200.00 
G01 X-20.2801 Y49.5931 
G01 X-20.2561 Y49.6171 
G01 X-20.2249 Y49.6300 
G01 X-18.8911 Y49.6300 
G01 X-18.8599 Y49.6171 
G01 X-18.8359 Y49.5931 
G01 X-18.8230 Y49.5619 
G01 X-18.8230 Y49.2340 
G01 X-11.4030 Y49.2340 
G01 X-11.4030 Y49.5619 
G01 X-11.3901 Y49.5931 
G01 X-11.3661 Y49.6171 
G01 X-11.3349 Y49.6300 
G01 X-10.0011 Y49.6300 
G01 X-9.9699 Y49.6171 
G01 X-9.9459 Y49.5931 
G01 X-9.9330 Y49.5619 
G01 X-9.9330 Y48.2281 
G01 X-9.9459 Y48.1969 
G01 X-9.9699 Y48.1729 
G01 X-10.0011 Y48.1600 
G01 X-11.3349 Y48.1600 
G01 X-11.3661 Y48.1729 
G01 X-11.3901 Y48.1969 
G01 X-11.4030 Y48.2281 
G01 X-11.4030 Y48.5560 
G01 X-18.8230 Y48.5560 
G01 X-18.8230 Y48.2281 
G01 X-18.8359 Y48.1969 
G01 X-18.8599 Y48.1729 
G01 X-18.8911 Y48.1600 
G01 X-20.2249 Y48.1600 
G01 X-20.2561 Y48.1729 
G01 X-20.2801 Y48.1969 
G01 X-20.2930 Y48.2281 
G00 Z2.5400 
G00 X-14.3240 Y29.9401 
G01 Z-0.1000 F254.00 
G01 X-14.3240 Y31.2739 F200.00 
G01 X-14.3111 Y31.3051 
G01 X-14.2871 Y31.3291 
G01 X-14.2559 Y31.3420 
G01 X-12.9221 Y31.3420 
G01 X-12.8909 Y31.3291 
G01 X-12.8669 Y31.3051 
G01 X-12.8540 Y31.2739 
G01 X-12.8540 Y30.9460 
G01 X-9.6654 Y30.9460 
G01 X-6.7040 Y33.9074 
G01 X-6.7040 Y34.9569 
G01 X-6.6911 Y34.9881 
G01 X-6.6671 Y35.0121 
G01 X-6.6359 Y35.0250 
G01 X-5.3021 Y35.0250 
G01 X-5.2709 Y35.0121 
G01 X-5.2469 Y34.9881 
G01 X-5.2340 Y34.9569 
G01 X-5.2340 Y33.6231 
G01 X-5.2469 Y33.5919 
G01 X-5.2709 Y33.5679 
G01 X-5.3021 Y33.5550 
G01 X-6.0976 Y33.5550 
G01 X-9.3168 Y30.3357 
G01 X-9.3941 Y30.2911 
G01 X-9.4804 Y30.2680 
G01 X-12.8540 Y30.2680 
G01 X-12.8540 Y29.9401 
G01 X-12.8669 Y29.9089 
G01 X-12.8909 Y29.8849 
G01 X-12.9221 Y29.8720 
G01 X-14.2559 Y29.8720 
G01 X-14.2871 Y29.8849 
G01 X-14.3111 Y29.9089 
G01 X-14.3240 Y29.9401 
G00 Z2.5400 
G00 X-20.5144 Y13.3943 
G01 Z-0.1000 F254.00 
G01 X-20.5144 Y11.2437 F200.00 
G01 X-20.5409 Y11.0765 
G01 X-20.5932 Y10.9155 
G01 X-20.6701 Y10.7647 
G01 X-20.7696 Y10.6277 
G01 X-20.8893 Y10.5080 
G01 X-21.0263 Y10.4085 
G01 X-21.1771 Y10.3316 
G01 X-21.3381 Y10.2793 
G01 X-21.5053 Y10.2528 
G01 X-21.6746 Y10.2528 
G01 X-21.8419 Y10.2793 
G01 X-22.0029 Y10.3316 
G01 X-22.1537 Y10.4085 
G01 X-22.2907 Y10.5080 
G01 X-22.4104 Y10.6277 
G01 X-22.5099 Y10.7647 
G01 X-22.5868 Y10.9155 
G01 X-22.6391 Y11.0765 
G01 X-22.6656 Y11.2437 
G01 X-22.6656 Y13.3943 
G01 X-22.6391 Y13.5615 
G01 X-22.5868 Y13.7225 
G01 X-22.5099 Y13.8733 
G01 X-22.4104 Y14.0103 
G01 X-22.2907 Y14.1300 
G01 X-22.1537 Y14.2295 
G01 X-22.0029 Y14.3064 
G01 X-21.8419 Y14.3587 
G01 X-21.6746 Y14.3852 
G01 X-21.5053 Y14.3852 
G01 X-21.3381 Y14.3587 
G01 X-21.1771 Y14.3064 
G01 X-21.0263 Y14.2295 
G01 X-20.8893 Y14.1300 
G01 X-20.7696 Y14.0103 
G01 X-20.6701 Y13.8733 
G01 X-20.5932 Y13.7225 
G01 X-20.5409 Y13.5615 
G01 X-20.5144 Y13.3943 
G00 Z2.5400 
G00 X-15.5360 Y13.3943 
G01 Z-0.1000 F254.00 
G01 X-15.5360 Y11.2437 F200.00 
G01 X-15.5625 Y11.0765 
G01 X-15.6148 Y10.9155 
G01 X-15.6917 Y10.7647 
G01 X-15.7912 Y10.6277 
G01 X-15.9109 Y10.5080 
G01 X-16.0479 Y10.4085 
G01 X-16.1987 Y10.3316 
G01 X-16.3597 Y10.2793 
G01 X-16.5269 Y10.2528 
G01 X-16.6962 Y10.2528 
G01 X-16.8635 Y10.2793 
G01 X-17.0245 Y10.3316 
G01 X-17.1753 Y10.4085 
G01 X-17.3123 Y10.5080 
G01 X-17.4320 Y10.6277 
G01 X-17.5315 Y10.7647 
G01 X-17.6084 Y10.9155 
G01 X-17.6607 Y11.0765 
G01 X-17.6872 Y11.2437 
G01 X-17.6872 Y13.3943 
G01 X-17.6607 Y13.5615 
G01 X-17.6084 Y13.7225 
G01 X-17.5315 Y13.8733 
G01 X-17.4320 Y14.0103 
G01 X-17.3123 Y14.1300 
G01 X-17.1753 Y14.2295 
G01 X-17.0245 Y14.3064 
G01 X-16.8635 Y14.3587 
G01 X-16.6962 Y14.3852 
G01 X-16.5269 Y14.3852 
G01 X-16.3597 Y14.3587 
G01 X-16.1987 Y14.3064 
G01 X-16.0479 Y14.2295 
G01 X-15.9109 Y14.1300 
G01 X-15.7912 Y14.0103 
G01 X-15.6917 Y13.8733 
G01 X-15.6148 Y13.7225 
G01 X-15.5625 Y13.5615 
G01 X-15.5360 Y13.3943 
G00 Z2.5400 
G00 X-10.5068 Y13.3943 
G01 Z-0.1000 F254.00 
G01 X-10.5068 Y11.2437 F200.00 
G01 X-10.5333 Y11.0765 
G01 X-10.5856 Y10.9155 
G01 X-10.6625 Y10.7647 
G01 X-10.7620 Y10.6277 
G01 X-10.8817 Y10.5080 
G01 X-11.0187 Y10.4085 
G01 X-11.1695 Y10.3316 
G01 X-11.3305 Y10.2793 
G01 X-11.4977 Y10.2528 
G01 X-11.6670 Y10.2528 
G01 X-11.8343 Y10.2793 
G01 X-11.9953 Y10.3316 
G01 X-12.1461 Y10.4085 
G01 X-12.2831 Y10.5080 
G01 X-12.4028 Y10.6277 
G01 X-12.5023 Y10.7647 
G01 X-12.5792 Y10.9155 
G01 X-12.6315 Y11.0765 
G01 X-12.6580 Y11.2437 
G01 X-12.6580 Y13.3943 
G01 X-12.6315 Y13.5615 
G01 X-12.5792 Y13.7225 
G01 X-12.5023 Y13.8733 
G01 X-12.4028 Y14.0103 
G01 X-12.2831 Y14.1300 
G01 X-12.1461 Y14.2295 
G01 X-11.9953 Y14.3064 
G01 X-11.8343 Y14.3587 
G01 X-11.6670 Y14.3852 
G01 X-11.4977 Y14.3852 
G01 X-11.3305 Y14.3587 
G01 X-11.1695 Y14.3064 
G01 X-11.0187 Y14.2295 
G01 X-10.8817 Y14.1300 
G01 X-10.7620 Y14.0103 
G01 X-10.6625 Y13.8733 
G01 X-10.5856 Y13.7225 
G01 X-10.5333 Y13.5615 
G01 X-10.5068 Y13.3943 
G00 Z2.5400 
G00 X-5.5284 Y13.3943 
G01 Z-0.1000 F254.00 
G01 X-5.5284 Y11.2437 F200.00 
G01 X-5.5549 Y11.0765 
G01 X-5.6072 Y10.9155 
G01 X-5.6841 Y10.7647 
G01 X-5.7836 Y10.6277 
G01 X-5.9033 Y10.5080 
G01 X-6.0403 Y10.4085 
G01 X-6.1911 Y10.3316 
G01 X-6.3521 Y10.2793 
G01 X-6.5193 Y10.2528 
G01 X-6.6886 Y10.2528 
G01 X-6.8559 Y10.2793 
G01 X-7.0169 Y10.3316 
G01 X-7.1677 Y10.4085 
G01 X-7.3047 Y10.5080 
G01 X-7.4244 Y10.6277 
G01 X-7.5239 Y10.7647 
G01 X-7.6008 Y10.9155 
G01 X-7.6531 Y11.0765 
G01 X-7.6796 Y11.2437 
G01 X-7.6796 Y13.3943 
G01 X-7.6531 Y13.5615 
G01 X-7.6008 Y13.7225 
G01 X-7.5239 Y13.8733 
G01 X-7.4244 Y14.0103 
G01 X-7.3047 Y14.1300 
G01 X-7.1677 Y14.2295 
G01 X-7.0169 Y14.3064 
G01 X-6.8559 Y14.3587 
G01 X-6.6886 Y14.3852 
G01 X-6.5193 Y14.3852 
G01 X-6.3521 Y14.3587 
G01 X-6.1911 Y14.3064 
G01 X-6.0403 Y14.2295 
G01 X-5.9033 Y14.1300 
G01 X-5.7836 Y14.0103 
G01 X-5.6841 Y13.8733 
G01 X-5.6072 Y13.7225 
G01 X-5.5549 Y13.5615 
G01 X-5.5284 Y13.3943 
G00 Z2.5400 
G00 X-6.4350 Y61.1306 
G01 Z-0.1000 F254.00 
G01 X-6.4350 Y62.8214 F200.00 
G01 X-6.4024 Y62.9851 
G01 X-6.3386 Y63.1392 
G01 X-6.2459 Y63.2779 
G01 X-6.1279 Y63.3959 
G01 X-5.9892 Y63.4886 
G01 X-5.8351 Y63.5524 
G01 X-5.6714 Y63.5850 
G01 X-5.5046 Y63.5850 
G01 X-5.3409 Y63.5524 
G01 X-5.1868 Y63.4886 
G01 X-5.0481 Y63.3959 
G01 X-4.9301 Y63.2779 
G01 X-4.8374 Y63.1392 
G01 X-4.7736 Y62.9851 
G01 X-4.7410 Y62.8214 
G01 X-4.7410 Y61.1306 
G01 X-4.7736 Y60.9669 
G01 X-4.8374 Y60.8128 
G01 X-4.9301 Y60.6741 
G01 X-5.0481 Y60.5561 
G01 X-5.1868 Y60.4634 
G01 X-5.3409 Y60.3996 
G01 X-5.5046 Y60.3670 
G01 X-5.6714 Y60.3670 
G01 X-5.8351 Y60.3996 
G01 X-5.9892 Y60.4634 
G01 X-6.1279 Y60.5561 
G01 X-6.2459 Y60.6741 
G01 X-6.3386 Y60.8128 
G01 X-6.4024 Y60.9669 
G01 X-6.4350 Y61.1306 
G00 Z2.5400 
G00 X-8.9750 Y61.1306 
G01 Z-0.1000 F254.00 
G01 X-8.9750 Y62.8214 F200.00 
G01 X-8.9424 Y62.9851 
G01 X-8.8786 Y63.1392 
G01 X-8.7859 Y63.2779 
G01 X-8.6679 Y63.3959 
G01 X-8.5292 Y63.4886 
G01 X-8.3751 Y63.5524 
G01 X-8.2114 Y63.5850 
G01 X-8.0446 Y63.5850 
G01 X-7.8809 Y63.5524 
G01 X-7.7268 Y63.4886 
G01 X-7.5881 Y63.3959 
G01 X-7.4701 Y63.2779 
G01 X-7.3774 Y63.1392 
G01 X-7.3136 Y62.9851 
G01 X-7.2810 Y62.8214 
G01 X-7.2810 Y61.1306 
G01 X-7.3136 Y60.9669 
G01 X-7.3774 Y60.8128 
G01 X-7.4701 Y60.6741 
G01 X-7.5881 Y60.5561 
G01 X-7.7268 Y60.4634 
G01 X-7.8809 Y60.3996 
G01 X-8.0446 Y60.3670 
G01 X-8.2114 Y60.3670 
G01 X-8.3751 Y60.3996 
G01 X-8.5292 Y60.4634 
G01 X-8.6679 Y60.5561 
G01 X-8.7859 Y60.6741 
G01 X-8.8786 Y60.8128 
G01 X-8.9424 Y60.9669 
G01 X-8.9750 Y61.1306 
G00 Z2.5400 
G00 X-11.5150 Y61.1306 
G01 Z-0.1000 F254.00 
G01 X-11.5150 Y62.8214 F200.00 
G01 X-11.4824 Y62.9851 
G01 X-11.4186 Y63.1392 
G01 X-11.3259 Y63.2779 
G01 X-11.2079 Y63.3959 
G01 X-11.0692 Y63.4886 
G01 X-10.9151 Y63.5524 
G01 X-10.7514 Y63.5850 
G01 X-10.5846 Y63.5850 
G01 X-10.4209 Y63.5524 
G01 X-10.2668 Y63.4886 
G01 X-10.1281 Y63.3959 
G01 X-10.0101 Y63.2779 
G01 X-9.9174 Y63.1392 
G01 X-9.8536 Y62.9851 
G01 X-9.8210 Y62.8214 
G01 X-9.8210 Y61.1306 
G01 X-9.8536 Y60.9669 
G01 X-9.9174 Y60.8128 
G01 X-10.0101 Y60.6741 
G01 X-10.1281 Y60.5561 
G01 X-10.2668 Y60.4634 
G01 X-10.4209 Y60.3996 
G01 X-10.5846 Y60.3670 
G01 X-10.7514 Y60.3670 
G01 X-10.9151 Y60.3996 
G01 X-11.0692 Y60.4634 
G01 X-11.2079 Y60.5561 
G01 X-11.3259 Y60.6741 
G01 X-11.4186 Y60.8128 
G01 X-11.4824 Y60.9669 
G01 X-11.5150 Y61.1306 
G00 Z2.5400 
G00 X-24.4260 Y62.9484 
G01 Z-0.1000 F254.00 
G01 X-24.4260 Y61.2576 F200.00 
G01 X-24.4586 Y61.0939 
G01 X-24.5224 Y60.9398 
G01 X-24.6151 Y60.8011 
G01 X-24.7331 Y60.6831 
G01 X-24.8718 Y60.5904 
G01 X-25.0259 Y60.5266 
G01 X-25.1896 Y60.4940 
G01 X-25.3564 Y60.4940 
G01 X-25.5201 Y60.5266 
G01 X-25.6742 Y60.5904 
G01 X-25.8129 Y60.6831 
G01 X-25.9309 Y60.8011 
G01 X-26.0236 Y60.9398 
G01 X-26.0874 Y61.0939 
G01 X-26.1200 Y61.2576 
G01 X-26.1200 Y62.9484 
G01 X-26.0874 Y63.1121 
G01 X-26.0236 Y63.2662 
G01 X-25.9309 Y63.4049 
G01 X-25.8129 Y63.5229 
G01 X-25.6742 Y63.6156 
G01 X-25.5201 Y63.6794 
G01 X-25.3564 Y63.7120 
G01 X-25.1896 Y63.7120 
G01 X-25.0259 Y63.6794 
G01 X-24.8718 Y63.6156 
G01 X-24.7331 Y63.5229 
G01 X-24.6151 Y63.4049 
G01 X-24.5224 Y63.2662 
G01 X-24.4586 Y63.1121 
G01 X-24.4260 Y62.9484 
G00 Z2.5400 
G00 X-21.8860 Y62.9484 
G01 Z-0.1000 F254.00 
G01 X-21.8860 Y61.2576 F200.00 
G01 X-21.9185 Y61.0939 
G01 X-21.9824 Y60.9398 
G01 X-22.0751 Y60.8011 
G01 X-22.1931 Y60.6831 
G01 X-22.3318 Y60.5904 
G01 X-22.4859 Y60.5266 
G01 X-22.6496 Y60.4940 
G01 X-22.8164 Y60.4940 
G01 X-22.9801 Y60.5266 
G01 X-23.1342 Y60.5904 
G01 X-23.2729 Y60.6831 
G01 X-23.3909 Y60.8011 
G01 X-23.4836 Y60.9398 
G01 X-23.5474 Y61.0939 
G01 X-23.5800 Y61.2576 
G01 X-23.5800 Y62.9484 
G01 X-23.5474 Y63.1121 
G01 X-23.4836 Y63.2662 
G01 X-23.3909 Y63.4049 
G01 X-23.2729 Y63.5229 
G01 X-23.1342 Y63.6156 
G01 X-22.9801 Y63.6794 
G01 X-22.8164 Y63.7120 
G01 X-22.6496 Y63.7120 
G01 X-22.4859 Y63.6794 
G01 X-22.3318 Y63.6156 
G01 X-22.1931 Y63.5229 
G01 X-22.0751 Y63.4049 
G01 X-21.9824 Y63.2662 
G01 X-21.9185 Y63.1121 
G01 X-21.8860 Y62.9484 
G00 Z2.5400 
G00 X-19.3460 Y62.9484 
G01 Z-0.1000 F254.00 
G01 X-19.3460 Y61.2576 F200.00 
G01 X-19.3786 Y61.0939 
G01 X-19.4424 Y60.9398 
G01 X-19.5351 Y60.8011 
G01 X-19.6531 Y60.6831 
G01 X-19.7918 Y60.5904 
G01 X-19.9459 Y60.5266 
G01 X-20.1096 Y60.4940 
G01 X-20.2764 Y60.4940 
G01 X-20.4401 Y60.5266 
G01 X-20.5942 Y60.5904 
G01 X-20.7329 Y60.6831 
G01 X-20.8509 Y60.8011 
G01 X-20.9436 Y60.9398 
G01 X-21.0074 Y61.0939 
G01 X-21.0400 Y61.2576 
G01 X-21.0400 Y62.9484 
G01 X-21.0074 Y63.1121 
G01 X-20.9436 Y63.2662 
G01 X-20.8509 Y63.4049 
G01 X-20.7329 Y63.5229 
G01 X-20.5942 Y63.6156 
G01 X-20.4401 Y63.6794 
G01 X-20.2764 Y63.7120 
G01 X-20.1096 Y63.7120 
G01 X-19.9459 Y63.6794 
G01 X-19.7918 Y63.6156 
G01 X-19.6531 Y63.5229 
G01 X-19.5351 Y63.4049 
G01 X-19.4424 Y63.2662 
G01 X-19.3786 Y63.1121 
G01 X-19.3460 Y62.9484 
G00 Z2.5400 
G00 X-16.8060 Y62.9484 
G01 Z-0.1000 F254.00 
G01 X-16.8060 Y61.2576 F200.00 
G01 X-16.8386 Y61.0939 
G01 X-16.9024 Y60.9398 
G01 X-16.9951 Y60.8011 
G01 X-17.1131 Y60.6831 
G01 X-17.2518 Y60.5904 
G01 X-17.4059 Y60.5266 
G01 X-17.5696 Y60.4940 
G01 X-17.7364 Y60.4940 
G01 X-17.9001 Y60.5266 
G01 X-18.0542 Y60.5904 
G01 X-18.1929 Y60.6831 
G01 X-18.3109 Y60.8011 
G01 X-18.4036 Y60.9398 
G01 X-18.4674 Y61.0939 
G01 X-18.5000 Y61.2576 
G01 X-18.5000 Y62.9484 
G01 X-18.4674 Y63.1121 
G01 X-18.4036 Y63.2662 
G01 X-18.3109 Y63.4049 
G01 X-18.1929 Y63.5229 
G01 X-18.0542 Y63.6156 
G01 X-17.9001 Y63.6794 
G01 X-17.7364 Y63.7120 
G01 X-17.5696 Y63.7120 
G01 X-17.4059 Y63.6794 
G01 X-17.2518 Y63.6156 
G01 X-17.1131 Y63.5229 
G01 X-16.9951 Y63.4049 
G01 X-16.9024 Y63.2662 
G01 X-16.8386 Y63.1121 
G01 X-16.8060 Y62.9484 
G00 Z2.5400 
G00 X-14.2660 Y62.9484 
G01 Z-0.1000 F254.00 
G01 X-14.2660 Y61.2576 F200.00 
G01 X-14.2986 Y61.0939 
G01 X-14.3624 Y60.9398 
G01 X-14.4551 Y60.8011 
G01 X-14.5731 Y60.6831 
G01 X-14.7118 Y60.5904 
G01 X-14.8659 Y60.5266 
G01 X-15.0296 Y60.4940 
G01 X-15.1964 Y60.4940 
G01 X-15.3601 Y60.5266 
G01 X-15.5142 Y60.5904 
G01 X-15.6529 Y60.6831 
G01 X-15.7709 Y60.8011 
G01 X-15.8636 Y60.9398 
G01 X-15.9274 Y61.0939 
G01 X-15.9600 Y61.2576 
G01 X-15.9600 Y62.9484 
G01 X-15.9274 Y63.1121 
G01 X-15.8636 Y63.2662 
G01 X-15.7709 Y63.4049 
G01 X-15.6529 Y63.5229 
G01 X-15.5142 Y63.6156 
G01 X-15.3601 Y63.6794 
G01 X-15.1964 Y63.7120 
G01 X-15.0296 Y63.7120 
G01 X-14.8659 Y63.6794 
G01 X-14.7118 Y63.6156 
G01 X-14.5731 Y63.5229 
G01 X-14.4551 Y63.4049 
G01 X-14.3624 Y63.2662 
G01 X-14.2986 Y63.1121 
G01 X-14.2660 Y62.9484 
G00 Z2.5400 
G00 X-24.6546 Y56.6392 
G01 Z-0.1000 F254.00 
G01 X-24.6546 Y55.1716 F200.00 
G01 X-24.6832 Y55.0276 
G01 X-24.7394 Y54.8919 
G01 X-24.8210 Y54.7698 
G01 X-24.9248 Y54.6660 
G01 X-25.0469 Y54.5844 
G01 X-25.1826 Y54.5282 
G01 X-25.3266 Y54.4996 
G01 X-25.4734 Y54.4996 
G01 X-25.6174 Y54.5282 
G01 X-25.7531 Y54.5844 
G01 X-25.8752 Y54.6660 
G01 X-25.9790 Y54.7698 
G01 X-26.0606 Y54.8919 
G01 X-26.1168 Y55.0276 
G01 X-26.1454 Y55.1716 
G01 X-26.1454 Y56.6392 
G01 X-26.1168 Y56.7832 
G01 X-26.0606 Y56.9189 
G01 X-25.9790 Y57.0410 
G01 X-25.8752 Y57.1448 
G01 X-25.7531 Y57.2264 
G01 X-25.6174 Y57.2826 
G01 X-25.4734 Y57.3112 
G01 X-25.3266 Y57.3112 
G01 X-25.1826 Y57.2826 
G01 X-25.0469 Y57.2264 
G01 X-24.9248 Y57.1448 
G01 X-24.8210 Y57.0410 
G01 X-24.7394 Y56.9189 
G01 X-24.6832 Y56.7832 
G01 X-24.6546 Y56.6392 
G00 Z2.5400 
G00 X-22.1146 Y56.6392 
G01 Z-0.1000 F254.00 
G01 X-22.1146 Y55.1716 F200.00 
G01 X-22.1432 Y55.0276 
G01 X-22.1994 Y54.8919 
G01 X-22.2810 Y54.7698 
G01 X-22.3848 Y54.6660 
G01 X-22.5069 Y54.5844 
G01 X-22.6426 Y54.5282 
G01 X-22.7866 Y54.4996 
G01 X-22.9334 Y54.4996 
G01 X-23.0774 Y54.5282 
G01 X-23.2131 Y54.5844 
G01 X-23.3352 Y54.6660 
G01 X-23.4390 Y54.7698 
G01 X-23.5206 Y54.8919 
G01 X-23.5768 Y55.0276 
G01 X-23.6054 Y55.1716 
G01 X-23.6054 Y56.6392 
G01 X-23.5768 Y56.7832 
G01 X-23.5206 Y56.9189 
G01 X-23.4390 Y57.0410 
G01 X-23.3352 Y57.1448 
G01 X-23.2131 Y57.2264 
G01 X-23.0774 Y57.2826 
G01 X-22.9334 Y57.3112 
G01 X-22.7866 Y57.3112 
G01 X-22.6426 Y57.2826 
G01 X-22.5069 Y57.2264 
G01 X-22.3848 Y57.1448 
G01 X-22.2810 Y57.0410 
G01 X-22.1994 Y56.9189 
G01 X-22.1432 Y56.7832 
G01 X-22.1146 Y56.6392 
G00 Z2.5400 
G00 X-23.6054 Y46.2308 
G01 Z-0.1000 F254.00 
G01 X-23.6054 Y47.6984 F200.00 
G01 X-23.5768 Y47.8424 
G01 X-23.5206 Y47.9781 
G01 X-23.4390 Y48.1002 
G01 X-23.3352 Y48.2040 
G01 X-23.2131 Y48.2856 
G01 X-23.0774 Y48.3418 
G01 X-22.9334 Y48.3704 
G01 X-22.7866 Y48.3704 
G01 X-22.6426 Y48.3418 
G01 X-22.5069 Y48.2856 
G01 X-22.3848 Y48.2040 
G01 X-22.2810 Y48.1002 
G01 X-22.1994 Y47.9781 
G01 X-22.1432 Y47.8424 
G01 X-22.1146 Y47.6984 
G01 X-22.1146 Y46.2308 
G01 X-22.1432 Y46.0868 
G01 X-22.1994 Y45.9511 
G01 X-22.2810 Y45.8290 
G01 X-22.3848 Y45.7252 
G01 X-22.5069 Y45.6436 
G01 X-22.6426 Y45.5874 
G01 X-22.7866 Y45.5588 
G01 X-22.9334 Y45.5588 
G01 X-23.0774 Y45.5874 
G01 X-23.2131 Y45.6436 
G01 X-23.3352 Y45.7252 
G01 X-23.4390 Y45.8290 
G01 X-23.5206 Y45.9511 
G01 X-23.5768 Y46.0868 
G01 X-23.6054 Y46.2308 
G00 Z2.5400 
G00 X-26.1454 Y46.2308 
G01 Z-0.1000 F254.00 
G01 X-26.1454 Y47.6984 F200.00 
G01 X-26.1168 Y47.8424 
G01 X-26.0606 Y47.9781 
G01 X-25.9790 Y48.1002 
G01 X-25.8752 Y48.2040 
G01 X-25.7531 Y48.2856 
G01 X-25.6174 Y48.3418 
G01 X-25.4734 Y48.3704 
G01 X-25.3266 Y48.3704 
G01 X-25.1826 Y48.3418 
G01 X-25.0469 Y48.2856 
G01 X-24.9248 Y48.2040 
G01 X-24.8210 Y48.1002 
G01 X-24.7394 Y47.9781 
G01 X-24.6832 Y47.8424 
G01 X-24.6546 Y47.6984 
G01 X-24.6546 Y46.2308 
G01 X-24.6832 Y46.0868 
G01 X-24.7394 Y45.9511 
G01 X-24.8210 Y45.8290 
G01 X-24.9248 Y45.7252 
G01 X-25.0469 Y45.6436 
G01 X-25.1826 Y45.5874 
G01 X-25.3266 Y45.5588 
G01 X-25.4734 Y45.5588 
G01 X-25.6174 Y45.5874 
G01 X-25.7531 Y45.6436 
G01 X-25.8752 Y45.7252 
G01 X-25.9790 Y45.8290 
G01 X-26.0606 Y45.9511 
G01 X-26.1168 Y46.0868 
G01 X-26.1454 Y46.2308 
G00 Z2.5400 
G00 X-14.2074 Y46.1038 
G01 Z-0.1000 F254.00 
G01 X-14.2074 Y47.5714 F200.00 
G01 X-14.1788 Y47.7154 
G01 X-14.1226 Y47.8511 
G01 X-14.0410 Y47.9732 
G01 X-13.9372 Y48.0770 
G01 X-13.8151 Y48.1586 
G01 X-13.6794 Y48.2148 
G01 X-13.5354 Y48.2434 
G01 X-13.3886 Y48.2434 
G01 X-13.2446 Y48.2148 
G01 X-13.1089 Y48.1586 
G01 X-12.9868 Y48.0770 
G01 X-12.8830 Y47.9732 
G01 X-12.8014 Y47.8511 
G01 X-12.7452 Y47.7154 
G01 X-12.7166 Y47.5714 
G01 X-12.7166 Y46.1038 
G01 X-12.7452 Y45.9598 
G01 X-12.8014 Y45.8241 
G01 X-12.8830 Y45.7020 
G01 X-12.9868 Y45.5982 
G01 X-13.1089 Y45.5166 
G01 X-13.2446 Y45.4604 
G01 X-13.3886 Y45.4318 
G01 X-13.5354 Y45.4318 
G01 X-13.6794 Y45.4604 
G01 X-13.8151 Y45.5166 
G01 X-13.9372 Y45.5982 
G01 X-14.0410 Y45.7020 
G01 X-14.1226 Y45.8241 
G01 X-14.1788 Y45.9598 
G01 X-14.2074 Y46.1038 
G00 Z2.5400 
G00 X-16.7474 Y46.1038 
G01 Z-0.1000 F254.00 
G01 X-16.7474 Y47.5714 F200.00 
G01 X-16.7188 Y47.7154 
G01 X-16.6626 Y47.8511 
G01 X-16.5810 Y47.9732 
G01 X-16.4772 Y48.0770 
G01 X-16.3551 Y48.1586 
G01 X-16.2194 Y48.2148 
G01 X-16.0754 Y48.2434 
G01 X-15.9286 Y48.2434 
G01 X-15.7846 Y48.2148 
G01 X-15.6489 Y48.1586 
G01 X-15.5268 Y48.0770 
G01 X-15.4230 Y47.9732 
G01 X-15.3414 Y47.8511 
G01 X-15.2852 Y47.7154 
G01 X-15.2566 Y47.5714 
G01 X-15.2566 Y46.1038 
G01 X-15.2852 Y45.9598 
G01 X-15.3414 Y45.8241 
G01 X-15.4230 Y45.7020 
G01 X-15.5268 Y45.5982 
G01 X-15.6489 Y45.5166 
G01 X-15.7846 Y45.4604 
G01 X-15.9286 Y45.4318 
G01 X-16.0754 Y45.4318 
G01 X-16.2194 Y45.4604 
G01 X-16.3551 Y45.5166 
G01 X-16.4772 Y45.5982 
G01 X-16.5810 Y45.7020 
G01 X-16.6626 Y45.8241 
G01 X-16.7188 Y45.9598 
G01 X-16.7474 Y46.1038 
G00 Z2.5400 
G00 X-15.2566 Y56.5122 
G01 Z-0.1000 F254.00 
G01 X-15.2566 Y55.0446 F200.00 
G01 X-15.2852 Y54.9006 
G01 X-15.3414 Y54.7649 
G01 X-15.4230 Y54.6428 
G01 X-15.5268 Y54.5390 
G01 X-15.6489 Y54.4574 
G01 X-15.7846 Y54.4012 
G01 X-15.9286 Y54.3726 
G01 X-16.0754 Y54.3726 
G01 X-16.2194 Y54.4012 
G01 X-16.3551 Y54.4574 
G01 X-16.4772 Y54.5390 
G01 X-16.5810 Y54.6428 
G01 X-16.6626 Y54.7649 
G01 X-16.7188 Y54.9006 
G01 X-16.7474 Y55.0446 
G01 X-16.7474 Y56.5122 
G01 X-16.7188 Y56.6562 
G01 X-16.6626 Y56.7919 
G01 X-16.5810 Y56.9140 
G01 X-16.4772 Y57.0178 
G01 X-16.3551 Y57.0994 
G01 X-16.2194 Y57.1556 
G01 X-16.0754 Y57.1842 
G01 X-15.9286 Y57.1842 
G01 X-15.7846 Y57.1556 
G01 X-15.6489 Y57.0994 
G01 X-15.5268 Y57.0178 
G01 X-15.4230 Y56.9140 
G01 X-15.3414 Y56.7919 
G01 X-15.2852 Y56.6562 
G01 X-15.2566 Y56.5122 
G00 Z2.5400 
G00 X-12.7166 Y56.5122 
G01 Z-0.1000 F254.00 
G01 X-12.7166 Y55.0446 F200.00 
G01 X-12.7452 Y54.9006 
G01 X-12.8014 Y54.7649 
G01 X-12.8830 Y54.6428 
G01 X-12.9868 Y54.5390 
G01 X-13.1089 Y54.4574 
G01 X-13.2446 Y54.4012 
G01 X-13.3886 Y54.3726 
G01 X-13.5354 Y54.3726 
G01 X-13.6794 Y54.4012 
G01 X-13.8151 Y54.4574 
G01 X-13.9372 Y54.5390 
G01 X-14.0410 Y54.6428 
G01 X-14.1226 Y54.7649 
G01 X-14.1788 Y54.9006 
G01 X-14.2074 Y55.0446 
G01 X-14.2074 Y56.5122 
G01 X-14.1788 Y56.6562 
G01 X-14.1226 Y56.7919 
G01 X-14.0410 Y56.9140 
G01 X-13.9372 Y57.0178 
G01 X-13.8151 Y57.0994 
G01 X-13.6794 Y57.1556 
G01 X-13.5354 Y57.1842 
G01 X-13.3886 Y57.1842 
G01 X-13.2446 Y57.1556 
G01 X-13.1089 Y57.0994 
G01 X-12.9868 Y57.0178 
G01 X-12.8830 Y56.9140 
G01 X-12.8014 Y56.7919 
G01 X-12.7452 Y56.6562 
G01 X-12.7166 Y56.5122 
G00 Z2.5400 
G00 X-12.3021 Y36.4910 
G01 Z-0.1000 F254.00 
G01 X-14.1139 Y36.4910 F200.00 
G01 X-14.1451 Y36.5039 
G01 X-14.1691 Y36.5279 
G01 X-14.1820 Y36.5591 
G01 X-14.1820 Y38.3709 
G01 X-14.1691 Y38.4021 
G01 X-14.1451 Y38.4261 
G01 X-14.1139 Y38.4390 
G01 X-12.3021 Y38.4390 
G01 X-12.2709 Y38.4261 
G01 X-12.2469 Y38.4021 
G01 X-12.2340 Y38.3709 
G01 X-12.2340 Y36.5591 
G01 X-12.2469 Y36.5279 
G01 X-12.2709 Y36.5039 
G01 X-12.3021 Y36.4910 
G00 Z2.5400 
G00 X-12.3021 Y39.0310 
G01 Z-0.1000 F254.00 
G01 X-14.1139 Y39.0310 F200.00 
G01 X-14.1451 Y39.0439 
G01 X-14.1691 Y39.0678 
G01 X-14.1820 Y39.0991 
G01 X-14.1820 Y40.9109 
G01 X-14.1691 Y40.9421 
G01 X-14.1451 Y40.9661 
G01 X-14.1139 Y40.9790 
G01 X-12.3021 Y40.9790 
G01 X-12.2709 Y40.9661 
G01 X-12.2469 Y40.9421 
G01 X-12.2340 Y40.9109 
G01 X-12.2340 Y39.0991 
G01 X-12.2469 Y39.0678 
G01 X-12.2709 Y39.0439 
G01 X-12.3021 Y39.0310 
G00 Z2.5400 
G00 X-7.1459 Y47.9718 
G01 Z-0.1000 F254.00 
G01 X-8.8561 Y47.9718 F200.00 
G01 X-8.8873 Y47.9847 
G01 X-8.9113 Y48.0087 
G01 X-8.9242 Y48.0399 
G01 X-8.9242 Y49.7501 
G01 X-8.9113 Y49.7813 
G01 X-8.8873 Y49.8053 
G01 X-8.8561 Y49.8182 
G01 X-7.1459 Y49.8182 
G01 X-7.1147 Y49.8053 
G01 X-7.0907 Y49.7813 
G01 X-7.0778 Y49.7501 
G01 X-7.0778 Y48.0399 
G01 X-7.0907 Y48.0087 
G01 X-7.1147 Y47.9847 
G01 X-7.1459 Y47.9718 
G00 Z2.5400 
G00 X-7.1459 Y50.5118 
G01 Z-0.1000 F254.00 
G01 X-8.8561 Y50.5118 F200.00 
G01 X-8.8873 Y50.5247 
G01 X-8.9113 Y50.5487 
G01 X-8.9242 Y50.5799 
G01 X-8.9242 Y52.2901 
G01 X-8.9113 Y52.3213 
G01 X-8.8873 Y52.3453 
G01 X-8.8561 Y52.3582 
G01 X-7.1459 Y52.3582 
G01 X-7.1147 Y52.3453 
G01 X-7.0907 Y52.3213 
G01 X-7.0778 Y52.2901 
G01 X-7.0778 Y50.5799 
G01 X-7.0907 Y50.5487 
G01 X-7.1147 Y50.5247 
G01 X-7.1459 Y50.5118 
G00 Z2.5400 
G00 X-7.1459 Y53.0518 
G01 Z-0.1000 F254.00 
G01 X-8.8561 Y53.0518 F200.00 
G01 X-8.8873 Y53.0647 
G01 X-8.9113 Y53.0887 
G01 X-8.9242 Y53.1199 
G01 X-8.9242 Y54.8301 
G01 X-8.9113 Y54.8613 
G01 X-8.8873 Y54.8853 
G01 X-8.8561 Y54.8982 
G01 X-7.1459 Y54.8982 
G01 X-7.1147 Y54.8853 
G01 X-7.0907 Y54.8613 
G01 X-7.0778 Y54.8301 
G01 X-7.0778 Y53.1199 
G01 X-7.0907 Y53.0887 
G01 X-7.1147 Y53.0647 
G01 X-7.1459 Y53.0518 
G00 Z2.5400 
G00 X-7.1459 Y55.5918 
G01 Z-0.1000 F254.00 
G01 X-8.8561 Y55.5918 F200.00 
G01 X-8.8873 Y55.6047 
G01 X-8.9113 Y55.6287 
G01 X-8.9242 Y55.6599 
G01 X-8.9242 Y57.3701 
G01 X-8.9113 Y57.4013 
G01 X-8.8873 Y57.4253 
G01 X-8.8561 Y57.4382 
G01 X-7.1459 Y57.4382 
G01 X-7.1147 Y57.4253 
G01 X-7.0907 Y57.4013 
G01 X-7.0778 Y57.3701 
G01 X-7.0778 Y55.6599 
G01 X-7.0907 Y55.6287 
G01 X-7.1147 Y55.6047 
G01 X-7.1459 Y55.5918 
G00 Z2.5400 
G00 X-3.9850 Y2.9030 
G01 Z-0.1000 F254.00 
G01 X-3.9850 Y3.0970 F200.00 
G01 X-3.9471 Y3.2873 
G01 X-3.8729 Y3.4666 
G01 X-3.7651 Y3.6279 
G01 X-3.6279 Y3.7651 
G01 X-3.4666 Y3.8729 
G01 X-3.2873 Y3.9471 
G01 X-3.0970 Y3.9850 
G01 X-2.9030 Y3.9850 
G01 X-2.7127 Y3.9471 
G01 X-2.5334 Y3.8729 
G01 X-2.3721 Y3.7651 
G01 X-2.2349 Y3.6279 
G01 X-2.1271 Y3.4666 
G01 X-2.0529 Y3.2873 
G01 X-2.0150 Y3.0970 
G01 X-2.0150 Y2.9030 
G01 X-2.0529 Y2.7127 
G01 X-2.1271 Y2.5334 
G01 X-2.2349 Y2.3721 
G01 X-2.3721 Y2.2349 
G01 X-2.5334 Y2.1271 
G01 X-2.7127 Y2.0529 
G01 X-2.9030 Y2.0150 
G01 X-3.0970 Y2.0150 
G01 X-3.2873 Y2.0529 
G01 X-3.4666 Y2.1271 
G01 X-3.6279 Y2.2349 
G01 X-3.7651 Y2.3721 
G01 X-3.8729 Y2.5334 
G01 X-3.9471 Y2.7127 
G01 X-3.9850 Y2.9030 
G00 Z2.5400 
G00 X-28.9850 Y2.9030 
G01 Z-0.1000 F254.00 
G01 X-28.9850 Y3.0970 F200.00 
G01 X-28.9471 Y3.2873 
G01 X-28.8729 Y3.4666 
G01 X-28.7651 Y3.6279 
G01 X-28.6279 Y3.7651 
G01 X-28.4666 Y3.8729 
G01 X-28.2873 Y3.9471 
G01 X-28.0970 Y3.9850 
G01 X-27.9030 Y3.9850 
G01 X-27.7127 Y3.9471 
G01 X-27.5334 Y3.8729 
G01 X-27.3721 Y3.7651 
G01 X-27.2349 Y3.6279 
G01 X-27.1271 Y3.4666 
G01 X-27.0529 Y3.2873 
G01 X-27.0150 Y3.0970 
G01 X-27.0150 Y2.9030 
G01 X-27.0529 Y2.7127 
G01 X-27.1271 Y2.5334 
G01 X-27.2349 Y2.3721 
G01 X-27.3721 Y2.2349 
G01 X-27.5334 Y2.1271 
G01 X-27.7127 Y2.0529 
G01 X-27.9030 Y2.0150 
G01 X-28.0970 Y2.0150 
G01 X-28.2873 Y2.0529 
G01 X-28.4666 Y2.1271 
G01 X-28.6279 Y2.2349 
G01 X-28.7651 Y2.3721 
G01 X-28.8729 Y2.5334 
G01 X-28.9471 Y2.7127 
G01 X-28.9850 Y2.9030 
G00 Z2.5400 
G00 X-3.9850 Y66.9030 
G01 Z-0.1000 F254.00 
G01 X-3.9850 Y67.0970 F200.00 
G01 X-3.9471 Y67.2873 
G01 X-3.8729 Y67.4666 
G01 X-3.7651 Y67.6279 
G01 X-3.6279 Y67.7651 
G01 X-3.4666 Y67.8729 
G01 X-3.2873 Y67.9471 
G01 X-3.0970 Y67.9850 
G01 X-2.9030 Y67.9850 
G01 X-2.7127 Y67.9471 
G01 X-2.5334 Y67.8729 
G01 X-2.3721 Y67.7651 
G01 X-2.2349 Y67.6279 
G01 X-2.1271 Y67.4666 
G01 X-2.0529 Y67.2873 
G01 X-2.0150 Y67.0970 
G01 X-2.0150 Y66.9030 
G01 X-2.0529 Y66.7127 
G01 X-2.1271 Y66.5334 
G01 X-2.2349 Y66.3721 
G01 X-2.3721 Y66.2349 
G01 X-2.5334 Y66.1271 
G01 X-2.7127 Y66.0529 
G01 X-2.9030 Y66.0150 
G01 X-3.0970 Y66.0150 
G01 X-3.2873 Y66.0529 
G01 X-3.4666 Y66.1271 
G01 X-3.6279 Y66.2349 
G01 X-3.7651 Y66.3721 
G01 X-3.8729 Y66.5334 
G01 X-3.9471 Y66.7127 
G01 X-3.9850 Y66.9030 
G00 Z2.5400 
G00 X-28.9850 Y66.9030 
G01 Z-0.1000 F254.00 
G01 X-28.9850 Y67.0970 F200.00 
G01 X-28.9471 Y67.2873 
G01 X-28.8729 Y67.4666 
G01 X-28.7651 Y67.6279 
G01 X-28.6279 Y67.7651 
G01 X-28.4666 Y67.8729 
G01 X-28.2873 Y67.9471 
G01 X-28.0970 Y67.9850 
G01 X-27.9030 Y67.9850 
G01 X-27.7127 Y67.9471 
G01 X-27.5334 Y67.8729 
G01 X-27.3721 Y67.7651 
G01 X-27.2349 Y67.6279 
G01 X-27.1271 Y67.4666 
G01 X-27.0529 Y67.2873 
G01 X-27.0150 Y67.0970 
G01 X-27.0150 Y66.9030 
G01 X-27.0529 Y66.7127 
G01 X-27.1271 Y66.5334 
G01 X-27.2349 Y66.3721 
G01 X-27.3721 Y66.2349 
G01 X-27.5334 Y66.1271 
G01 X-27.7127 Y66.0529 
G01 X-27.9030 Y66.0150 
G01 X-28.0970 Y66.0150 
G01 X-28.2873 Y66.0529 
G01 X-28.4666 Y66.1271 
G01 X-28.6279 Y66.2349 
G01 X-28.7651 Y66.3721 
G01 X-28.8729 Y66.5334 
G01 X-28.9471 Y66.7127 
G01 X-28.9850 Y66.9030 
G00 Z2.5400 
G00 X-20.4930 Y48.2075 
G01 Z-0.1000 F254.00 
G01 X-20.4930 Y49.5825 F200.00 
G01 X-20.4736 Y49.6550 
G01 X-20.4361 Y49.7200 
G01 X-20.3830 Y49.7731 
G01 X-20.3180 Y49.8106 
G01 X-20.2455 Y49.8300 
G01 X-18.8705 Y49.8300 
G01 X-18.7980 Y49.8106 
G01 X-18.7330 Y49.7731 
G01 X-18.6799 Y49.7200 
G01 X-18.6424 Y49.6550 
G01 X-18.6230 Y49.5825 
G01 X-18.6230 Y49.4340 
G01 X-11.6030 Y49.4340 
G01 X-11.6030 Y49.5825 
G01 X-11.5836 Y49.6550 
G01 X-11.5461 Y49.7200 
G01 X-11.4930 Y49.7731 
G01 X-11.4280 Y49.8106 
G01 X-11.3555 Y49.8300 
G01 X-9.9805 Y49.8300 
G01 X-9.9080 Y49.8106 
G01 X-9.8430 Y49.7731 
G01 X-9.7899 Y49.7200 
G01 X-9.7524 Y49.6550 
G01 X-9.7330 Y49.5825 
G01 X-9.7330 Y48.2075 
G01 X-9.7524 Y48.1350 
G01 X-9.7899 Y48.0700 
G01 X-9.8430 Y48.0169 
G01 X-9.9080 Y47.9794 
G01 X-9.9805 Y47.9600 
G01 X-11.3555 Y47.9600 
G01 X-11.4280 Y47.9794 
G01 X-11.4930 Y48.0169 
G01 X-11.5461 Y48.0700 
G01 X-11.5836 Y48.1350 
G01 X-11.6030 Y48.2075 
G01 X-11.6030 Y48.3560 
G01 X-13.0630 Y48.3560 
G01 X-13.0142 Y48.3358 
G01 X-12.8593 Y48.2323 
G01 X-12.7277 Y48.1007 
G01 X-12.6242 Y47.9458 
G01 X-12.5529 Y47.7738 
G01 X-12.5166 Y47.5911 
G01 X-12.5166 Y46.0841 
G01 X-12.5529 Y45.9014 
G01 X-12.6242 Y45.7294 
G01 X-12.7277 Y45.5745 
G01 X-12.8593 Y45.4429 
G01 X-13.0142 Y45.3394 
G01 X-13.1862 Y45.2681 
G01 X-13.3689 Y45.2318 
G01 X-13.5551 Y45.2318 
G01 X-13.7378 Y45.2681 
G01 X-13.9098 Y45.3394 
G01 X-14.0647 Y45.4429 
G01 X-14.1963 Y45.5745 
G01 X-14.2998 Y45.7294 
G01 X-14.3711 Y45.9014 
G01 X-14.4074 Y46.0841 
G01 X-14.4074 Y47.5911 
G01 X-14.3711 Y47.7738 
G01 X-14.2998 Y47.9458 
G01 X-14.1963 Y48.1007 
G01 X-14.0647 Y48.2323 
G01 X-13.9098 Y48.3358 
G01 X-13.8610 Y48.3560 
G01 X-15.6030 Y48.3560 
G01 X-15.5542 Y48.3358 
G01 X-15.3993 Y48.2323 
G01 X-15.2677 Y48.1007 
G01 X-15.1642 Y47.9458 
G01 X-15.0929 Y47.7738 
G01 X-15.0566 Y47.5911 
G01 X-15.0566 Y46.0841 
G01 X-15.0929 Y45.9014 
G01 X-15.1642 Y45.7294 
G01 X-15.2677 Y45.5745 
G01 X-15.3993 Y45.4429 
G01 X-15.5542 Y45.3394 
G01 X-15.7262 Y45.2681 
G01 X-15.9089 Y45.2318 
G01 X-16.0951 Y45.2318 
G01 X-16.2778 Y45.2681 
G01 X-16.4498 Y45.3394 
G01 X-16.6047 Y45.4429 
G01 X-16.7363 Y45.5745 
G01 X-16.8398 Y45.7294 
G01 X-16.9111 Y45.9014 
G01 X-16.9474 Y46.0841 
G01 X-16.9474 Y47.5911 
G01 X-16.9111 Y47.7738 
G01 X-16.8398 Y47.9458 
G01 X-16.7363 Y48.1007 
G01 X-16.6047 Y48.2323 
G01 X-16.4498 Y48.3358 
G01 X-16.4010 Y48.3560 
G01 X-18.6230 Y48.3560 
G01 X-18.6230 Y48.2075 
G01 X-18.6424 Y48.1350 
G01 X-18.6799 Y48.0700 
G01 X-18.7330 Y48.0169 
G01 X-18.7980 Y47.9794 
G01 X-18.8705 Y47.9600 
G01 X-20.2455 Y47.9600 
G01 X-20.3180 Y47.9794 
G01 X-20.3830 Y48.0169 
G01 X-20.4361 Y48.0700 
G01 X-20.4736 Y48.1350 
G01 X-20.4930 Y48.2075 
G00 Z2.5400 
G00 X-14.5240 Y29.9195 
G01 Z-0.1000 F254.00 
G01 X-14.5240 Y31.2945 F200.00 
G01 X-14.5046 Y31.3670 
G01 X-14.4671 Y31.4320 
G01 X-14.4140 Y31.4851 
G01 X-14.3490 Y31.5226 
G01 X-14.2765 Y31.5420 
G01 X-12.9015 Y31.5420 
G01 X-12.8290 Y31.5226 
G01 X-12.7640 Y31.4851 
G01 X-12.7109 Y31.4320 
G01 X-12.6734 Y31.3670 
G01 X-12.6540 Y31.2945 
G01 X-12.6540 Y31.1460 
G01 X-9.7483 Y31.1460 
G01 X-6.9040 Y33.9903 
G01 X-6.9040 Y34.9775 
G01 X-6.8846 Y35.0500 
G01 X-6.8471 Y35.1150 
G01 X-6.7940 Y35.1681 
G01 X-6.7290 Y35.2056 
G01 X-6.6565 Y35.2250 
G01 X-5.2815 Y35.2250 
G01 X-5.2090 Y35.2056 
G01 X-5.1440 Y35.1681 
G01 X-5.0909 Y35.1150 
G01 X-5.0534 Y35.0500 
G01 X-5.0340 Y34.9775 
G01 X-5.0340 Y33.6025 
G01 X-5.0534 Y33.5300 
G01 X-5.0909 Y33.4650 
G01 X-5.1440 Y33.4119 
G01 X-5.2090 Y33.3744 
G01 X-5.2815 Y33.3550 
G01 X-6.0147 Y33.3550 
G01 X-9.1940 Y30.1757 
G01 X-9.3170 Y30.1047 
G01 X-9.4540 Y30.0680 
G01 X-12.6540 Y30.0680 
G01 X-12.6540 Y29.9195 
G01 X-12.6734 Y29.8470 
G01 X-12.7109 Y29.7820 
G01 X-12.7640 Y29.7289 
G01 X-12.8290 Y29.6914 
G01 X-12.9015 Y29.6720 
G01 X-14.2765 Y29.6720 
G01 X-14.3490 Y29.6914 
G01 X-14.4140 Y29.7289 
G01 X-14.4671 Y29.7820 
G01 X-14.5046 Y29.8470 
G01 X-14.5240 Y29.9195 
G00 Z2.5400 
G00 X-20.3144 Y13.4100 
G01 Z-0.1000 F254.00 
G01 X-20.3144 Y11.2280 F200.00 
G01 X-20.3458 Y11.0297 
G01 X-20.4079 Y10.8387 
G01 X-20.4990 Y10.6598 
G01 X-20.6170 Y10.4974 
G01 X-20.7590 Y10.3554 
G01 X-20.9214 Y10.2374 
G01 X-21.1003 Y10.1463 
G01 X-21.2913 Y10.0842 
G01 X-21.4896 Y10.0528 
G01 X-21.6904 Y10.0528 
G01 X-21.8887 Y10.0842 
G01 X-22.0797 Y10.1463 
G01 X-22.2586 Y10.2374 
G01 X-22.4210 Y10.3554 
G01 X-22.5630 Y10.4974 
G01 X-22.6810 Y10.6598 
G01 X-22.7721 Y10.8387 
G01 X-22.8342 Y11.0297 
G01 X-22.8656 Y11.2280 
G01 X-22.8656 Y13.4100 
G01 X-22.8342 Y13.6083 
G01 X-22.7721 Y13.7993 
G01 X-22.6810 Y13.9782 
G01 X-22.5630 Y14.1406 
G01 X-22.4210 Y14.2826 
G01 X-22.2586 Y14.4006 
G01 X-22.0797 Y14.4917 
G01 X-21.8887 Y14.5538 
G01 X-21.6904 Y14.5852 
G01 X-21.4896 Y14.5852 
G01 X-21.2913 Y14.5538 
G01 X-21.1003 Y14.4917 
G01 X-20.9214 Y14.4006 
G01 X-20.7590 Y14.2826 
G01 X-20.6170 Y14.1406 
G01 X-20.4990 Y13.9782 
G01 X-20.4079 Y13.7993 
G01 X-20.3458 Y13.6083 
G01 X-20.3144 Y13.4100 
G00 Z2.5400 
G00 X-15.3360 Y13.4100 
G01 Z-0.1000 F254.00 
G01 X-15.3360 Y11.2280 F200.00 
G01 X-15.3674 Y11.0297 
G01 X-15.4295 Y10.8387 
G01 X-15.5206 Y10.6598 
G01 X-15.6386 Y10.4974 
G01 X-15.7806 Y10.3554 
G01 X-15.9430 Y10.2374 
G01 X-16.1219 Y10.1463 
G01 X-16.3129 Y10.0842 
G01 X-16.5112 Y10.0528 
G01 X-16.7120 Y10.0528 
G01 X-16.9103 Y10.0842 
G01 X-17.1013 Y10.1463 
G01 X-17.2802 Y10.2374 
G01 X-17.4426 Y10.3554 
G01 X-17.5846 Y10.4974 
G01 X-17.7026 Y10.6598 
G01 X-17.7937 Y10.8387 
G01 X-17.8558 Y11.0297 
G01 X-17.8872 Y11.2280 
G01 X-17.8872 Y13.4100 
G01 X-17.8558 Y13.6083 
G01 X-17.7937 Y13.7993 
G01 X-17.7026 Y13.9782 
G01 X-17.5846 Y14.1406 
G01 X-17.4426 Y14.2826 
G01 X-17.2802 Y14.4006 
G01 X-17.1013 Y14.4917 
G01 X-16.9103 Y14.5538 
G01 X-16.7120 Y14.5852 
G01 X-16.5112 Y14.5852 
G01 X-16.3129 Y14.5538 
G01 X-16.1219 Y14.4917 
G01 X-15.9430 Y14.4006 
G01 X-15.7806 Y14.2826 
G01 X-15.6386 Y14.1406 
G01 X-15.5206 Y13.9782 
G01 X-15.4295 Y13.7993 
G01 X-15.3674 Y13.6083 
G01 X-15.3360 Y13.4100 
G00 Z2.5400 
G00 X-10.3068 Y13.4100 
G01 Z-0.1000 F254.00 
G01 X-10.3068 Y11.2280 F200.00 
G01 X-10.3382 Y11.0297 
G01 X-10.4003 Y10.8387 
G01 X-10.4914 Y10.6598 
G01 X-10.6094 Y10.4974 
G01 X-10.7514 Y10.3554 
G01 X-10.9138 Y10.2374 
G01 X-11.0927 Y10.1463 
G01 X-11.2837 Y10.0842 
G01 X-11.4820 Y10.0528 
G01 X-11.6828 Y10.0528 
G01 X-11.8811 Y10.0842 
G01 X-12.0721 Y10.1463 
G01 X-12.2510 Y10.2374 
G01 X-12.4134 Y10.3554 
G01 X-12.5554 Y10.4974 
G01 X-12.6734 Y10.6598 
G01 X-12.7645 Y10.8387 
G01 X-12.8266 Y11.0297 
G01 X-12.8580 Y11.2280 
G01 X-12.8580 Y13.4100 
G01 X-12.8266 Y13.6083 
G01 X-12.7645 Y13.7993 
G01 X-12.6734 Y13.9782 
G01 X-12.5554 Y14.1406 
G01 X-12.4134 Y14.2826 
G01 X-12.2510 Y14.4006 
G01 X-12.0721 Y14.4917 
G01 X-11.8811 Y14.5538 
G01 X-11.6828 Y14.5852 
G01 X-11.4820 Y14.5852 
G01 X-11.2837 Y14.5538 
G01 X-11.0927 Y14.4917 
G01 X-10.9138 Y14.4006 
G01 X-10.7514 Y14.2826 
G01 X-10.6094 Y14.1406 
G01 X-10.4914 Y13.9782 
G01 X-10.4003 Y13.7993 
G01 X-10.3382 Y13.6083 
G01 X-10.3068 Y13.4100 
G00 Z2.5400 
G00 X-5.3284 Y13.4100 
G01 Z-0.1000 F254.00 
G01 X-5.3284 Y11.2280 F200.00 
G01 X-5.3598 Y11.0297 
G01 X-5.4219 Y10.8387 
G01 X-5.5130 Y10.6598 
G01 X-5.6310 Y10.4974 
G01 X-5.7730 Y10.3554 
G01 X-5.9354 Y10.2374 
G01 X-6.1143 Y10.1463 
G01 X-6.3053 Y10.0842 
G01 X-6.5036 Y10.0528 
G01 X-6.7044 Y10.0528 
G01 X-6.9027 Y10.0842 
G01 X-7.0937 Y10.1463 
G01 X-7.2726 Y10.2374 
G01 X-7.4350 Y10.3554 
G01 X-7.5770 Y10.4974 
G01 X-7.6950 Y10.6598 
G01 X-7.7861 Y10.8387 
G01 X-7.8482 Y11.0297 
G01 X-7.8796 Y11.2280 
G01 X-7.8796 Y13.4100 
G01 X-7.8482 Y13.6083 
G01 X-7.7861 Y13.7993 
G01 X-7.6950 Y13.9782 
G01 X-7.5770 Y14.1406 
G01 X-7.4350 Y14.2826 
G01 X-7.2726 Y14.4006 
G01 X-7.0937 Y14.4917 
G01 X-6.9027 Y14.5538 
G01 X-6.7044 Y14.5852 
G01 X-6.5036 Y14.5852 
G01 X-6.3053 Y14.5538 
G01 X-6.1143 Y14.4917 
G01 X-5.9354 Y14.4006 
G01 X-5.7730 Y14.2826 
G01 X-5.6310 Y14.1406 
G01 X-5.5130 Y13.9782 
G01 X-5.4219 Y13.7993 
G01 X-5.3598 Y13.6083 
G01 X-5.3284 Y13.4100 
G00 Z2.5400 
G00 X-6.6350 Y61.1316 
G01 Z-0.1000 F254.00 
G01 X-6.6350 Y62.8204 F200.00 
G01 X-6.6092 Y62.9832 
G01 X-6.5583 Y63.1399 
G01 X-6.4835 Y63.2867 
G01 X-6.3866 Y63.4201 
G01 X-6.2701 Y63.5366 
G01 X-6.1367 Y63.6335 
G01 X-5.9899 Y63.7083 
G01 X-5.8332 Y63.7592 
G01 X-5.6704 Y63.7850 
G01 X-5.5056 Y63.7850 
G01 X-5.3428 Y63.7592 
G01 X-5.1861 Y63.7083 
G01 X-5.0393 Y63.6335 
G01 X-4.9059 Y63.5366 
G01 X-4.7894 Y63.4201 
G01 X-4.6925 Y63.2867 
G01 X-4.6177 Y63.1399 
G01 X-4.5668 Y62.9832 
G01 X-4.5410 Y62.8204 
G01 X-4.5410 Y61.1316 
G01 X-4.5668 Y60.9688 
G01 X-4.6177 Y60.8121 
G01 X-4.6925 Y60.6653 
G01 X-4.7894 Y60.5319 
G01 X-4.9059 Y60.4154 
G01 X-5.0393 Y60.3185 
G01 X-5.1861 Y60.2437 
G01 X-5.3428 Y60.1928 
G01 X-5.5056 Y60.1670 
G01 X-5.6704 Y60.1670 
G01 X-5.8332 Y60.1928 
G01 X-5.9899 Y60.2437 
G01 X-6.1367 Y60.3185 
G01 X-6.2701 Y60.4154 
G01 X-6.3866 Y60.5319 
G01 X-6.4835 Y60.6653 
G01 X-6.5583 Y60.8121 
G01 X-6.6092 Y60.9688 
G01 X-6.6350 Y61.1316 
G00 Z2.5400 
G00 X-9.1750 Y61.1316 
G01 Z-0.1000 F254.00 
G01 X-9.1750 Y62.8204 F200.00 
G01 X-9.1492 Y62.9832 
G01 X-9.0983 Y63.1399 
G01 X-9.0235 Y63.2867 
G01 X-8.9266 Y63.4201 
G01 X-8.8101 Y63.5366 
G01 X-8.6767 Y63.6335 
G01 X-8.5299 Y63.7083 
G01 X-8.3732 Y63.7592 
G01 X-8.2104 Y63.7850 
G01 X-8.0456 Y63.7850 
G01 X-7.8828 Y63.7592 
G01 X-7.7261 Y63.7083 
G01 X-7.5793 Y63.6335 
G01 X-7.4459 Y63.5366 
G01 X-7.3294 Y63.4201 
G01 X-7.2325 Y63.2867 
G01 X-7.1577 Y63.1399 
G01 X-7.1068 Y62.9832 
G01 X-7.0810 Y62.8204 
G01 X-7.0810 Y61.1316 
G01 X-7.1068 Y60.9688 
G01 X-7.1577 Y60.8121 
G01 X-7.2325 Y60.6653 
G01 X-7.3294 Y60.5319 
G01 X-7.4459 Y60.4154 
G01 X-7.5793 Y60.3185 
G01 X-7.7261 Y60.2437 
G01 X-7.8828 Y60.1928 
G01 X-8.0456 Y60.1670 
G01 X-8.2104 Y60.1670 
G01 X-8.3732 Y60.1928 
G01 X-8.5299 Y60.2437 
G01 X-8.6767 Y60.3185 
G01 X-8.8101 Y60.4154 
G01 X-8.9266 Y60.5319 
G01 X-9.0235 Y60.6653 
G01 X-9.0983 Y60.8121 
G01 X-9.1492 Y60.9688 
G01 X-9.1750 Y61.1316 
G00 Z2.5400 
G00 X-11.7150 Y61.1316 
G01 Z-0.1000 F254.00 
G01 X-11.7150 Y62.8204 F200.00 
G01 X-11.6892 Y62.9832 
G01 X-11.6383 Y63.1399 
G01 X-11.5635 Y63.2867 
G01 X-11.4666 Y63.4201 
G01 X-11.3501 Y63.5366 
G01 X-11.2167 Y63.6335 
G01 X-11.0699 Y63.7083 
G01 X-10.9132 Y63.7592 
G01 X-10.7504 Y63.7850 
G01 X-10.5856 Y63.7850 
G01 X-10.4228 Y63.7592 
G01 X-10.2661 Y63.7083 
G01 X-10.1193 Y63.6335 
G01 X-9.9859 Y63.5366 
G01 X-9.8694 Y63.4201 
G01 X-9.7725 Y63.2867 
G01 X-9.6977 Y63.1399 
G01 X-9.6468 Y62.9832 
G01 X-9.6210 Y62.8204 
G01 X-9.6210 Y61.1316 
G01 X-9.6468 Y60.9688 
G01 X-9.6977 Y60.8121 
G01 X-9.7725 Y60.6653 
G01 X-9.8694 Y60.5319 
G01 X-9.9859 Y60.4154 
G01 X-10.1193 Y60.3185 
G01 X-10.2661 Y60.2437 
G01 X-10.4228 Y60.1928 
G01 X-10.5856 Y60.1670 
G01 X-10.7504 Y60.1670 
G01 X-10.9132 Y60.1928 
G01 X-11.0699 Y60.2437 
G01 X-11.2167 Y60.3185 
G01 X-11.3501 Y60.4154 
G01 X-11.4666 Y60.5319 
G01 X-11.5635 Y60.6653 
G01 X-11.6383 Y60.8121 
G01 X-11.6892 Y60.9688 
G01 X-11.7150 Y61.1316 
G00 Z2.5400 
G00 X-24.2260 Y62.9474 
G01 Z-0.1000 F254.00 
G01 X-24.2260 Y61.2586 F200.00 
G01 X-24.2518 Y61.0958 
G01 X-24.3027 Y60.9391 
G01 X-24.3775 Y60.7923 
G01 X-24.4744 Y60.6589 
G01 X-24.5909 Y60.5424 
G01 X-24.7243 Y60.4455 
G01 X-24.8711 Y60.3707 
G01 X-25.0278 Y60.3198 
G01 X-25.1906 Y60.2940 
G01 X-25.3554 Y60.2940 
G01 X-25.5182 Y60.3198 
G01 X-25.6749 Y60.3707 
G01 X-25.8217 Y60.4455 
G01 X-25.9551 Y60.5424 
G01 X-26.0716 Y60.6589 
G01 X-26.1685 Y60.7923 
G01 X-26.2433 Y60.9391 
G01 X-26.2942 Y61.0958 
G01 X-26.3200 Y61.2586 
G01 X-26.3200 Y62.9474 
G01 X-26.2942 Y63.1102 
G01 X-26.2433 Y63.2669 
G01 X-26.1685 Y63.4137 
G01 X-26.0716 Y63.5471 
G01 X-25.9551 Y63.6636 
G01 X-25.8217 Y63.7605 
G01 X-25.6749 Y63.8353 
G01 X-25.5182 Y63.8862 
G01 X-25.3554 Y63.9120 
G01 X-25.1906 Y63.9120 
G01 X-25.0278 Y63.8862 
G01 X-24.8711 Y63.8353 
G01 X-24.7243 Y63.7605 
G01 X-24.5909 Y63.6636 
G01 X-24.4744 Y63.5471 
G01 X-24.3775 Y63.4137 
G01 X-24.3027 Y63.2669 
G01 X-24.2518 Y63.1102 
G01 X-24.2260 Y62.9474 
G00 Z2.5400 
G00 X-21.6860 Y62.9474 
G01 Z-0.1000 F254.00 
G01 X-21.6860 Y61.2586 F200.00 
G01 X-21.7118 Y61.0958 
G01 X-21.7627 Y60.9391 
G01 X-21.8375 Y60.7923 
G01 X-21.9344 Y60.6589 
G01 X-22.0509 Y60.5424 
G01 X-22.1843 Y60.4455 
G01 X-22.3311 Y60.3707 
G01 X-22.4878 Y60.3198 
G01 X-22.6506 Y60.2940 
G01 X-22.8154 Y60.2940 
G01 X-22.9782 Y60.3198 
G01 X-23.1349 Y60.3707 
G01 X-23.2817 Y60.4455 
G01 X-23.4151 Y60.5424 
G01 X-23.5316 Y60.6589 
G01 X-23.6285 Y60.7923 
G01 X-23.7033 Y60.9391 
G01 X-23.7542 Y61.0958 
G01 X-23.7800 Y61.2586 
G01 X-23.7800 Y62.9474 
G01 X-23.7542 Y63.1102 
G01 X-23.7033 Y63.2669 
G01 X-23.6285 Y63.4137 
G01 X-23.5316 Y63.5471 
G01 X-23.4151 Y63.6636 
G01 X-23.2817 Y63.7605 
G01 X-23.1349 Y63.8353 
G01 X-22.9782 Y63.8862 
G01 X-22.8154 Y63.9120 
G01 X-22.6506 Y63.9120 
G01 X-22.4878 Y63.8862 
G01 X-22.3311 Y63.8353 
G01 X-22.1843 Y63.7605 
G01 X-22.0509 Y63.6636 
G01 X-21.9344 Y63.5471 
G01 X-21.8375 Y63.4137 
G01 X-21.7627 Y63.2669 
G01 X-21.7118 Y63.1102 
G01 X-21.6860 Y62.9474 
G00 Z2.5400 
G00 X-19.1460 Y62.9474 
G01 Z-0.1000 F254.00 
G01 X-19.1460 Y61.2586 F200.00 
G01 X-19.1718 Y61.0958 
G01 X-19.2227 Y60.9391 
G01 X-19.2975 Y60.7923 
G01 X-19.3944 Y60.6589 
G01 X-19.5109 Y60.5424 
G01 X-19.6442 Y60.4455 
G01 X-19.7911 Y60.3707 
G01 X-19.9478 Y60.3198 
G01 X-20.1106 Y60.2940 
G01 X-20.2754 Y60.2940 
G01 X-20.4382 Y60.3198 
G01 X-20.5949 Y60.3707 
G01 X-20.7417 Y60.4455 
G01 X-20.8751 Y60.5424 
G01 X-20.9916 Y60.6589 
G01 X-21.0885 Y60.7923 
G01 X-21.1633 Y60.9391 
G01 X-21.2142 Y61.0958 
G01 X-21.2400 Y61.2586 
G01 X-21.2400 Y62.9474 
G01 X-21.2142 Y63.1102 
G01 X-21.1633 Y63.2669 
G01 X-21.0885 Y63.4137 
G01 X-20.9916 Y63.5471 
G01 X-20.8751 Y63.6636 
G01 X-20.7417 Y63.7605 
G01 X-20.5949 Y63.8353 
G01 X-20.4382 Y63.8862 
G01 X-20.2754 Y63.9120 
G01 X-20.1106 Y63.9120 
G01 X-19.9478 Y63.8862 
G01 X-19.7911 Y63.8353 
G01 X-19.6442 Y63.7605 
G01 X-19.5109 Y63.6636 
G01 X-19.3944 Y63.5471 
G01 X-19.2975 Y63.4137 
G01 X-19.2227 Y63.2669 
G01 X-19.1718 Y63.1102 
G01 X-19.1460 Y62.9474 
G00 Z2.5400 
G00 X-16.6060 Y62.9474 
G01 Z-0.1000 F254.00 
G01 X-16.6060 Y61.2586 F200.00 
G01 X-16.6318 Y61.0958 
G01 X-16.6827 Y60.9391 
G01 X-16.7575 Y60.7923 
G01 X-16.8544 Y60.6589 
G01 X-16.9709 Y60.5424 
G01 X-17.1043 Y60.4455 
G01 X-17.2511 Y60.3707 
G01 X-17.4078 Y60.3198 
G01 X-17.5706 Y60.2940 
G01 X-17.7354 Y60.2940 
G01 X-17.8982 Y60.3198 
G01 X-18.0549 Y60.3707 
G01 X-18.2017 Y60.4455 
G01 X-18.3351 Y60.5424 
G01 X-18.4516 Y60.6589 
G01 X-18.5485 Y60.7923 
G01 X-18.6233 Y60.9391 
G01 X-18.6742 Y61.0958 
G01 X-18.7000 Y61.2586 
G01 X-18.7000 Y62.9474 
G01 X-18.6742 Y63.1102 
G01 X-18.6233 Y63.2669 
G01 X-18.5485 Y63.4137 
G01 X-18.4516 Y63.5471 
G01 X-18.3351 Y63.6636 
G01 X-18.2017 Y63.7605 
G01 X-18.0549 Y63.8353 
G01 X-17.8982 Y63.8862 
G01 X-17.7354 Y63.9120 
G01 X-17.5706 Y63.9120 
G01 X-17.4078 Y63.8862 
G01 X-17.2511 Y63.8353 
G01 X-17.1043 Y63.7605 
G01 X-16.9709 Y63.6636 
G01 X-16.8544 Y63.5471 
G01 X-16.7575 Y63.4137 
G01 X-16.6827 Y63.2669 
G01 X-16.6318 Y63.1102 
G01 X-16.6060 Y62.9474 
G00 Z2.5400 
G00 X-14.0660 Y62.9474 
G01 Z-0.1000 F254.00 
G01 X-14.0660 Y61.2586 F200.00 
G01 X-14.0918 Y61.0958 
G01 X-14.1427 Y60.9391 
G01 X-14.2175 Y60.7923 
G01 X-14.3144 Y60.6589 
G01 X-14.4309 Y60.5424 
G01 X-14.5643 Y60.4455 
G01 X-14.7111 Y60.3707 
G01 X-14.8678 Y60.3198 
G01 X-15.0306 Y60.2940 
G01 X-15.1954 Y60.2940 
G01 X-15.3582 Y60.3198 
G01 X-15.5149 Y60.3707 
G01 X-15.6617 Y60.4455 
G01 X-15.7951 Y60.5424 
G01 X-15.9116 Y60.6589 
G01 X-16.0085 Y60.7923 
G01 X-16.0833 Y60.9391 
G01 X-16.1342 Y61.0958 
G01 X-16.1600 Y61.2586 
G01 X-16.1600 Y62.9474 
G01 X-16.1342 Y63.1102 
G01 X-16.0833 Y63.2669 
G01 X-16.0085 Y63.4137 
G01 X-15.9116 Y63.5471 
G01 X-15.7951 Y63.6636 
G01 X-15.6617 Y63.7605 
G01 X-15.5149 Y63.8353 
G01 X-15.3582 Y63.8862 
G01 X-15.1954 Y63.9120 
G01 X-15.0306 Y63.9120 
G01 X-14.8678 Y63.8862 
G01 X-14.7111 Y63.8353 
G01 X-14.5643 Y63.7605 
G01 X-14.4309 Y63.6636 
G01 X-14.3144 Y63.5471 
G01 X-14.2175 Y63.4137 
G01 X-14.1427 Y63.2669 
G01 X-14.0918 Y63.1102 
G01 X-14.0660 Y62.9474 
G00 Z2.5400 
G00 X-24.4546 Y56.6589 
G01 Z-0.1000 F254.00 
G01 X-24.4546 Y55.1519 F200.00 
G01 X-24.4909 Y54.9692 
G01 X-24.5622 Y54.7972 
G01 X-24.6657 Y54.6423 
G01 X-24.7973 Y54.5107 
G01 X-24.9522 Y54.4072 
G01 X-25.1242 Y54.3359 
G01 X-25.3069 Y54.2996 
G01 X-25.4931 Y54.2996 
G01 X-25.6758 Y54.3359 
G01 X-25.8478 Y54.4072 
G01 X-26.0027 Y54.5107 
G01 X-26.1343 Y54.6423 
G01 X-26.2378 Y54.7972 
G01 X-26.3091 Y54.9692 
G01 X-26.3454 Y55.1519 
G01 X-26.3454 Y56.6589 
G01 X-26.3091 Y56.8416 
G01 X-26.2378 Y57.0136 
G01 X-26.1343 Y57.1685 
G01 X-26.0027 Y57.3001 
G01 X-25.8478 Y57.4036 
G01 X-25.6758 Y57.4749 
G01 X-25.4931 Y57.5112 
G01 X-25.3069 Y57.5112 
G01 X-25.1242 Y57.4749 
G01 X-24.9522 Y57.4036 
G01 X-24.7973 Y57.3001 
G01 X-24.6657 Y57.1685 
G01 X-24.5622 Y57.0136 
G01 X-24.4909 Y56.8416 
G01 X-24.4546 Y56.6589 
G00 Z2.5400 
G00 X-21.9146 Y56.6589 
G01 Z-0.1000 F254.00 
G01 X-21.9146 Y55.1519 F200.00 
G01 X-21.9509 Y54.9692 
G01 X-22.0222 Y54.7972 
G01 X-22.1257 Y54.6423 
G01 X-22.2573 Y54.5107 
G01 X-22.4122 Y54.4072 
G01 X-22.5842 Y54.3359 
G01 X-22.7669 Y54.2996 
G01 X-22.9531 Y54.2996 
G01 X-23.1358 Y54.3359 
G01 X-23.3078 Y54.4072 
G01 X-23.4627 Y54.5107 
G01 X-23.5943 Y54.6423 
G01 X-23.6978 Y54.7972 
G01 X-23.7691 Y54.9692 
G01 X-23.8054 Y55.1519 
G01 X-23.8054 Y56.6589 
G01 X-23.7691 Y56.8416 
G01 X-23.6978 Y57.0136 
G01 X-23.5943 Y57.1685 
G01 X-23.4627 Y57.3001 
G01 X-23.3078 Y57.4036 
G01 X-23.1358 Y57.4749 
G01 X-22.9531 Y57.5112 
G01 X-22.7669 Y57.5112 
G01 X-22.5842 Y57.4749 
G01 X-22.4122 Y57.4036 
G01 X-22.2573 Y57.3001 
G01 X-22.1257 Y57.1685 
G01 X-22.0222 Y57.0136 
G01 X-21.9509 Y56.8416 
G01 X-21.9146 Y56.6589 
G00 Z2.5400 
G00 X-23.8054 Y46.2111 
G01 Z-0.1000 F254.00 
G01 X-23.8054 Y47.7181 F200.00 
G01 X-23.7691 Y47.9008 
G01 X-23.6978 Y48.0728 
G01 X-23.5943 Y48.2277 
G01 X-23.4627 Y48.3593 
G01 X-23.3078 Y48.4628 
G01 X-23.1358 Y48.5341 
G01 X-22.9531 Y48.5704 
G01 X-22.7669 Y48.5704 
G01 X-22.5842 Y48.5341 
G01 X-22.4122 Y48.4628 
G01 X-22.2573 Y48.3593 
G01 X-22.1257 Y48.2277 
G01 X-22.0222 Y48.0728 
G01 X-21.9509 Y47.9008 
G01 X-21.9146 Y47.7181 
G01 X-21.9146 Y46.2111 
G01 X-21.9509 Y46.0284 
G01 X-22.0222 Y45.8564 
G01 X-22.1257 Y45.7015 
G01 X-22.2573 Y45.5699 
G01 X-22.4122 Y45.4664 
G01 X-22.5842 Y45.3951 
G01 X-22.7669 Y45.3588 
G01 X-22.9531 Y45.3588 
G01 X-23.1358 Y45.3951 
G01 X-23.3078 Y45.4664 
G01 X-23.4627 Y45.5699 
G01 X-23.5943 Y45.7015 
G01 X-23.6978 Y45.8564 
G01 X-23.7691 Y46.0284 
G01 X-23.8054 Y46.2111 
G00 Z2.5400 
G00 X-26.3454 Y46.2111 
G01 Z-0.1000 F254.00 
G01 X-26.3454 Y47.7181 F200.00 
G01 X-26.3091 Y47.9008 
G01 X-26.2378 Y48.0728 
G01 X-26.1343 Y48.2277 
G01 X-26.0027 Y48.3593 
G01 X-25.8478 Y48.4628 
G01 X-25.6758 Y48.5341 
G01 X-25.4931 Y48.5704 
G01 X-25.3069 Y48.5704 
G01 X-25.1242 Y48.5341 
G01 X-24.9522 Y48.4628 
G01 X-24.7973 Y48.3593 
G01 X-24.6657 Y48.2277 
G01 X-24.5622 Y48.0728 
G01 X-24.4909 Y47.9008 
G01 X-24.4546 Y47.7181 
G01 X-24.4546 Y46.2111 
G01 X-24.4909 Y46.0284 
G01 X-24.5622 Y45.8564 
G01 X-24.6657 Y45.7015 
G01 X-24.7973 Y45.5699 
G01 X-24.9522 Y45.4664 
G01 X-25.1242 Y45.3951 
G01 X-25.3069 Y45.3588 
G01 X-25.4931 Y45.3588 
G01 X-25.6758 Y45.3951 
G01 X-25.8478 Y45.4664 
G01 X-26.0027 Y45.5699 
G01 X-26.1343 Y45.7015 
G01 X-26.2378 Y45.8564 
G01 X-26.3091 Y46.0284 
G01 X-26.3454 Y46.2111 
G00 Z2.5400 
G00 X-15.0566 Y56.5319 
G01 Z-0.1000 F254.00 
G01 X-15.0566 Y55.0249 F200.00 
G01 X-15.0929 Y54.8422 
G01 X-15.1642 Y54.6702 
G01 X-15.2677 Y54.5153 
G01 X-15.3993 Y54.3837 
G01 X-15.5542 Y54.2802 
G01 X-15.7262 Y54.2089 
G01 X-15.9089 Y54.1726 
G01 X-16.0951 Y54.1726 
G01 X-16.2778 Y54.2089 
G01 X-16.4498 Y54.2802 
G01 X-16.6047 Y54.3837 
G01 X-16.7363 Y54.5153 
G01 X-16.8398 Y54.6702 
G01 X-16.9111 Y54.8422 
G01 X-16.9474 Y55.0249 
G01 X-16.9474 Y56.5319 
G01 X-16.9111 Y56.7146 
G01 X-16.8398 Y56.8866 
G01 X-16.7363 Y57.0415 
G01 X-16.6047 Y57.1731 
G01 X-16.4498 Y57.2766 
G01 X-16.2778 Y57.3479 
G01 X-16.0951 Y57.3842 
G01 X-15.9089 Y57.3842 
G01 X-15.7262 Y57.3479 
G01 X-15.5542 Y57.2766 
G01 X-15.3993 Y57.1731 
G01 X-15.2677 Y57.0415 
G01 X-15.1642 Y56.8866 
G01 X-15.0929 Y56.7146 
G01 X-15.0566 Y56.5319 
G00 Z2.5400 
G00 X-12.5166 Y56.5319 
G01 Z-0.1000 F254.00 
G01 X-12.5166 Y55.0249 F200.00 
G01 X-12.5529 Y54.8422 
G01 X-12.6242 Y54.6702 
G01 X-12.7277 Y54.5153 
G01 X-12.8593 Y54.3837 
G01 X-13.0142 Y54.2802 
G01 X-13.1862 Y54.2089 
G01 X-13.3689 Y54.1726 
G01 X-13.5551 Y54.1726 
G01 X-13.7378 Y54.2089 
G01 X-13.9098 Y54.2802 
G01 X-14.0647 Y54.3837 
G01 X-14.1963 Y54.5153 
G01 X-14.2998 Y54.6702 
G01 X-14.3711 Y54.8422 
G01 X-14.4074 Y55.0249 
G01 X-14.4074 Y56.5319 
G01 X-14.3711 Y56.7146 
G01 X-14.2998 Y56.8866 
G01 X-14.1963 Y57.0415 
G01 X-14.0647 Y57.1731 
G01 X-13.9098 Y57.2766 
G01 X-13.7378 Y57.3479 
G01 X-13.5551 Y57.3842 
G01 X-13.3689 Y57.3842 
G01 X-13.1862 Y57.3479 
G01 X-13.0142 Y57.2766 
G01 X-12.8593 Y57.1731 
G01 X-12.7277 Y57.0415 
G01 X-12.6242 Y56.8866 
G01 X-12.5529 Y56.7146 
G01 X-12.5166 Y56.5319 
G00 Z2.5400 
G00 X-12.2815 Y36.2910 
G01 Z-0.1000 F254.00 
G01 X-14.1345 Y36.2910 F200.00 
G01 X-14.2070 Y36.3104 
G01 X-14.2720 Y36.3479 
G01 X-14.3251 Y36.4010 
G01 X-14.3626 Y36.4660 
G01 X-14.3820 Y36.5385 
G01 X-14.3820 Y38.3915 
G01 X-14.3626 Y38.4640 
G01 X-14.3251 Y38.5290 
G01 X-14.2720 Y38.5821 
G01 X-14.2070 Y38.6196 
G01 X-14.1345 Y38.6390 
G01 X-12.2815 Y38.6390 
G01 X-12.2090 Y38.6196 
G01 X-12.1440 Y38.5821 
G01 X-12.0909 Y38.5290 
G01 X-12.0534 Y38.4640 
G01 X-12.0340 Y38.3915 
G01 X-12.0340 Y36.5385 
G01 X-12.0534 Y36.4660 
G01 X-12.0909 Y36.4010 
G01 X-12.1440 Y36.3479 
G01 X-12.2090 Y36.3104 
G01 X-12.2815 Y36.2910 
G00 Z2.5400 
G00 X-12.2815 Y38.8310 
G01 Z-0.1000 F254.00 
G01 X-14.1345 Y38.8310 F200.00 
G01 X-14.2070 Y38.8504 
G01 X-14.2720 Y38.8879 
G01 X-14.3251 Y38.9410 
G01 X-14.3626 Y39.0060 
G01 X-14.3820 Y39.0785 
G01 X-14.3820 Y40.9315 
G01 X-14.3626 Y41.0040 
G01 X-14.3251 Y41.0690 
G01 X-14.2720 Y41.1221 
G01 X-14.2070 Y41.1596 
G01 X-14.1345 Y41.1790 
G01 X-12.2815 Y41.1790 
G01 X-12.2090 Y41.1596 
G01 X-12.1440 Y41.1221 
G01 X-12.0909 Y41.0690 
G01 X-12.0534 Y41.0040 
G01 X-12.0340 Y40.9315 
G01 X-12.0340 Y39.0785 
G01 X-12.0534 Y39.0060 
G01 X-12.0909 Y38.9410 
G01 X-12.1440 Y38.8879 
G01 X-12.2090 Y38.8504 
G01 X-12.2815 Y38.8310 
G00 Z2.5400 
G00 X-7.1253 Y47.7718 
G01 Z-0.1000 F254.00 
G01 X-8.8767 Y47.7718 F200.00 
G01 X-8.9492 Y47.7912 
G01 X-9.0142 Y47.8287 
G01 X-9.0673 Y47.8818 
G01 X-9.1048 Y47.9468 
G01 X-9.1242 Y48.0193 
G01 X-9.1242 Y49.7707 
G01 X-9.1048 Y49.8432 
G01 X-9.0673 Y49.9082 
G01 X-9.0142 Y49.9613 
G01 X-8.9492 Y49.9988 
G01 X-8.8767 Y50.0182 
G01 X-7.1253 Y50.0182 
G01 X-7.0528 Y49.9988 
G01 X-6.9878 Y49.9613 
G01 X-6.9347 Y49.9082 
G01 X-6.8972 Y49.8432 
G01 X-6.8778 Y49.7707 
G01 X-6.8778 Y48.0193 
G01 X-6.8972 Y47.9468 
G01 X-6.9347 Y47.8818 
G01 X-6.9878 Y47.8287 
G01 X-7.0528 Y47.7912 
G01 X-7.1253 Y47.7718 
G00 Z2.5400 
G00 X-7.1253 Y50.3118 
G01 Z-0.1000 F254.00 
G01 X-8.8767 Y50.3118 F200.00 
G01 X-8.9492 Y50.3312 
G01 X-9.0142 Y50.3687 
G01 X-9.0673 Y50.4218 
G01 X-9.1048 Y50.4868 
G01 X-9.1242 Y50.5593 
G01 X-9.1242 Y52.3107 
G01 X-9.1048 Y52.3832 
G01 X-9.0673 Y52.4482 
G01 X-9.0142 Y52.5013 
G01 X-8.9492 Y52.5388 
G01 X-8.8767 Y52.5582 
G01 X-7.1253 Y52.5582 
G01 X-7.0528 Y52.5388 
G01 X-6.9878 Y52.5013 
G01 X-6.9347 Y52.4482 
G01 X-6.8972 Y52.3832 
G01 X-6.8778 Y52.3107 
G01 X-6.8778 Y50.5593 
G01 X-6.8972 Y50.4868 
G01 X-6.9347 Y50.4218 
G01 X-6.9878 Y50.3687 
G01 X-7.0528 Y50.3312 
G01 X-7.1253 Y50.3118 
G00 Z2.5400 
G00 X-7.1253 Y52.8518 
G01 Z-0.1000 F254.00 
G01 X-8.8767 Y52.8518 F200.00 
G01 X-8.9492 Y52.8712 
G01 X-9.0142 Y52.9087 
G01 X-9.0673 Y52.9618 
G01 X-9.1048 Y53.0268 
G01 X-9.1242 Y53.0993 
G01 X-9.1242 Y54.8507 
G01 X-9.1048 Y54.9232 
G01 X-9.0673 Y54.9882 
G01 X-9.0142 Y55.0413 
G01 X-8.9492 Y55.0788 
G01 X-8.8767 Y55.0982 
G01 X-7.1253 Y55.0982 
G01 X-7.0528 Y55.0788 
G01 X-6.9878 Y55.0413 
G01 X-6.9347 Y54.9882 
G01 X-6.8972 Y54.9232 
G01 X-6.8778 Y54.8507 
G01 X-6.8778 Y53.0993 
G01 X-6.8972 Y53.0268 
G01 X-6.9347 Y52.9618 
G01 X-6.9878 Y52.9087 
G01 X-7.0528 Y52.8712 
G01 X-7.1253 Y52.8518 
G00 Z2.5400 
G00 X-7.1253 Y55.3918 
G01 Z-0.1000 F254.00 
G01 X-8.8767 Y55.3918 F200.00 
G01 X-8.9492 Y55.4112 
G01 X-9.0142 Y55.4487 
G01 X-9.0673 Y55.5018 
G01 X-9.1048 Y55.5668 
G01 X-9.1242 Y55.6393 
G01 X-9.1242 Y57.3907 
G01 X-9.1048 Y57.4632 
G01 X-9.0673 Y57.5282 
G01 X-9.0142 Y57.5813 
G01 X-8.9492 Y57.6188 
G01 X-8.8767 Y57.6382 
G01 X-7.1253 Y57.6382 
G01 X-7.0528 Y57.6188 
G01 X-6.9878 Y57.5813 
G01 X-6.9347 Y57.5282 
G01 X-6.8972 Y57.4632 
G01 X-6.8778 Y57.3907 
G01 X-6.8778 Y55.6393 
G01 X-6.8972 Y55.5668 
G01 X-6.9347 Y55.5018 
G01 X-6.9878 Y55.4487 
G01 X-7.0528 Y55.4112 
G01 X-7.1253 Y55.3918 
G00 Z2.5400 
G00 X-4.1850 Y2.9067 
G01 Z-0.1000 F254.00 
G01 X-4.1850 Y3.0933 F200.00 
G01 X-4.1558 Y3.2775 
G01 X-4.0982 Y3.4549 
G01 X-4.0135 Y3.6211 
G01 X-3.9039 Y3.7720 
G01 X-3.7720 Y3.9039 
G01 X-3.6211 Y4.0135 
G01 X-3.4549 Y4.0982 
G01 X-3.2775 Y4.1558 
G01 X-3.0933 Y4.1850 
G01 X-2.9067 Y4.1850 
G01 X-2.7225 Y4.1558 
G01 X-2.5451 Y4.0982 
G01 X-2.3789 Y4.0135 
G01 X-2.2280 Y3.9039 
G01 X-2.0961 Y3.7720 
G01 X-1.9865 Y3.6211 
G01 X-1.9018 Y3.4549 
G01 X-1.8442 Y3.2775 
G01 X-1.8150 Y3.0933 
G01 X-1.8150 Y2.9067 
G01 X-1.8442 Y2.7225 
G01 X-1.9018 Y2.5451 
G01 X-1.9865 Y2.3789 
G01 X-2.0961 Y2.2280 
G01 X-2.2280 Y2.0961 
G01 X-2.3789 Y1.9865 
G01 X-2.5451 Y1.9018 
G01 X-2.7225 Y1.8442 
G01 X-2.9067 Y1.8150 
G01 X-3.0933 Y1.8150 
G01 X-3.2775 Y1.8442 
G01 X-3.4549 Y1.9018 
G01 X-3.6211 Y1.9865 
G01 X-3.7720 Y2.0961 
G01 X-3.9039 Y2.2280 
G01 X-4.0135 Y2.3789 
G01 X-4.0982 Y2.5451 
G01 X-4.1558 Y2.7225 
G01 X-4.1850 Y2.9067 
G00 Z2.5400 
G00 X-29.1850 Y2.9067 
G01 Z-0.1000 F254.00 
G01 X-29.1850 Y3.0933 F200.00 
G01 X-29.1558 Y3.2775 
G01 X-29.0982 Y3.4549 
G01 X-29.0135 Y3.6211 
G01 X-28.9039 Y3.7720 
G01 X-28.7720 Y3.9039 
G01 X-28.6211 Y4.0135 
G01 X-28.4549 Y4.0982 
G01 X-28.2775 Y4.1558 
G01 X-28.0933 Y4.1850 
G01 X-27.9067 Y4.1850 
G01 X-27.7225 Y4.1558 
G01 X-27.5451 Y4.0982 
G01 X-27.3789 Y4.0135 
G01 X-27.2280 Y3.9039 
G01 X-27.0961 Y3.7720 
G01 X-26.9865 Y3.6211 
G01 X-26.9018 Y3.4549 
G01 X-26.8442 Y3.2775 
G01 X-26.8150 Y3.0933 
G01 X-26.8150 Y2.9067 
G01 X-26.8442 Y2.7225 
G01 X-26.9018 Y2.5451 
G01 X-26.9865 Y2.3789 
G01 X-27.0961 Y2.2280 
G01 X-27.2280 Y2.0961 
G01 X-27.3789 Y1.9865 
G01 X-27.5451 Y1.9018 
G01 X-27.7225 Y1.8442 
G01 X-27.9067 Y1.8150 
G01 X-28.0933 Y1.8150 
G01 X-28.2775 Y1.8442 
G01 X-28.4549 Y1.9018 
G01 X-28.6211 Y1.9865 
G01 X-28.7720 Y2.0961 
G01 X-28.9039 Y2.2280 
G01 X-29.0135 Y2.3789 
G01 X-29.0982 Y2.5451 
G01 X-29.1558 Y2.7225 
G01 X-29.1850 Y2.9067 
G00 Z2.5400 
G00 X-4.1850 Y66.9067 
G01 Z-0.1000 F254.00 
G01 X-4.1850 Y67.0933 F200.00 
G01 X-4.1558 Y67.2775 
G01 X-4.0982 Y67.4549 
G01 X-4.0135 Y67.6211 
G01 X-3.9039 Y67.7720 
G01 X-3.7720 Y67.9039 
G01 X-3.6211 Y68.0135 
G01 X-3.4549 Y68.0982 
G01 X-3.2775 Y68.1558 
G01 X-3.0933 Y68.1850 
G01 X-2.9067 Y68.1850 
G01 X-2.7225 Y68.1558 
G01 X-2.5451 Y68.0982 
G01 X-2.3789 Y68.0135 
G01 X-2.2280 Y67.9039 
G01 X-2.0961 Y67.7720 
G01 X-1.9865 Y67.6211 
G01 X-1.9018 Y67.4549 
G01 X-1.8442 Y67.2775 
G01 X-1.8150 Y67.0933 
G01 X-1.8150 Y66.9067 
G01 X-1.8442 Y66.7225 
G01 X-1.9018 Y66.5451 
G01 X-1.9865 Y66.3789 
G01 X-2.0961 Y66.2280 
G01 X-2.2280 Y66.0961 
G01 X-2.3789 Y65.9865 
G01 X-2.5451 Y65.9018 
G01 X-2.7225 Y65.8442 
G01 X-2.9067 Y65.8150 
G01 X-3.0933 Y65.8150 
G01 X-3.2775 Y65.8442 
G01 X-3.4549 Y65.9018 
G01 X-3.6211 Y65.9865 
G01 X-3.7720 Y66.0961 
G01 X-3.9039 Y66.2280 
G01 X-4.0135 Y66.3789 
G01 X-4.0982 Y66.5451 
G01 X-4.1558 Y66.7225 
G01 X-4.1850 Y66.9067 
G00 Z2.5400 
G00 X-29.1850 Y66.9067 
G01 Z-0.1000 F254.00 
G01 X-29.1850 Y67.0933 F200.00 
G01 X-29.1558 Y67.2775 
G01 X-29.0982 Y67.4549 
G01 X-29.0135 Y67.6211 
G01 X-28.9039 Y67.7720 
G01 X-28.7720 Y67.9039 
G01 X-28.6211 Y68.0135 
G01 X-28.4549 Y68.0982 
G01 X-28.2775 Y68.1558 
G01 X-28.0933 Y68.1850 
G01 X-27.9067 Y68.1850 
G01 X-27.7225 Y68.1558 
G01 X-27.5451 Y68.0982 
G01 X-27.3789 Y68.0135 
G01 X-27.2280 Y67.9039 
G01 X-27.0961 Y67.7720 
G01 X-26.9865 Y67.6211 
G01 X-26.9018 Y67.4549 
G01 X-26.8442 Y67.2775 
G01 X-26.8150 Y67.0933 
G01 X-26.8150 Y66.9067 
G01 X-26.8442 Y66.7225 
G01 X-26.9018 Y66.5451 
G01 X-26.9865 Y66.3789 
G01 X-27.0961 Y66.2280 
G01 X-27.2280 Y66.0961 
G01 X-27.3789 Y65.9865 
G01 X-27.5451 Y65.9018 
G01 X-27.7225 Y65.8442 
G01 X-27.9067 Y65.8150 
G01 X-28.0933 Y65.8150 
G01 X-28.2775 Y65.8442 
G01 X-28.4549 Y65.9018 
G01 X-28.6211 Y65.9865 
G01 X-28.7720 Y66.0961 
G01 X-28.9039 Y66.2280 
G01 X-29.0135 Y66.3789 
G01 X-29.0982 Y66.5451 
G01 X-29.1558 Y66.7225 
G01 X-29.1850 Y66.9067 
G00 Z2.5400 
G00 X-20.6930 Y48.1811 
G01 Z-0.1000 F254.00 
G01 X-20.6930 Y49.6089 F200.00 
G01 X-20.6599 Y49.7322 
G01 X-20.5961 Y49.8428 
G01 X-20.5058 Y49.9331 
G01 X-20.3952 Y49.9969 
G01 X-20.2719 Y50.0300 
G01 X-18.8441 Y50.0300 
G01 X-18.7208 Y49.9969 
G01 X-18.6102 Y49.9331 
G01 X-18.5199 Y49.8428 
G01 X-18.4561 Y49.7322 
G01 X-18.4297 Y49.6340 
G01 X-11.7963 Y49.6340 
G01 X-11.7699 Y49.7322 
G01 X-11.7061 Y49.8428 
G01 X-11.6158 Y49.9331 
G01 X-11.5052 Y49.9969 
G01 X-11.3819 Y50.0300 
G01 X-9.9541 Y50.0300 
G01 X-9.8308 Y49.9969 
G01 X-9.7202 Y49.9331 
G01 X-9.6299 Y49.8428 
G01 X-9.5661 Y49.7322 
G01 X-9.5330 Y49.6089 
G01 X-9.5330 Y48.1811 
G01 X-9.5661 Y48.0578 
G01 X-9.6299 Y47.9472 
G01 X-9.7202 Y47.8569 
G01 X-9.8308 Y47.7931 
G01 X-9.9541 Y47.7600 
G01 X-11.3819 Y47.7600 
G01 X-11.5052 Y47.7931 
G01 X-11.6158 Y47.8569 
G01 X-11.7061 Y47.9472 
G01 X-11.7699 Y48.0578 
G01 X-11.7963 Y48.1560 
G01 X-12.5243 Y48.1560 
G01 X-12.4824 Y48.0983 
G01 X-12.4005 Y47.9377 
G01 X-12.3448 Y47.7662 
G01 X-12.3166 Y47.5881 
G01 X-12.3166 Y46.0871 
G01 X-12.3448 Y45.9090 
G01 X-12.4005 Y45.7375 
G01 X-12.4824 Y45.5769 
G01 X-12.5883 Y45.4310 
G01 X-12.7158 Y45.3035 
G01 X-12.8617 Y45.1976 
G01 X-13.0223 Y45.1157 
G01 X-13.1938 Y45.0600 
G01 X-13.3719 Y45.0318 
G01 X-13.5521 Y45.0318 
G01 X-13.7302 Y45.0600 
G01 X-13.9017 Y45.1157 
G01 X-14.0623 Y45.1976 
G01 X-14.2082 Y45.3035 
G01 X-14.3357 Y45.4310 
G01 X-14.4416 Y45.5769 
G01 X-14.5235 Y45.7375 
G01 X-14.5792 Y45.9090 
G01 X-14.6074 Y46.0871 
G01 X-14.6074 Y47.5881 
G01 X-14.5792 Y47.7662 
G01 X-14.5235 Y47.9377 
G01 X-14.4416 Y48.0983 
G01 X-14.3997 Y48.1560 
G01 X-15.0643 Y48.1560 
G01 X-15.0224 Y48.0983 
G01 X-14.9405 Y47.9377 
G01 X-14.8848 Y47.7662 
G01 X-14.8566 Y47.5881 
G01 X-14.8566 Y46.0871 
G01 X-14.8848 Y45.9090 
G01 X-14.9405 Y45.7375 
G01 X-15.0224 Y45.5769 
G01 X-15.1283 Y45.4310 
G01 X-15.2558 Y45.3035 
G01 X-15.4017 Y45.1976 
G01 X-15.5623 Y45.1157 
G01 X-15.7338 Y45.0600 
G01 X-15.9119 Y45.0318 
G01 X-16.0921 Y45.0318 
G01 X-16.2702 Y45.0600 
G01 X-16.4417 Y45.1157 
G01 X-16.6023 Y45.1976 
G01 X-16.7482 Y45.3035 
G01 X-16.8757 Y45.4310 
G01 X-16.9816 Y45.5769 
G01 X-17.0635 Y45.7375 
G01 X-17.1192 Y45.9090 
G01 X-17.1474 Y46.0871 
G01 X-17.1474 Y47.5881 
G01 X-17.1192 Y47.7662 
G01 X-17.0635 Y47.9377 
G01 X-16.9816 Y48.0983 
G01 X-16.9397 Y48.1560 
G01 X-18.4297 Y48.1560 
G01 X-18.4561 Y48.0578 
G01 X-18.5199 Y47.9472 
G01 X-18.6102 Y47.8569 
G01 X-18.7208 Y47.7931 
G01 X-18.8441 Y47.7600 
G01 X-20.2719 Y47.7600 
G01 X-20.3952 Y47.7931 
G01 X-20.5058 Y47.8569 
G01 X-20.5961 Y47.9472 
G01 X-20.6599 Y48.0578 
G01 X-20.6930 Y48.1811 
G00 Z2.5400 
G00 X-14.7240 Y29.8931 
G01 Z-0.1000 F254.00 
G01 X-14.7240 Y31.3209 F200.00 
G01 X-14.6909 Y31.4442 
G01 X-14.6271 Y31.5548 
G01 X-14.5368 Y31.6451 
G01 X-14.4262 Y31.7089 
G01 X-14.3029 Y31.7420 
G01 X-12.8751 Y31.7420 
G01 X-12.7518 Y31.7089 
G01 X-12.6412 Y31.6451 
G01 X-12.5509 Y31.5548 
G01 X-12.4871 Y31.4442 
G01 X-12.4607 Y31.3460 
G01 X-9.8311 Y31.3460 
G01 X-7.1040 Y34.0731 
G01 X-7.1040 Y35.0038 
G01 X-7.0709 Y35.1272 
G01 X-7.0071 Y35.2378 
G01 X-6.9168 Y35.3281 
G01 X-6.8062 Y35.3919 
G01 X-6.6829 Y35.4250 
G01 X-5.2551 Y35.4250 
G01 X-5.1318 Y35.3919 
G01 X-5.0212 Y35.3281 
G01 X-4.9309 Y35.2378 
G01 X-4.8671 Y35.1272 
G01 X-4.8340 Y35.0038 
G01 X-4.8340 Y33.5761 
G01 X-4.8671 Y33.4528 
G01 X-4.9309 Y33.3422 
G01 X-5.0212 Y33.2519 
G01 X-5.1318 Y33.1881 
G01 X-5.2551 Y33.1550 
G01 X-5.9319 Y33.1550 
G01 X-9.0539 Y30.0330 
G01 X-9.1750 Y29.9521 
G01 X-9.3094 Y29.8964 
G01 X-9.4522 Y29.8680 
G01 X-12.4607 Y29.8680 
G01 X-12.4871 Y29.7698 
G01 X-12.5509 Y29.6592 
G01 X-12.6412 Y29.5689 
G01 X-12.7518 Y29.5051 
G01 X-12.8751 Y29.4720 
G01 X-14.3029 Y29.4720 
G01 X-14.4262 Y29.5051 
G01 X-14.5368 Y29.5689 
G01 X-14.6271 Y29.6592 
G01 X-14.6909 Y29.7698 
G01 X-14.7240 Y29.8931 
G00 Z2.5400 
G00 X-20.1144 Y13.4257 
G01 Z-0.1000 F254.00 
G01 X-20.1144 Y11.2123 F200.00 
G01 X-20.1507 Y10.9829 
G01 X-20.2225 Y10.7620 
G01 X-20.3280 Y10.5550 
G01 X-20.4645 Y10.3671 
G01 X-20.6287 Y10.2029 
G01 X-20.8166 Y10.0664 
G01 X-21.0236 Y9.9609 
G01 X-21.2445 Y9.8891 
G01 X-21.4739 Y9.8528 
G01 X-21.7061 Y9.8528 
G01 X-21.9355 Y9.8891 
G01 X-22.1564 Y9.9609 
G01 X-22.3634 Y10.0664 
G01 X-22.5513 Y10.2029 
G01 X-22.7155 Y10.3671 
G01 X-22.8520 Y10.5550 
G01 X-22.9575 Y10.7620 
G01 X-23.0293 Y10.9829 
G01 X-23.0656 Y11.2123 
G01 X-23.0656 Y13.4257 
G01 X-23.0293 Y13.6551 
G01 X-22.9575 Y13.8760 
G01 X-22.8520 Y14.0830 
G01 X-22.7155 Y14.2709 
G01 X-22.5513 Y14.4351 
G01 X-22.3634 Y14.5716 
G01 X-22.1564 Y14.6771 
G01 X-21.9355 Y14.7489 
G01 X-21.7061 Y14.7852 
G01 X-21.4739 Y14.7852 
G01 X-21.2445 Y14.7489 
G01 X-21.0236 Y14.6771 
G01 X-20.8166 Y14.5716 
G01 X-20.6287 Y14.4351 
G01 X-20.4645 Y14.2709 
G01 X-20.3280 Y14.0830 
G01 X-20.2225 Y13.8760 
G01 X-20.1507 Y13.6551 
G01 X-20.1144 Y13.4257 
G00 Z2.5400 
G00 X-15.1360 Y13.4257 
G01 Z-0.1000 F254.00 
G01 X-15.1360 Y11.2123 F200.00 
G01 X-15.1723 Y10.9829 
G01 X-15.2441 Y10.7620 
G01 X-15.3496 Y10.5550 
G01 X-15.4861 Y10.3671 
G01 X-15.6503 Y10.2029 
G01 X-15.8382 Y10.0664 
G01 X-16.0452 Y9.9609 
G01 X-16.2661 Y9.8891 
G01 X-16.4955 Y9.8528 
G01 X-16.7277 Y9.8528 
G01 X-16.9571 Y9.8891 
G01 X-17.1780 Y9.9609 
G01 X-17.3850 Y10.0664 
G01 X-17.5729 Y10.2029 
G01 X-17.7371 Y10.3671 
G01 X-17.8736 Y10.5550 
G01 X-17.9791 Y10.7620 
G01 X-18.0509 Y10.9829 
G01 X-18.0872 Y11.2123 
G01 X-18.0872 Y13.4257 
G01 X-18.0509 Y13.6551 
G01 X-17.9791 Y13.8760 
G01 X-17.8736 Y14.0830 
G01 X-17.7371 Y14.2709 
G01 X-17.5729 Y14.4351 
G01 X-17.3850 Y14.5716 
G01 X-17.1780 Y14.6771 
G01 X-16.9571 Y14.7489 
G01 X-16.7277 Y14.7852 
G01 X-16.4955 Y14.7852 
G01 X-16.2661 Y14.7489 
G01 X-16.0452 Y14.6771 
G01 X-15.8382 Y14.5716 
G01 X-15.6503 Y14.4351 
G01 X-15.4861 Y14.2709 
G01 X-15.3496 Y14.0830 
G01 X-15.2441 Y13.8760 
G01 X-15.1723 Y13.6551 
G01 X-15.1360 Y13.4257 
G00 Z2.5400 
G00 X-10.1068 Y13.4257 
G01 Z-0.1000 F254.00 
G01 X-10.1068 Y11.2123 F200.00 
G01 X-10.1431 Y10.9829 
G01 X-10.2149 Y10.7620 
G01 X-10.3204 Y10.5550 
G01 X-10.4569 Y10.3671 
G01 X-10.6211 Y10.2029 
G01 X-10.8090 Y10.0664 
G01 X-11.0160 Y9.9609 
G01 X-11.2369 Y9.8891 
G01 X-11.4663 Y9.8528 
G01 X-11.6985 Y9.8528 
G01 X-11.9279 Y9.8891 
G01 X-12.1488 Y9.9609 
G01 X-12.3558 Y10.0664 
G01 X-12.5437 Y10.2029 
G01 X-12.7079 Y10.3671 
G01 X-12.8444 Y10.5550 
G01 X-12.9499 Y10.7620 
G01 X-13.0217 Y10.9829 
G01 X-13.0580 Y11.2123 
G01 X-13.0580 Y13.4257 
G01 X-13.0217 Y13.6551 
G01 X-12.9499 Y13.8760 
G01 X-12.8444 Y14.0830 
G01 X-12.7079 Y14.2709 
G01 X-12.5437 Y14.4351 
G01 X-12.3558 Y14.5716 
G01 X-12.1488 Y14.6771 
G01 X-11.9279 Y14.7489 
G01 X-11.6985 Y14.7852 
G01 X-11.4663 Y14.7852 
G01 X-11.2369 Y14.7489 
G01 X-11.0160 Y14.6771 
G01 X-10.8090 Y14.5716 
G01 X-10.6211 Y14.4351 
G01 X-10.4569 Y14.2709 
G01 X-10.3204 Y14.0830 
G01 X-10.2149 Y13.8760 
G01 X-10.1431 Y13.6551 
G01 X-10.1068 Y13.4257 
G00 Z2.5400 
G00 X-5.1284 Y13.4257 
G01 Z-0.1000 F254.00 
G01 X-5.1284 Y11.2123 F200.00 
G01 X-5.1647 Y10.9829 
G01 X-5.2365 Y10.7620 
G01 X-5.3420 Y10.5550 
G01 X-5.4785 Y10.3671 
G01 X-5.6427 Y10.2029 
G01 X-5.8306 Y10.0664 
G01 X-6.0376 Y9.9609 
G01 X-6.2585 Y9.8891 
G01 X-6.4879 Y9.8528 
G01 X-6.7201 Y9.8528 
G01 X-6.9495 Y9.8891 
G01 X-7.1704 Y9.9609 
G01 X-7.3774 Y10.0664 
G01 X-7.5653 Y10.2029 
G01 X-7.7295 Y10.3671 
G01 X-7.8660 Y10.5550 
G01 X-7.9715 Y10.7620 
G01 X-8.0433 Y10.9829 
G01 X-8.0796 Y11.2123 
G01 X-8.0796 Y13.4257 
G01 X-8.0433 Y13.6551 
G01 X-7.9715 Y13.8760 
G01 X-7.8660 Y14.0830 
G01 X-7.7295 Y14.2709 
G01 X-7.5653 Y14.4351 
G01 X-7.3774 Y14.5716 
G01 X-7.1704 Y14.6771 
G01 X-6.9495 Y14.7489 
G01 X-6.7201 Y14.7852 
G01 X-6.4879 Y14.7852 
G01 X-6.2585 Y14.7489 
G01 X-6.0376 Y14.6771 
G01 X-5.8306 Y14.5716 
G01 X-5.6427 Y14.4351 
G01 X-5.4785 Y14.2709 
G01 X-5.3420 Y14.0830 
G01 X-5.2365 Y13.8760 
G01 X-5.1647 Y13.6551 
G01 X-5.1284 Y13.4257 
G00 Z2.5400 
G00 X-6.8350 Y61.1159 
G01 Z-0.1000 F254.00 
G01 X-6.8350 Y62.8361 F200.00 
G01 X-6.8043 Y63.0300 
G01 X-6.7436 Y63.2167 
G01 X-6.6545 Y63.3916 
G01 X-6.5392 Y63.5504 
G01 X-6.4004 Y63.6892 
G01 X-6.2416 Y63.8045 
G01 X-6.0667 Y63.8936 
G01 X-5.8800 Y63.9543 
G01 X-5.6861 Y63.9850 
G01 X-5.4899 Y63.9850 
G01 X-5.2960 Y63.9543 
G01 X-5.1093 Y63.8936 
G01 X-4.9344 Y63.8045 
G01 X-4.7756 Y63.6892 
G01 X-4.6368 Y63.5504 
G01 X-4.5215 Y63.3916 
G01 X-4.4324 Y63.2167 
G01 X-4.3717 Y63.0300 
G01 X-4.3410 Y62.8361 
G01 X-4.3410 Y61.1159 
G01 X-4.3717 Y60.9220 
G01 X-4.4324 Y60.7353 
G01 X-4.5215 Y60.5604 
G01 X-4.6368 Y60.4016 
G01 X-4.7756 Y60.2628 
G01 X-4.9344 Y60.1475 
G01 X-5.1093 Y60.0584 
G01 X-5.2960 Y59.9977 
G01 X-5.4899 Y59.9670 
G01 X-5.6861 Y59.9670 
G01 X-5.8800 Y59.9977 
G01 X-6.0667 Y60.0584 
G01 X-6.2416 Y60.1475 
G01 X-6.4004 Y60.2628 
G01 X-6.5392 Y60.4016 
G01 X-6.6545 Y60.5604 
G01 X-6.7436 Y60.7353 
G01 X-6.8043 Y60.9220 
G01 X-6.8350 Y61.1159 
G00 Z2.5400 
G00 X-9.3750 Y61.1159 
G01 Z-0.1000 F254.00 
G01 X-9.3750 Y62.8361 F200.00 
G01 X-9.3443 Y63.0300 
G01 X-9.2836 Y63.2167 
G01 X-9.1945 Y63.3916 
G01 X-9.0792 Y63.5504 
G01 X-8.9404 Y63.6892 
G01 X-8.7816 Y63.8045 
G01 X-8.6067 Y63.8936 
G01 X-8.4200 Y63.9543 
G01 X-8.2261 Y63.9850 
G01 X-8.0299 Y63.9850 
G01 X-7.8360 Y63.9543 
G01 X-7.6493 Y63.8936 
G01 X-7.4744 Y63.8045 
G01 X-7.3156 Y63.6892 
G01 X-7.1768 Y63.5504 
G01 X-7.0615 Y63.3916 
G01 X-6.9724 Y63.2167 
G01 X-6.9117 Y63.0300 
G01 X-6.8810 Y62.8361 
G01 X-6.8810 Y61.1159 
G01 X-6.9117 Y60.9220 
G01 X-6.9724 Y60.7353 
G01 X-7.0615 Y60.5604 
G01 X-7.1768 Y60.4016 
G01 X-7.3156 Y60.2628 
G01 X-7.4744 Y60.1475 
G01 X-7.6493 Y60.0584 
G01 X-7.8360 Y59.9977 
G01 X-8.0299 Y59.9670 
G01 X-8.2261 Y59.9670 
G01 X-8.4200 Y59.9977 
G01 X-8.6067 Y60.0584 
G01 X-8.7816 Y60.1475 
G01 X-8.9404 Y60.2628 
G01 X-9.0792 Y60.4016 
G01 X-9.1945 Y60.5604 
G01 X-9.2836 Y60.7353 
G01 X-9.3443 Y60.9220 
G01 X-9.3750 Y61.1159 
G00 Z2.5400 
G00 X-11.9150 Y61.1159 
G01 Z-0.1000 F254.00 
G01 X-11.9150 Y62.8361 F200.00 
G01 X-11.8843 Y63.0300 
G01 X-11.8236 Y63.2167 
G01 X-11.7345 Y63.3916 
G01 X-11.6192 Y63.5504 
G01 X-11.4804 Y63.6892 
G01 X-11.3216 Y63.8045 
G01 X-11.1467 Y63.8936 
G01 X-10.9600 Y63.9543 
G01 X-10.7661 Y63.9850 
G01 X-10.5699 Y63.9850 
G01 X-10.3760 Y63.9543 
G01 X-10.1893 Y63.8936 
G01 X-10.0144 Y63.8045 
G01 X-9.8556 Y63.6892 
G01 X-9.7168 Y63.5504 
G01 X-9.6015 Y63.3916 
G01 X-9.5124 Y63.2167 
G01 X-9.4517 Y63.0300 
G01 X-9.4210 Y62.8361 
G01 X-9.4210 Y61.1159 
G01 X-9.4517 Y60.9220 
G01 X-9.5124 Y60.7353 
G01 X-9.6015 Y60.5604 
G01 X-9.7168 Y60.4016 
G01 X-9.8556 Y60.2628 
G01 X-10.0144 Y60.1475 
G01 X-10.1893 Y60.0584 
G01 X-10.3760 Y59.9977 
G01 X-10.5699 Y59.9670 
G01 X-10.7661 Y59.9670 
G01 X-10.9600 Y59.9977 
G01 X-11.1467 Y60.0584 
G01 X-11.3216 Y60.1475 
G01 X-11.4804 Y60.2628 
G01 X-11.6192 Y60.4016 
G01 X-11.7345 Y60.5604 
G01 X-11.8236 Y60.7353 
G01 X-11.8843 Y60.9220 
G01 X-11.9150 Y61.1159 
G00 Z2.5400 
G00 X-24.0260 Y62.9631 
G01 Z-0.1000 F254.00 
G01 X-24.0260 Y61.2429 F200.00 
G01 X-24.0567 Y61.0490 
G01 X-24.1174 Y60.8623 
G01 X-24.2065 Y60.6874 
G01 X-24.3218 Y60.5286 
G01 X-24.4606 Y60.3898 
G01 X-24.6194 Y60.2745 
G01 X-24.7943 Y60.1854 
G01 X-24.9810 Y60.1247 
G01 X-25.1749 Y60.0940 
G01 X-25.3711 Y60.0940 
G01 X-25.5650 Y60.1247 
G01 X-25.7517 Y60.1854 
G01 X-25.9266 Y60.2745 
G01 X-26.0854 Y60.3898 
G01 X-26.2242 Y60.5286 
G01 X-26.3395 Y60.6874 
G01 X-26.4286 Y60.8623 
G01 X-26.4893 Y61.0490 
G01 X-26.5200 Y61.2429 
G01 X-26.5200 Y62.9631 
G01 X-26.4893 Y63.1570 
G01 X-26.4286 Y63.3437 
G01 X-26.3395 Y63.5186 
G01 X-26.2242 Y63.6774 
G01 X-26.0854 Y63.8162 
G01 X-25.9266 Y63.9315 
G01 X-25.7517 Y64.0206 
G01 X-25.5650 Y64.0813 
G01 X-25.3711 Y64.1120 
G01 X-25.1749 Y64.1120 
G01 X-24.9810 Y64.0813 
G01 X-24.7943 Y64.0206 
G01 X-24.6194 Y63.9315 
G01 X-24.4606 Y63.8162 
G01 X-24.3218 Y63.6774 
G01 X-24.2065 Y63.5186 
G01 X-24.1174 Y63.3437 
G01 X-24.0567 Y63.1570 
G01 X-24.0260 Y62.9631 
G00 Z2.5400 
G00 X-21.4860 Y62.9631 
G01 Z-0.1000 F254.00 
G01 X-21.4860 Y61.2429 F200.00 
G01 X-21.5167 Y61.0490 
G01 X-21.5774 Y60.8623 
G01 X-21.6665 Y60.6874 
G01 X-21.7818 Y60.5286 
G01 X-21.9206 Y60.3898 
G01 X-22.0794 Y60.2745 
G01 X-22.2543 Y60.1854 
G01 X-22.4410 Y60.1247 
G01 X-22.6349 Y60.0940 
G01 X-22.8311 Y60.0940 
G01 X-23.0250 Y60.1247 
G01 X-23.2117 Y60.1854 
G01 X-23.3866 Y60.2745 
G01 X-23.5454 Y60.3898 
G01 X-23.6842 Y60.5286 
G01 X-23.7995 Y60.6874 
G01 X-23.8886 Y60.8623 
G01 X-23.9493 Y61.0490 
G01 X-23.9800 Y61.2429 
G01 X-23.9800 Y62.9631 
G01 X-23.9493 Y63.1570 
G01 X-23.8886 Y63.3437 
G01 X-23.7995 Y63.5186 
G01 X-23.6842 Y63.6774 
G01 X-23.5454 Y63.8162 
G01 X-23.3866 Y63.9315 
G01 X-23.2117 Y64.0206 
G01 X-23.0250 Y64.0813 
G01 X-22.8311 Y64.1120 
G01 X-22.6349 Y64.1120 
G01 X-22.4410 Y64.0813 
G01 X-22.2543 Y64.0206 
G01 X-22.0794 Y63.9315 
G01 X-21.9206 Y63.8162 
G01 X-21.7818 Y63.6774 
G01 X-21.6665 Y63.5186 
G01 X-21.5774 Y63.3437 
G01 X-21.5167 Y63.1570 
G01 X-21.4860 Y62.9631 
G00 Z2.5400 
G00 X-18.9460 Y62.9631 
G01 Z-0.1000 F254.00 
G01 X-18.9460 Y61.2429 F200.00 
G01 X-18.9767 Y61.0490 
G01 X-19.0374 Y60.8623 
G01 X-19.1265 Y60.6874 
G01 X-19.2418 Y60.5286 
G01 X-19.3806 Y60.3898 
G01 X-19.5394 Y60.2745 
G01 X-19.7143 Y60.1854 
G01 X-19.9010 Y60.1247 
G01 X-20.0949 Y60.0940 
G01 X-20.2911 Y60.0940 
G01 X-20.4850 Y60.1247 
G01 X-20.6717 Y60.1854 
G01 X-20.8466 Y60.2745 
G01 X-21.0054 Y60.3898 
G01 X-21.1442 Y60.5286 
G01 X-21.2595 Y60.6874 
G01 X-21.3486 Y60.8623 
G01 X-21.4093 Y61.0490 
G01 X-21.4400 Y61.2429 
G01 X-21.4400 Y62.9631 
G01 X-21.4093 Y63.1570 
G01 X-21.3486 Y63.3437 
G01 X-21.2595 Y63.5186 
G01 X-21.1442 Y63.6774 
G01 X-21.0054 Y63.8162 
G01 X-20.8466 Y63.9315 
G01 X-20.6717 Y64.0206 
G01 X-20.4850 Y64.0813 
G01 X-20.2911 Y64.1120 
G01 X-20.0949 Y64.1120 
G01 X-19.9010 Y64.0813 
G01 X-19.7143 Y64.0206 
G01 X-19.5394 Y63.9315 
G01 X-19.3806 Y63.8162 
G01 X-19.2418 Y63.6774 
G01 X-19.1265 Y63.5186 
G01 X-19.0374 Y63.3437 
G01 X-18.9767 Y63.1570 
G01 X-18.9460 Y62.9631 
G00 Z2.5400 
G00 X-16.4060 Y62.9631 
G01 Z-0.1000 F254.00 
G01 X-16.4060 Y61.2429 F200.00 
G01 X-16.4367 Y61.0490 
G01 X-16.4974 Y60.8623 
G01 X-16.5865 Y60.6874 
G01 X-16.7018 Y60.5286 
G01 X-16.8406 Y60.3898 
G01 X-16.9994 Y60.2745 
G01 X-17.1743 Y60.1854 
G01 X-17.3610 Y60.1247 
G01 X-17.5549 Y60.0940 
G01 X-17.7511 Y60.0940 
G01 X-17.9450 Y60.1247 
G01 X-18.1317 Y60.1854 
G01 X-18.3066 Y60.2745 
G01 X-18.4654 Y60.3898 
G01 X-18.6042 Y60.5286 
G01 X-18.7195 Y60.6874 
G01 X-18.8086 Y60.8623 
G01 X-18.8693 Y61.0490 
G01 X-18.9000 Y61.2429 
G01 X-18.9000 Y62.9631 
G01 X-18.8693 Y63.1570 
G01 X-18.8086 Y63.3437 
G01 X-18.7195 Y63.5186 
G01 X-18.6042 Y63.6774 
G01 X-18.4654 Y63.8162 
G01 X-18.3066 Y63.9315 
G01 X-18.1317 Y64.0206 
G01 X-17.9450 Y64.0813 
G01 X-17.7511 Y64.1120 
G01 X-17.5549 Y64.1120 
G01 X-17.3610 Y64.0813 
G01 X-17.1743 Y64.0206 
G01 X-16.9994 Y63.9315 
G01 X-16.8406 Y63.8162 
G01 X-16.7018 Y63.6774 
G01 X-16.5865 Y63.5186 
G01 X-16.4974 Y63.3437 
G01 X-16.4367 Y63.1570 
G01 X-16.4060 Y62.9631 
G00 Z2.5400 
G00 X-13.8660 Y62.9631 
G01 Z-0.1000 F254.00 
G01 X-13.8660 Y61.2429 F200.00 
G01 X-13.8967 Y61.0490 
G01 X-13.9574 Y60.8623 
G01 X-14.0465 Y60.6874 
G01 X-14.1618 Y60.5286 
G01 X-14.3006 Y60.3898 
G01 X-14.4594 Y60.2745 
G01 X-14.6343 Y60.1854 
G01 X-14.8210 Y60.1247 
G01 X-15.0149 Y60.0940 
G01 X-15.2111 Y60.0940 
G01 X-15.4050 Y60.1247 
G01 X-15.5917 Y60.1854 
G01 X-15.7666 Y60.2745 
G01 X-15.9254 Y60.3898 
G01 X-16.0642 Y60.5286 
G01 X-16.1795 Y60.6874 
G01 X-16.2686 Y60.8623 
G01 X-16.3293 Y61.0490 
G01 X-16.3600 Y61.2429 
G01 X-16.3600 Y62.9631 
G01 X-16.3293 Y63.1570 
G01 X-16.2686 Y63.3437 
G01 X-16.1795 Y63.5186 
G01 X-16.0642 Y63.6774 
G01 X-15.9254 Y63.8162 
G01 X-15.7666 Y63.9315 
G01 X-15.5917 Y64.0206 
G01 X-15.4050 Y64.0813 
G01 X-15.2111 Y64.1120 
G01 X-15.0149 Y64.1120 
G01 X-14.8210 Y64.0813 
G01 X-14.6343 Y64.0206 
G01 X-14.4594 Y63.9315 
G01 X-14.3006 Y63.8162 
G01 X-14.1618 Y63.6774 
G01 X-14.0465 Y63.5186 
G01 X-13.9574 Y63.3437 
G01 X-13.8967 Y63.1570 
G01 X-13.8660 Y62.9631 
G00 Z2.5400 
G00 X-24.2546 Y56.6559 
G01 Z-0.1000 F254.00 
G01 X-24.2546 Y55.1549 F200.00 
G01 X-24.2828 Y54.9768 
G01 X-24.3385 Y54.8053 
G01 X-24.4204 Y54.6447 
G01 X-24.5263 Y54.4988 
G01 X-24.6538 Y54.3713 
G01 X-24.7997 Y54.2654 
G01 X-24.9603 Y54.1835 
G01 X-25.1318 Y54.1278 
G01 X-25.3099 Y54.0996 
G01 X-25.4901 Y54.0996 
G01 X-25.6682 Y54.1278 
G01 X-25.8397 Y54.1835 
G01 X-26.0003 Y54.2654 
G01 X-26.1462 Y54.3713 
G01 X-26.2737 Y54.4988 
G01 X-26.3796 Y54.6447 
G01 X-26.4615 Y54.8053 
G01 X-26.5172 Y54.9768 
G01 X-26.5454 Y55.1549 
G01 X-26.5454 Y56.6559 
G01 X-26.5172 Y56.8340 
G01 X-26.4615 Y57.0055 
G01 X-26.3796 Y57.1661 
G01 X-26.2737 Y57.3120 
G01 X-26.1462 Y57.4395 
G01 X-26.0003 Y57.5454 
G01 X-25.8397 Y57.6273 
G01 X-25.6682 Y57.6830 
G01 X-25.4901 Y57.7112 
G01 X-25.3099 Y57.7112 
G01 X-25.1318 Y57.6830 
G01 X-24.9603 Y57.6273 
G01 X-24.7997 Y57.5454 
G01 X-24.6538 Y57.4395 
G01 X-24.5263 Y57.3120 
G01 X-24.4204 Y57.1661 
G01 X-24.3385 Y57.0055 
G01 X-24.2828 Y56.8340 
G01 X-24.2546 Y56.6559 
G00 Z2.5400 
G00 X-21.7146 Y56.6559 
G01 Z-0.1000 F254.00 
G01 X-21.7146 Y55.1549 F200.00 
G01 X-21.7428 Y54.9768 
G01 X-21.7985 Y54.8053 
G01 X-21.8804 Y54.6447 
G01 X-21.9863 Y54.4988 
G01 X-22.1138 Y54.3713 
G01 X-22.2597 Y54.2654 
G01 X-22.4203 Y54.1835 
G01 X-22.5918 Y54.1278 
G01 X-22.7699 Y54.0996 
G01 X-22.9501 Y54.0996 
G01 X-23.1282 Y54.1278 
G01 X-23.2997 Y54.1835 
G01 X-23.4603 Y54.2654 
G01 X-23.6062 Y54.3713 
G01 X-23.7337 Y54.4988 
G01 X-23.8396 Y54.6447 
G01 X-23.9215 Y54.8053 
G01 X-23.9772 Y54.9768 
G01 X-24.0054 Y55.1549 
G01 X-24.0054 Y56.6559 
G01 X-23.9772 Y56.8340 
G01 X-23.9215 Y57.0055 
G01 X-23.8396 Y57.1661 
G01 X-23.7337 Y57.3120 
G01 X-23.6062 Y57.4395 
G01 X-23.4603 Y57.5454 
G01 X-23.2997 Y57.6273 
G01 X-23.1282 Y57.6830 
G01 X-22.9501 Y57.7112 
G01 X-22.7699 Y57.7112 
G01 X-22.5918 Y57.6830 
G01 X-22.4203 Y57.6273 
G01 X-22.2597 Y57.5454 
G01 X-22.1138 Y57.4395 
G01 X-21.9863 Y57.3120 
G01 X-21.8804 Y57.1661 
G01 X-21.7985 Y57.0055 
G01 X-21.7428 Y56.8340 
G01 X-21.7146 Y56.6559 
G00 Z2.5400 
G00 X-24.0054 Y46.2141 
G01 Z-0.1000 F254.00 
G01 X-24.0054 Y47.7151 F200.00 
G01 X-23.9772 Y47.8932 
G01 X-23.9215 Y48.0647 
G01 X-23.8396 Y48.2253 
G01 X-23.7337 Y48.3712 
G01 X-23.6062 Y48.4987 
G01 X-23.4603 Y48.6046 
G01 X-23.2997 Y48.6865 
G01 X-23.1282 Y48.7422 
G01 X-22.9501 Y48.7704 
G01 X-22.7699 Y48.7704 
G01 X-22.5918 Y48.7422 
G01 X-22.4203 Y48.6865 
G01 X-22.2597 Y48.6046 
G01 X-22.1138 Y48.4987 
G01 X-21.9863 Y48.3712 
G01 X-21.8804 Y48.2253 
G01 X-21.7985 Y48.0647 
G01 X-21.7428 Y47.8932 
G01 X-21.7146 Y47.7151 
G01 X-21.7146 Y46.2141 
G01 X-21.7428 Y46.0360 
G01 X-21.7985 Y45.8645 
G01 X-21.8804 Y45.7039 
G01 X-21.9863 Y45.5580 
G01 X-22.1138 Y45.4305 
G01 X-22.2597 Y45.3246 
G01 X-22.4203 Y45.2427 
G01 X-22.5918 Y45.1870 
G01 X-22.7699 Y45.1588 
G01 X-22.9501 Y45.1588 
G01 X-23.1282 Y45.1870 
G01 X-23.2997 Y45.2427 
G01 X-23.4603 Y45.3246 
G01 X-23.6062 Y45.4305 
G01 X-23.7337 Y45.5580 
G01 X-23.8396 Y45.7039 
G01 X-23.9215 Y45.8645 
G01 X-23.9772 Y46.0360 
G01 X-24.0054 Y46.2141 
G00 Z2.5400 
G00 X-26.5454 Y46.2141 
G01 Z-0.1000 F254.00 
G01 X-26.5454 Y47.7151 F200.00 
G01 X-26.5172 Y47.8932 
G01 X-26.4615 Y48.0647 
G01 X-26.3796 Y48.2253 
G01 X-26.2737 Y48.3712 
G01 X-26.1462 Y48.4987 
G01 X-26.0003 Y48.6046 
G01 X-25.8397 Y48.6865 
G01 X-25.6682 Y48.7422 
G01 X-25.4901 Y48.7704 
G01 X-25.3099 Y48.7704 
G01 X-25.1318 Y48.7422 
G01 X-24.9603 Y48.6865 
G01 X-24.7997 Y48.6046 
G01 X-24.6538 Y48.4987 
G01 X-24.5263 Y48.3712 
G01 X-24.4204 Y48.2253 
G01 X-24.3385 Y48.0647 
G01 X-24.2828 Y47.8932 
G01 X-24.2546 Y47.7151 
G01 X-24.2546 Y46.2141 
G01 X-24.2828 Y46.0360 
G01 X-24.3385 Y45.8645 
G01 X-24.4204 Y45.7039 
G01 X-24.5263 Y45.5580 
G01 X-24.6538 Y45.4305 
G01 X-24.7997 Y45.3246 
G01 X-24.9603 Y45.2427 
G01 X-25.1318 Y45.1870 
G01 X-25.3099 Y45.1588 
G01 X-25.4901 Y45.1588 
G01 X-25.6682 Y45.1870 
G01 X-25.8397 Y45.2427 
G01 X-26.0003 Y45.3246 
G01 X-26.1462 Y45.4305 
G01 X-26.2737 Y45.5580 
G01 X-26.3796 Y45.7039 
G01 X-26.4615 Y45.8645 
G01 X-26.5172 Y46.0360 
G01 X-26.5454 Y46.2141 
G00 Z2.5400 
G00 X-14.8566 Y56.5289 
G01 Z-0.1000 F254.00 
G01 X-14.8566 Y55.0279 F200.00 
G01 X-14.8848 Y54.8498 
G01 X-14.9405 Y54.6783 
G01 X-15.0224 Y54.5177 
G01 X-15.1283 Y54.3718 
G01 X-15.2558 Y54.2443 
G01 X-15.4017 Y54.1384 
G01 X-15.5623 Y54.0565 
G01 X-15.7338 Y54.0008 
G01 X-15.9119 Y53.9726 
G01 X-16.0921 Y53.9726 
G01 X-16.2702 Y54.0008 
G01 X-16.4417 Y54.0565 
G01 X-16.6023 Y54.1384 
G01 X-16.7482 Y54.2443 
G01 X-16.8757 Y54.3718 
G01 X-16.9816 Y54.5177 
G01 X-17.0635 Y54.6783 
G01 X-17.1192 Y54.8498 
G01 X-17.1474 Y55.0279 
G01 X-17.1474 Y56.5289 
G01 X-17.1192 Y56.7070 
G01 X-17.0635 Y56.8785 
G01 X-16.9816 Y57.0391 
G01 X-16.8757 Y57.1850 
G01 X-16.7482 Y57.3125 
G01 X-16.6023 Y57.4184 
G01 X-16.4417 Y57.5003 
G01 X-16.2702 Y57.5560 
G01 X-16.0921 Y57.5842 
G01 X-15.9119 Y57.5842 
G01 X-15.7338 Y57.5560 
G01 X-15.5623 Y57.5003 
G01 X-15.4017 Y57.4184 
G01 X-15.2558 Y57.3125 
G01 X-15.1283 Y57.1850 
G01 X-15.0224 Y57.0391 
G01 X-14.9405 Y56.8785 
G01 X-14.8848 Y56.7070 
G01 X-14.8566 Y56.5289 
G00 Z2.5400 
G00 X-12.3166 Y56.5289 
G01 Z-0.1000 F254.00 
G01 X-12.3166 Y55.0279 F200.00 
G01 X-12.3448 Y54.8498 
G01 X-12.4005 Y54.6783 
G01 X-12.4824 Y54.5177 
G01 X-12.5883 Y54.3718 
G01 X-12.7158 Y54.2443 
G01 X-12.8617 Y54.1384 
G01 X-13.0223 Y54.0565 
G01 X-13.1938 Y54.0008 
G01 X-13.3719 Y53.9726 
G01 X-13.5521 Y53.9726 
G01 X-13.7302 Y54.0008 
G01 X-13.9017 Y54.0565 
G01 X-14.0623 Y54.1384 
G01 X-14.2082 Y54.2443 
G01 X-14.3357 Y54.3718 
G01 X-14.4416 Y54.5177 
G01 X-14.5235 Y54.6783 
G01 X-14.5792 Y54.8498 
G01 X-14.6074 Y55.0279 
G01 X-14.6074 Y56.5289 
G01 X-14.5792 Y56.7070 
G01 X-14.5235 Y56.8785 
G01 X-14.4416 Y57.0391 
G01 X-14.3357 Y57.1850 
G01 X-14.2082 Y57.3125 
G01 X-14.0623 Y57.4184 
G01 X-13.9017 Y57.5003 
G01 X-13.7302 Y57.5560 
G01 X-13.5521 Y57.5842 
G01 X-13.3719 Y57.5842 
G01 X-13.1938 Y57.5560 
G01 X-13.0223 Y57.5003 
G01 X-12.8617 Y57.4184 
G01 X-12.7158 Y57.3125 
G01 X-12.5883 Y57.1850 
G01 X-12.4824 Y57.0391 
G01 X-12.4005 Y56.8785 
G01 X-12.3448 Y56.7070 
G01 X-12.3166 Y56.5289 
G00 Z2.5400 
G00 X-9.1370 Y55.2887 
G01 Z-0.1000 F254.00 
G01 X-9.2273 Y55.3790 F200.00 
G01 X-9.2911 Y55.4896 
G01 X-9.3242 Y55.6129 
G01 X-9.3242 Y57.4171 
G01 X-9.2911 Y57.5404 
G01 X-9.2273 Y57.6510 
G01 X-9.1370 Y57.7413 
G01 X-9.0264 Y57.8051 
G01 X-8.9031 Y57.8382 
G01 X-7.0989 Y57.8382 
G01 X-6.9756 Y57.8051 
G01 X-6.8650 Y57.7413 
G01 X-6.7747 Y57.6510 
G01 X-6.7109 Y57.5404 
G01 X-6.6778 Y57.4171 
G01 X-6.6778 Y55.6129 
G01 X-6.7109 Y55.4896 
G01 X-6.7747 Y55.3790 
G01 X-6.8650 Y55.2887 
G01 X-6.9407 Y55.2450 
G01 X-6.8650 Y55.2013 
G01 X-6.7747 Y55.1110 
G01 X-6.7109 Y55.0004 
G01 X-6.6778 Y54.8771 
G01 X-6.6778 Y53.0729 
G01 X-6.7109 Y52.9496 
G01 X-6.7747 Y52.8390 
G01 X-6.8650 Y52.7487 
G01 X-6.9407 Y52.7050 
G01 X-6.8650 Y52.6613 
G01 X-6.7747 Y52.5710 
G01 X-6.7109 Y52.4604 
G01 X-6.6778 Y52.3371 
G01 X-6.6778 Y50.5329 
G01 X-6.7109 Y50.4096 
G01 X-6.7747 Y50.2990 
G01 X-6.8650 Y50.2087 
G01 X-6.9407 Y50.1650 
G01 X-6.8650 Y50.1213 
G01 X-6.7747 Y50.0310 
G01 X-6.7109 Y49.9204 
G01 X-6.6778 Y49.7971 
G01 X-6.6778 Y47.9929 
G01 X-6.7109 Y47.8696 
G01 X-6.7747 Y47.7590 
G01 X-6.8650 Y47.6687 
G01 X-6.9756 Y47.6049 
G01 X-7.0989 Y47.5718 
G01 X-8.9031 Y47.5718 
G01 X-9.0264 Y47.6049 
G01 X-9.1370 Y47.6687 
G01 X-9.2273 Y47.7590 
G01 X-9.2911 Y47.8696 
G01 X-9.3242 Y47.9929 
G01 X-9.3242 Y49.7971 
G01 X-9.2911 Y49.9204 
G01 X-9.2273 Y50.0310 
G01 X-9.1370 Y50.1213 
G01 X-9.0613 Y50.1650 
G01 X-9.1370 Y50.2087 
G01 X-9.2273 Y50.2990 
G01 X-9.2911 Y50.4096 
G01 X-9.3242 Y50.5329 
G01 X-9.3242 Y52.3371 
G01 X-9.2911 Y52.4604 
G01 X-9.2273 Y52.5710 
G01 X-9.1370 Y52.6613 
G01 X-9.0613 Y52.7050 
G01 X-9.1370 Y52.7487 
G01 X-9.2273 Y52.8390 
G01 X-9.2911 Y52.9496 
G01 X-9.3242 Y53.0729 
G01 X-9.3242 Y54.8771 
G01 X-9.2911 Y55.0004 
G01 X-9.2273 Y55.1110 
G01 X-9.1370 Y55.2013 
G01 X-9.0613 Y55.2450 
G01 X-9.1370 Y55.2887 
G00 Z2.5400 
G00 X-14.4851 Y38.8182 
G01 Z-0.1000 F254.00 
G01 X-14.5489 Y38.9288 F200.00 
G01 X-14.5820 Y39.0521 
G01 X-14.5820 Y40.9579 
G01 X-14.5489 Y41.0812 
G01 X-14.4851 Y41.1918 
G01 X-14.3948 Y41.2821 
G01 X-14.2842 Y41.3459 
G01 X-14.1608 Y41.3790 
G01 X-12.2551 Y41.3790 
G01 X-12.1318 Y41.3459 
G01 X-12.0212 Y41.2821 
G01 X-11.9309 Y41.1918 
G01 X-11.8671 Y41.0812 
G01 X-11.8340 Y40.9579 
G01 X-11.8340 Y39.0521 
G01 X-11.8671 Y38.9288 
G01 X-11.9309 Y38.8182 
G01 X-12.0141 Y38.7350 
G01 X-11.9309 Y38.6518 
G01 X-11.8671 Y38.5412 
G01 X-11.8340 Y38.4179 
G01 X-11.8340 Y36.5121 
G01 X-11.8671 Y36.3888 
G01 X-11.9309 Y36.2782 
G01 X-12.0212 Y36.1879 
G01 X-12.1318 Y36.1241 
G01 X-12.2551 Y36.0910 
G01 X-14.1608 Y36.0910 
G01 X-14.2842 Y36.1241 
G01 X-14.3948 Y36.1879 
G01 X-14.4851 Y36.2782 
G01 X-14.5489 Y36.3888 
G01 X-14.5820 Y36.5121 
G01 X-14.5820 Y38.4179 
G01 X-14.5489 Y38.5412 
G01 X-14.4851 Y38.6518 
G01 X-14.4019 Y38.7350 
G01 X-14.4851 Y38.8182 
G00 Z2.5400 
G00 X-4.3850 Y2.8910 
G01 Z-0.1000 F254.00 
G01 X-4.3850 Y3.1090 F200.00 
G01 X-4.3509 Y3.3243 
G01 X-4.2835 Y3.5317 
G01 X-4.1846 Y3.7259 
G01 X-4.0564 Y3.9023 
G01 X-3.9023 Y4.0564 
G01 X-3.7259 Y4.1846 
G01 X-3.5317 Y4.2835 
G01 X-3.3243 Y4.3509 
G01 X-3.1090 Y4.3850 
G01 X-2.8910 Y4.3850 
G01 X-2.6757 Y4.3509 
G01 X-2.4683 Y4.2835 
G01 X-2.2741 Y4.1846 
G01 X-2.0977 Y4.0564 
G01 X-1.9436 Y3.9023 
G01 X-1.8154 Y3.7259 
G01 X-1.7165 Y3.5317 
G01 X-1.6491 Y3.3243 
G01 X-1.6150 Y3.1090 
G01 X-1.6150 Y2.8910 
G01 X-1.6491 Y2.6757 
G01 X-1.7165 Y2.4683 
G01 X-1.8154 Y2.2741 
G01 X-1.9436 Y2.0977 
G01 X-2.0977 Y1.9436 
G01 X-2.2741 Y1.8154 
G01 X-2.4683 Y1.7165 
G01 X-2.6757 Y1.6491 
G01 X-2.8910 Y1.6150 
G01 X-3.1090 Y1.6150 
G01 X-3.3243 Y1.6491 
G01 X-3.5317 Y1.7165 
G01 X-3.7259 Y1.8154 
G01 X-3.9023 Y1.9436 
G01 X-4.0564 Y2.0977 
G01 X-4.1846 Y2.2741 
G01 X-4.2835 Y2.4683 
G01 X-4.3509 Y2.6757 
G01 X-4.3850 Y2.8910 
G00 Z2.5400 
G00 X-29.3850 Y2.8910 
G01 Z-0.1000 F254.00 
G01 X-29.3850 Y3.1090 F200.00 
G01 X-29.3509 Y3.3243 
G01 X-29.2835 Y3.5317 
G01 X-29.1846 Y3.7259 
G01 X-29.0564 Y3.9023 
G01 X-28.9023 Y4.0564 
G01 X-28.7259 Y4.1846 
G01 X-28.5317 Y4.2835 
G01 X-28.3243 Y4.3509 
G01 X-28.1090 Y4.3850 
G01 X-27.8910 Y4.3850 
G01 X-27.6757 Y4.3509 
G01 X-27.4683 Y4.2835 
G01 X-27.2741 Y4.1846 
G01 X-27.0977 Y4.0564 
G01 X-26.9436 Y3.9023 
G01 X-26.8154 Y3.7259 
G01 X-26.7165 Y3.5317 
G01 X-26.6491 Y3.3243 
G01 X-26.6150 Y3.1090 
G01 X-26.6150 Y2.8910 
G01 X-26.6491 Y2.6757 
G01 X-26.7165 Y2.4683 
G01 X-26.8154 Y2.2741 
G01 X-26.9436 Y2.0977 
G01 X-27.0977 Y1.9436 
G01 X-27.2741 Y1.8154 
G01 X-27.4683 Y1.7165 
G01 X-27.6757 Y1.6491 
G01 X-27.8910 Y1.6150 
G01 X-28.1090 Y1.6150 
G01 X-28.3243 Y1.6491 
G01 X-28.5317 Y1.7165 
G01 X-28.7259 Y1.8154 
G01 X-28.9023 Y1.9436 
G01 X-29.0564 Y2.0977 
G01 X-29.1846 Y2.2741 
G01 X-29.2835 Y2.4683 
G01 X-29.3509 Y2.6757 
G01 X-29.3850 Y2.8910 
G00 Z2.5400 
G00 X-4.3850 Y66.8910 
G01 Z-0.1000 F254.00 
G01 X-4.3850 Y67.1090 F200.00 
G01 X-4.3509 Y67.3243 
G01 X-4.2835 Y67.5317 
G01 X-4.1846 Y67.7259 
G01 X-4.0564 Y67.9023 
G01 X-3.9023 Y68.0564 
G01 X-3.7259 Y68.1846 
G01 X-3.5317 Y68.2835 
G01 X-3.3243 Y68.3509 
G01 X-3.1090 Y68.3850 
G01 X-2.8910 Y68.3850 
G01 X-2.6757 Y68.3509 
G01 X-2.4683 Y68.2835 
G01 X-2.2741 Y68.1846 
G01 X-2.0977 Y68.0564 
G01 X-1.9436 Y67.9023 
G01 X-1.8154 Y67.7259 
G01 X-1.7165 Y67.5317 
G01 X-1.6491 Y67.3243 
G01 X-1.6150 Y67.1090 
G01 X-1.6150 Y66.8910 
G01 X-1.6491 Y66.6757 
G01 X-1.7165 Y66.4683 
G01 X-1.8154 Y66.2741 
G01 X-1.9436 Y66.0977 
G01 X-2.0977 Y65.9436 
G01 X-2.2741 Y65.8154 
G01 X-2.4683 Y65.7165 
G01 X-2.6757 Y65.6491 
G01 X-2.8910 Y65.6150 
G01 X-3.1090 Y65.6150 
G01 X-3.3243 Y65.6491 
G01 X-3.5317 Y65.7165 
G01 X-3.7259 Y65.8154 
G01 X-3.9023 Y65.9436 
G01 X-4.0564 Y66.0977 
G01 X-4.1846 Y66.2741 
G01 X-4.2835 Y66.4683 
G01 X-4.3509 Y66.6757 
G01 X-4.3850 Y66.8910 
G00 Z2.5400 
G00 X-29.3850 Y66.8910 
G01 Z-0.1000 F254.00 
G01 X-29.3850 Y67.1090 F200.00 
G01 X-29.3509 Y67.3243 
G01 X-29.2835 Y67.5317 
G01 X-29.1846 Y67.7259 
G01 X-29.0564 Y67.9023 
G01 X-28.9023 Y68.0564 
G01 X-28.7259 Y68.1846 
G01 X-28.5317 Y68.2835 
G01 X-28.3243 Y68.3509 
G01 X-28.1090 Y68.3850 
G01 X-27.8910 Y68.3850 
G01 X-27.6757 Y68.3509 
G01 X-27.4683 Y68.2835 
G01 X-27.2741 Y68.1846 
G01 X-27.0977 Y68.0564 
G01 X-26.9436 Y67.9023 
G01 X-26.8154 Y67.7259 
G01 X-26.7165 Y67.5317 
G01 X-26.6491 Y67.3243 
G01 X-26.6150 Y67.1090 
G01 X-26.6150 Y66.8910 
G01 X-26.6491 Y66.6757 
G01 X-26.7165 Y66.4683 
G01 X-26.8154 Y66.2741 
G01 X-26.9436 Y66.0977 
G01 X-27.0977 Y65.9436 
G01 X-27.2741 Y65.8154 
G01 X-27.4683 Y65.7165 
G01 X-27.6757 Y65.6491 
G01 X-27.8910 Y65.6150 
G01 X-28.1090 Y65.6150 
G01 X-28.3243 Y65.6491 
G01 X-28.5317 Y65.7165 
G01 X-28.7259 Y65.8154 
G01 X-28.9023 Y65.9436 
G01 X-29.0564 Y66.0977 
G01 X-29.1846 Y66.2741 
G01 X-29.2835 Y66.4683 
G01 X-29.3509 Y66.6757 
G01 X-29.3850 Y66.8910 
G00 Z2.5400 
G00 X-14.7320 Y47.9431 
G01 Z-0.1000 F254.00 
G01 X-14.7278 Y47.9560 F200.00 
G01 X-14.7362 Y47.9560 
G01 X-14.7320 Y47.9431 
G00 Z2.5400 
G00 X-20.8930 Y48.1775 
G01 Z-0.1000 F254.00 
G01 X-20.8930 Y49.6125 F200.00 
G01 X-20.8667 Y49.7448 
G01 X-20.8150 Y49.8695 
G01 X-20.7401 Y49.9817 
G01 X-20.6447 Y50.0771 
G01 X-20.5325 Y50.1520 
G01 X-20.4078 Y50.2037 
G01 X-20.2755 Y50.2300 
G01 X-18.8405 Y50.2300 
G01 X-18.7082 Y50.2037 
G01 X-18.5835 Y50.1520 
G01 X-18.4713 Y50.0771 
G01 X-18.3759 Y49.9817 
G01 X-18.3010 Y49.8695 
G01 X-18.2863 Y49.8340 
G01 X-11.9397 Y49.8340 
G01 X-11.9250 Y49.8695 
G01 X-11.8501 Y49.9817 
G01 X-11.7547 Y50.0771 
G01 X-11.6425 Y50.1520 
G01 X-11.5178 Y50.2037 
G01 X-11.3855 Y50.2300 
G01 X-9.9505 Y50.2300 
G01 X-9.8182 Y50.2037 
G01 X-9.6935 Y50.1520 
G01 X-9.5813 Y50.0771 
G01 X-9.4859 Y49.9817 
G01 X-9.4809 Y49.9741 
G01 X-9.4462 Y50.0577 
G01 X-9.3745 Y50.1650 
G01 X-9.4462 Y50.2723 
G01 X-9.4979 Y50.3970 
G01 X-9.5242 Y50.5293 
G01 X-9.5242 Y52.3407 
G01 X-9.4979 Y52.4730 
G01 X-9.4462 Y52.5977 
G01 X-9.3745 Y52.7050 
G01 X-9.4462 Y52.8123 
G01 X-9.4979 Y52.9370 
G01 X-9.5242 Y53.0693 
G01 X-9.5242 Y54.8807 
G01 X-9.4979 Y55.0130 
G01 X-9.4462 Y55.1377 
G01 X-9.3745 Y55.2450 
G01 X-9.4462 Y55.3523 
G01 X-9.4979 Y55.4770 
G01 X-9.5242 Y55.6093 
G01 X-9.5242 Y57.4207 
G01 X-9.4979 Y57.5530 
G01 X-9.4462 Y57.6777 
G01 X-9.3713 Y57.7899 
G01 X-9.2759 Y57.8853 
G01 X-9.1637 Y57.9602 
G01 X-9.0390 Y58.0119 
G01 X-8.9067 Y58.0382 
G01 X-7.0953 Y58.0382 
G01 X-6.9630 Y58.0119 
G01 X-6.8383 Y57.9602 
G01 X-6.7261 Y57.8853 
G01 X-6.6307 Y57.7899 
G01 X-6.5558 Y57.6777 
G01 X-6.5041 Y57.5530 
G01 X-6.4778 Y57.4207 
G01 X-6.4778 Y55.6093 
G01 X-6.5041 Y55.4770 
G01 X-6.5558 Y55.3523 
G01 X-6.6275 Y55.2450 
G01 X-6.5558 Y55.1377 
G01 X-6.5041 Y55.0130 
G01 X-6.4778 Y54.8807 
G01 X-6.4778 Y53.0693 
G01 X-6.5041 Y52.9370 
G01 X-6.5558 Y52.8123 
G01 X-6.6275 Y52.7050 
G01 X-6.5558 Y52.5977 
G01 X-6.5041 Y52.4730 
G01 X-6.4778 Y52.3407 
G01 X-6.4778 Y50.5293 
G01 X-6.5041 Y50.3970 
G01 X-6.5558 Y50.2723 
G01 X-6.6275 Y50.1650 
G01 X-6.5558 Y50.0577 
G01 X-6.5041 Y49.9330 
G01 X-6.4778 Y49.8007 
G01 X-6.4778 Y47.9893 
G01 X-6.5041 Y47.8570 
G01 X-6.5558 Y47.7323 
G01 X-6.6307 Y47.6201 
G01 X-6.7261 Y47.5247 
G01 X-6.8383 Y47.4498 
G01 X-6.9630 Y47.3981 
G01 X-7.0953 Y47.3718 
G01 X-8.9067 Y47.3718 
G01 X-9.0390 Y47.3981 
G01 X-9.1637 Y47.4498 
G01 X-9.2759 Y47.5247 
G01 X-9.3713 Y47.6201 
G01 X-9.4462 Y47.7323 
G01 X-9.4809 Y47.8159 
G01 X-9.4859 Y47.8083 
G01 X-9.5813 Y47.7129 
G01 X-9.6935 Y47.6380 
G01 X-9.8182 Y47.5863 
G01 X-9.9505 Y47.5600 
G01 X-11.3855 Y47.5600 
G01 X-11.5178 Y47.5863 
G01 X-11.6425 Y47.6380 
G01 X-11.7547 Y47.7129 
G01 X-11.8501 Y47.8083 
G01 X-11.9250 Y47.9205 
G01 X-11.9397 Y47.9560 
G01 X-12.1962 Y47.9560 
G01 X-12.1497 Y47.8130 
G01 X-12.1166 Y47.6039 
G01 X-12.1166 Y46.0713 
G01 X-12.1497 Y45.8621 
G01 X-12.2152 Y45.6607 
G01 X-12.3113 Y45.4721 
G01 X-12.4358 Y45.3007 
G01 X-12.5855 Y45.1510 
G01 X-12.7569 Y45.0265 
G01 X-12.9455 Y44.9304 
G01 X-13.1470 Y44.8649 
G01 X-13.3561 Y44.8318 
G01 X-13.5679 Y44.8318 
G01 X-13.7770 Y44.8649 
G01 X-13.9785 Y44.9304 
G01 X-14.1671 Y45.0265 
G01 X-14.3385 Y45.1510 
G01 X-14.4882 Y45.3007 
G01 X-14.6127 Y45.4721 
G01 X-14.7088 Y45.6607 
G01 X-14.7320 Y45.7321 
G01 X-14.7552 Y45.6607 
G01 X-14.8513 Y45.4721 
G01 X-14.9758 Y45.3007 
G01 X-15.1255 Y45.1510 
G01 X-15.2969 Y45.0265 
G01 X-15.4855 Y44.9304 
G01 X-15.6870 Y44.8649 
G01 X-15.8961 Y44.8318 
G01 X-16.1079 Y44.8318 
G01 X-16.3170 Y44.8649 
G01 X-16.5185 Y44.9304 
G01 X-16.7071 Y45.0265 
G01 X-16.8785 Y45.1510 
G01 X-17.0282 Y45.3007 
G01 X-17.1527 Y45.4721 
G01 X-17.2488 Y45.6607 
G01 X-17.3143 Y45.8621 
G01 X-17.3474 Y46.0713 
G01 X-17.3474 Y47.6039 
G01 X-17.3143 Y47.8130 
G01 X-17.2678 Y47.9560 
G01 X-18.2863 Y47.9560 
G01 X-18.3010 Y47.9205 
G01 X-18.3759 Y47.8083 
G01 X-18.4713 Y47.7129 
G01 X-18.5835 Y47.6380 
G01 X-18.7082 Y47.5863 
G01 X-18.8405 Y47.5600 
G01 X-20.2755 Y47.5600 
G01 X-20.4078 Y47.5863 
G01 X-20.5325 Y47.6380 
G01 X-20.6447 Y47.7129 
G01 X-20.7401 Y47.8083 
G01 X-20.8150 Y47.9205 
G01 X-20.8667 Y48.0452 
G01 X-20.8930 Y48.1775 
G00 Z2.5400 
G00 X-21.5146 Y56.6717 
G01 Z-0.1000 F254.00 
G01 X-21.5146 Y55.1391 F200.00 
G01 X-21.5477 Y54.9300 
G01 X-21.6132 Y54.7285 
G01 X-21.7093 Y54.5399 
G01 X-21.8338 Y54.3685 
G01 X-21.9835 Y54.2188 
G01 X-22.1549 Y54.0943 
G01 X-22.3435 Y53.9982 
G01 X-22.5450 Y53.9327 
G01 X-22.7541 Y53.8996 
G01 X-22.9659 Y53.8996 
G01 X-23.1750 Y53.9327 
G01 X-23.3765 Y53.9982 
G01 X-23.5651 Y54.0943 
G01 X-23.7365 Y54.2188 
G01 X-23.8862 Y54.3685 
G01 X-24.0107 Y54.5399 
G01 X-24.1068 Y54.7285 
G01 X-24.1300 Y54.7999 
G01 X-24.1532 Y54.7285 
G01 X-24.2493 Y54.5399 
G01 X-24.3738 Y54.3685 
G01 X-24.5235 Y54.2188 
G01 X-24.6949 Y54.0943 
G01 X-24.8835 Y53.9982 
G01 X-25.0850 Y53.9327 
G01 X-25.2941 Y53.8996 
G01 X-25.5059 Y53.8996 
G01 X-25.7150 Y53.9327 
G01 X-25.9165 Y53.9982 
G01 X-26.1051 Y54.0943 
G01 X-26.2765 Y54.2188 
G01 X-26.4262 Y54.3685 
G01 X-26.5507 Y54.5399 
G01 X-26.6468 Y54.7285 
G01 X-26.7123 Y54.9300 
G01 X-26.7454 Y55.1391 
G01 X-26.7454 Y56.6717 
G01 X-26.7123 Y56.8808 
G01 X-26.6468 Y57.0823 
G01 X-26.5507 Y57.2709 
G01 X-26.4262 Y57.4423 
G01 X-26.2765 Y57.5920 
G01 X-26.1051 Y57.7165 
G01 X-25.9165 Y57.8126 
G01 X-25.7150 Y57.8781 
G01 X-25.5059 Y57.9112 
G01 X-25.2941 Y57.9112 
G01 X-25.0850 Y57.8781 
G01 X-24.8835 Y57.8126 
G01 X-24.6949 Y57.7165 
G01 X-24.5235 Y57.5920 
G01 X-24.3738 Y57.4423 
G01 X-24.2493 Y57.2709 
G01 X-24.1532 Y57.0823 
G01 X-24.1300 Y57.0109 
G01 X-24.1068 Y57.0823 
G01 X-24.0107 Y57.2709 
G01 X-23.8862 Y57.4423 
G01 X-23.7365 Y57.5920 
G01 X-23.5651 Y57.7165 
G01 X-23.3765 Y57.8126 
G01 X-23.1750 Y57.8781 
G01 X-22.9659 Y57.9112 
G01 X-22.7541 Y57.9112 
G01 X-22.5450 Y57.8781 
G01 X-22.3435 Y57.8126 
G01 X-22.1549 Y57.7165 
G01 X-21.9835 Y57.5920 
G01 X-21.8338 Y57.4423 
G01 X-21.7093 Y57.2709 
G01 X-21.6132 Y57.0823 
G01 X-21.5477 Y56.8808 
G01 X-21.5146 Y56.6717 
G00 Z2.5400 
G00 X-14.7040 Y38.7915 
G01 Z-0.1000 F254.00 
G01 X-14.7557 Y38.9162 F200.00 
G01 X-14.7820 Y39.0485 
G01 X-14.7820 Y40.9615 
G01 X-14.7557 Y41.0938 
G01 X-14.7040 Y41.2185 
G01 X-14.6291 Y41.3307 
G01 X-14.5337 Y41.4261 
G01 X-14.4215 Y41.5010 
G01 X-14.2968 Y41.5527 
G01 X-14.1645 Y41.5790 
G01 X-12.2515 Y41.5790 
G01 X-12.1192 Y41.5527 
G01 X-11.9945 Y41.5010 
G01 X-11.8823 Y41.4261 
G01 X-11.7869 Y41.3307 
G01 X-11.7120 Y41.2185 
G01 X-11.6603 Y41.0938 
G01 X-11.6340 Y40.9615 
G01 X-11.6340 Y39.0485 
G01 X-11.6603 Y38.9162 
G01 X-11.7120 Y38.7915 
G01 X-11.7497 Y38.7350 
G01 X-11.7120 Y38.6785 
G01 X-11.6603 Y38.5538 
G01 X-11.6340 Y38.4215 
G01 X-11.6340 Y36.5085 
G01 X-11.6603 Y36.3762 
G01 X-11.7120 Y36.2515 
G01 X-11.7869 Y36.1393 
G01 X-11.8823 Y36.0439 
G01 X-11.9945 Y35.9690 
G01 X-12.1192 Y35.9173 
G01 X-12.2515 Y35.8910 
G01 X-14.1645 Y35.8910 
G01 X-14.2968 Y35.9173 
G01 X-14.4215 Y35.9690 
G01 X-14.5337 Y36.0439 
G01 X-14.6291 Y36.1393 
G01 X-14.7040 Y36.2515 
G01 X-14.7557 Y36.3762 
G01 X-14.7820 Y36.5085 
G01 X-14.7820 Y38.4215 
G01 X-14.7557 Y38.5538 
G01 X-14.7040 Y38.6785 
G01 X-14.6663 Y38.7350 
G01 X-14.7040 Y38.7915 
G00 Z2.5400 
G00 X-12.1166 Y56.5447 
G01 Z-0.1000 F254.00 
G01 X-12.1166 Y55.0121 F200.00 
G01 X-12.1497 Y54.8030 
G01 X-12.2152 Y54.6015 
G01 X-12.3113 Y54.4129 
G01 X-12.4358 Y54.2415 
G01 X-12.5855 Y54.0918 
G01 X-12.7569 Y53.9673 
G01 X-12.9455 Y53.8712 
G01 X-13.1470 Y53.8057 
G01 X-13.3561 Y53.7726 
G01 X-13.5679 Y53.7726 
G01 X-13.7770 Y53.8057 
G01 X-13.9785 Y53.8712 
G01 X-14.1671 Y53.9673 
G01 X-14.3385 Y54.0918 
G01 X-14.4882 Y54.2415 
G01 X-14.6127 Y54.4129 
G01 X-14.7088 Y54.6015 
G01 X-14.7320 Y54.6729 
G01 X-14.7552 Y54.6015 
G01 X-14.8513 Y54.4129 
G01 X-14.9758 Y54.2415 
G01 X-15.1255 Y54.0918 
G01 X-15.2969 Y53.9673 
G01 X-15.4855 Y53.8712 
G01 X-15.6870 Y53.8057 
G01 X-15.8961 Y53.7726 
G01 X-16.1079 Y53.7726 
G01 X-16.3170 Y53.8057 
G01 X-16.5185 Y53.8712 
G01 X-16.7071 Y53.9673 
G01 X-16.8785 Y54.0918 
G01 X-17.0282 Y54.2415 
G01 X-17.1527 Y54.4129 
G01 X-17.2488 Y54.6015 
G01 X-17.3143 Y54.8030 
G01 X-17.3474 Y55.0121 
G01 X-17.3474 Y56.5447 
G01 X-17.3143 Y56.7538 
G01 X-17.2488 Y56.9553 
G01 X-17.1527 Y57.1439 
G01 X-17.0282 Y57.3153 
G01 X-16.8785 Y57.4650 
G01 X-16.7071 Y57.5895 
G01 X-16.5185 Y57.6856 
G01 X-16.3170 Y57.7511 
G01 X-16.1079 Y57.7842 
G01 X-15.8961 Y57.7842 
G01 X-15.6870 Y57.7511 
G01 X-15.4855 Y57.6856 
G01 X-15.2969 Y57.5895 
G01 X-15.1255 Y57.4650 
G01 X-14.9758 Y57.3153 
G01 X-14.8513 Y57.1439 
G01 X-14.7552 Y56.9553 
G01 X-14.7320 Y56.8839 
G01 X-14.7088 Y56.9553 
G01 X-14.6127 Y57.1439 
G01 X-14.4882 Y57.3153 
G01 X-14.3385 Y57.4650 
G01 X-14.1671 Y57.5895 
G01 X-13.9785 Y57.6856 
G01 X-13.7770 Y57.7511 
G01 X-13.5679 Y57.7842 
G01 X-13.3561 Y57.7842 
G01 X-13.1470 Y57.7511 
G01 X-12.9455 Y57.6856 
G01 X-12.7569 Y57.5895 
G01 X-12.5855 Y57.4650 
G01 X-12.4358 Y57.3153 
G01 X-12.3113 Y57.1439 
G01 X-12.2152 Y56.9553 
G01 X-12.1497 Y56.7538 
G01 X-12.1166 Y56.5447 
G00 Z2.5400 
G00 X-26.7454 Y46.1983 
G01 Z-0.1000 F254.00 
G01 X-26.7454 Y47.7309 F200.00 
G01 X-26.7123 Y47.9400 
G01 X-26.6468 Y48.1415 
G01 X-26.5507 Y48.3301 
G01 X-26.4262 Y48.5015 
G01 X-26.2765 Y48.6512 
G01 X-26.1051 Y48.7757 
G01 X-25.9165 Y48.8718 
G01 X-25.7150 Y48.9373 
G01 X-25.5059 Y48.9704 
G01 X-25.2941 Y48.9704 
G01 X-25.0850 Y48.9373 
G01 X-24.8835 Y48.8718 
G01 X-24.6949 Y48.7757 
G01 X-24.5235 Y48.6512 
G01 X-24.3738 Y48.5015 
G01 X-24.2493 Y48.3301 
G01 X-24.1532 Y48.1415 
G01 X-24.1300 Y48.0701 
G01 X-24.1068 Y48.1415 
G01 X-24.0107 Y48.3301 
G01 X-23.8862 Y48.5015 
G01 X-23.7365 Y48.6512 
G01 X-23.5651 Y48.7757 
G01 X-23.3765 Y48.8718 
G01 X-23.1750 Y48.9373 
G01 X-22.9659 Y48.9704 
G01 X-22.7541 Y48.9704 
G01 X-22.5450 Y48.9373 
G01 X-22.3435 Y48.8718 
G01 X-22.1549 Y48.7757 
G01 X-21.9835 Y48.6512 
G01 X-21.8338 Y48.5015 
G01 X-21.7093 Y48.3301 
G01 X-21.6132 Y48.1415 
G01 X-21.5477 Y47.9400 
G01 X-21.5146 Y47.7309 
G01 X-21.5146 Y46.1983 
G01 X-21.5477 Y45.9892 
G01 X-21.6132 Y45.7877 
G01 X-21.7093 Y45.5991 
G01 X-21.8338 Y45.4277 
G01 X-21.9835 Y45.2780 
G01 X-22.1549 Y45.1535 
G01 X-22.3435 Y45.0574 
G01 X-22.5450 Y44.9919 
G01 X-22.7541 Y44.9588 
G01 X-22.9659 Y44.9588 
G01 X-23.1750 Y44.9919 
G01 X-23.3765 Y45.0574 
G01 X-23.5651 Y45.1535 
G01 X-23.7365 Y45.2780 
G01 X-23.8862 Y45.4277 
G01 X-24.0107 Y45.5991 
G01 X-24.1068 Y45.7877 
G01 X-24.1300 Y45.8591 
G01 X-24.1532 Y45.7877 
G01 X-24.2493 Y45.5991 
G01 X-24.3738 Y45.4277 
G01 X-24.5235 Y45.2780 
G01 X-24.6949 Y45.1535 
G01 X-24.8835 Y45.0574 
G01 X-25.0850 Y44.9919 
G01 X-25.2941 Y44.9588 
G01 X-25.5059 Y44.9588 
G01 X-25.7150 Y44.9919 
G01 X-25.9165 Y45.0574 
G01 X-26.1051 Y45.1535 
G01 X-26.2765 Y45.2780 
G01 X-26.4262 Y45.4277 
G01 X-26.5507 Y45.5991 
G01 X-26.6468 Y45.7877 
G01 X-26.7123 Y45.9892 
G01 X-26.7454 Y46.1983 
G00 Z2.5400 
G00 X-13.6660 Y62.9789 
G01 Z-0.1000 F254.00 
G01 X-13.6660 Y61.2271 F200.00 
G01 X-13.7016 Y61.0022 
G01 X-13.7720 Y60.7855 
G01 X-13.8754 Y60.5826 
G01 X-14.0093 Y60.3983 
G01 X-14.1703 Y60.2373 
G01 X-14.3546 Y60.1034 
G01 X-14.5575 Y60.0000 
G01 X-14.7742 Y59.9296 
G01 X-14.9991 Y59.8940 
G01 X-15.2269 Y59.8940 
G01 X-15.4518 Y59.9296 
G01 X-15.6685 Y60.0000 
G01 X-15.8714 Y60.1034 
G01 X-16.0557 Y60.2373 
G01 X-16.2167 Y60.3983 
G01 X-16.3506 Y60.5826 
G01 X-16.3830 Y60.6462 
G01 X-16.4154 Y60.5826 
G01 X-16.5493 Y60.3983 
G01 X-16.7103 Y60.2373 
G01 X-16.8946 Y60.1034 
G01 X-17.0975 Y60.0000 
G01 X-17.3142 Y59.9296 
G01 X-17.5391 Y59.8940 
G01 X-17.7669 Y59.8940 
G01 X-17.9918 Y59.9296 
G01 X-18.2085 Y60.0000 
G01 X-18.4114 Y60.1034 
G01 X-18.5957 Y60.2373 
G01 X-18.7567 Y60.3983 
G01 X-18.8906 Y60.5826 
G01 X-18.9230 Y60.6462 
G01 X-18.9554 Y60.5826 
G01 X-19.0893 Y60.3983 
G01 X-19.2503 Y60.2373 
G01 X-19.4346 Y60.1034 
G01 X-19.6375 Y60.0000 
G01 X-19.8542 Y59.9296 
G01 X-20.0791 Y59.8940 
G01 X-20.3069 Y59.8940 
G01 X-20.5318 Y59.9296 
G01 X-20.7485 Y60.0000 
G01 X-20.9514 Y60.1034 
G01 X-21.1357 Y60.2373 
G01 X-21.2967 Y60.3983 
G01 X-21.4306 Y60.5826 
G01 X-21.4630 Y60.6462 
G01 X-21.4954 Y60.5826 
G01 X-21.6293 Y60.3983 
G01 X-21.7903 Y60.2373 
G01 X-21.9746 Y60.1034 
G01 X-22.1775 Y60.0000 
G01 X-22.3942 Y59.9296 
G01 X-22.6191 Y59.8940 
G01 X-22.8469 Y59.8940 
G01 X-23.0718 Y59.9296 
G01 X-23.2885 Y60.0000 
G01 X-23.4914 Y60.1034 
G01 X-23.6757 Y60.2373 
G01 X-23.8367 Y60.3983 
G01 X-23.9706 Y60.5826 
G01 X-24.0030 Y60.6462 
G01 X-24.0354 Y60.5826 
G01 X-24.1693 Y60.3983 
G01 X-24.3303 Y60.2373 
G01 X-24.5146 Y60.1034 
G01 X-24.7175 Y60.0000 
G01 X-24.9342 Y59.9296 
G01 X-25.1591 Y59.8940 
G01 X-25.3869 Y59.8940 
G01 X-25.6118 Y59.9296 
G01 X-25.8285 Y60.0000 
G01 X-26.0314 Y60.1034 
G01 X-26.2157 Y60.2373 
G01 X-26.3767 Y60.3983 
G01 X-26.5106 Y60.5826 
G01 X-26.6140 Y60.7855 
G01 X-26.6844 Y61.0022 
G01 X-26.7200 Y61.2271 
G01 X-26.7200 Y62.9789 
G01 X-26.6844 Y63.2038 
G01 X-26.6140 Y63.4205 
G01 X-26.5106 Y63.6234 
G01 X-26.3767 Y63.8077 
G01 X-26.2157 Y63.9687 
G01 X-26.0314 Y64.1026 
G01 X-25.8285 Y64.2060 
G01 X-25.6118 Y64.2764 
G01 X-25.3869 Y64.3120 
G01 X-25.1591 Y64.3120 
G01 X-24.9342 Y64.2764 
G01 X-24.7175 Y64.2060 
G01 X-24.5146 Y64.1026 
G01 X-24.3303 Y63.9687 
G01 X-24.1693 Y63.8077 
G01 X-24.0354 Y63.6234 
G01 X-24.0030 Y63.5598 
G01 X-23.9706 Y63.6234 
G01 X-23.8367 Y63.8077 
G01 X-23.6757 Y63.9687 
G01 X-23.4914 Y64.1026 
G01 X-23.2885 Y64.2060 
G01 X-23.0718 Y64.2764 
G01 X-22.8469 Y64.3120 
G01 X-22.6191 Y64.3120 
G01 X-22.3942 Y64.2764 
G01 X-22.1775 Y64.2060 
G01 X-21.9746 Y64.1026 
G01 X-21.7903 Y63.9687 
G01 X-21.6293 Y63.8077 
G01 X-21.4954 Y63.6234 
G01 X-21.4630 Y63.5598 
G01 X-21.4306 Y63.6234 
G01 X-21.2967 Y63.8077 
G01 X-21.1357 Y63.9687 
G01 X-20.9514 Y64.1026 
G01 X-20.7485 Y64.2060 
G01 X-20.5318 Y64.2764 
G01 X-20.3069 Y64.3120 
G01 X-20.0791 Y64.3120 
G01 X-19.8542 Y64.2764 
G01 X-19.6375 Y64.2060 
G01 X-19.4346 Y64.1026 
G01 X-19.2503 Y63.9687 
G01 X-19.0893 Y63.8077 
G01 X-18.9554 Y63.6234 
G01 X-18.9230 Y63.5598 
G01 X-18.8906 Y63.6234 
G01 X-18.7567 Y63.8077 
G01 X-18.5957 Y63.9687 
G01 X-18.4114 Y64.1026 
G01 X-18.2085 Y64.2060 
G01 X-17.9918 Y64.2764 
G01 X-17.7669 Y64.3120 
G01 X-17.5391 Y64.3120 
G01 X-17.3142 Y64.2764 
G01 X-17.0975 Y64.2060 
G01 X-16.8946 Y64.1026 
G01 X-16.7103 Y63.9687 
G01 X-16.5493 Y63.8077 
G01 X-16.4154 Y63.6234 
G01 X-16.3830 Y63.5598 
G01 X-16.3506 Y63.6234 
G01 X-16.2167 Y63.8077 
G01 X-16.0557 Y63.9687 
G01 X-15.8714 Y64.1026 
G01 X-15.6685 Y64.2060 
G01 X-15.4518 Y64.2764 
G01 X-15.2269 Y64.3120 
G01 X-14.9991 Y64.3120 
G01 X-14.7742 Y64.2764 
G01 X-14.5575 Y64.2060 
G01 X-14.3546 Y64.1026 
G01 X-14.1703 Y63.9687 
G01 X-14.0093 Y63.8077 
G01 X-13.8754 Y63.6234 
G01 X-13.7720 Y63.4205 
G01 X-13.7016 Y63.2038 
G01 X-13.6660 Y62.9789 
G00 Z2.5400 
G00 X-12.1150 Y61.1001 
G01 Z-0.1000 F254.00 
G01 X-12.1150 Y62.8519 F200.00 
G01 X-12.0794 Y63.0768 
G01 X-12.0090 Y63.2935 
G01 X-11.9056 Y63.4964 
G01 X-11.7717 Y63.6807 
G01 X-11.6107 Y63.8417 
G01 X-11.4264 Y63.9756 
G01 X-11.2235 Y64.0790 
G01 X-11.0068 Y64.1494 
G01 X-10.7819 Y64.1850 
G01 X-10.5541 Y64.1850 
G01 X-10.3292 Y64.1494 
G01 X-10.1125 Y64.0790 
G01 X-9.9096 Y63.9756 
G01 X-9.7253 Y63.8417 
G01 X-9.5643 Y63.6807 
G01 X-9.4304 Y63.4964 
G01 X-9.3980 Y63.4328 
G01 X-9.3656 Y63.4964 
G01 X-9.2317 Y63.6807 
G01 X-9.0707 Y63.8417 
G01 X-8.8864 Y63.9756 
G01 X-8.6835 Y64.0790 
G01 X-8.4668 Y64.1494 
G01 X-8.2419 Y64.1850 
G01 X-8.0141 Y64.1850 
G01 X-7.7892 Y64.1494 
G01 X-7.5725 Y64.0790 
G01 X-7.3696 Y63.9756 
G01 X-7.1853 Y63.8417 
G01 X-7.0243 Y63.6807 
G01 X-6.8904 Y63.4964 
G01 X-6.8580 Y63.4328 
G01 X-6.8256 Y63.4964 
G01 X-6.6917 Y63.6807 
G01 X-6.5307 Y63.8417 
G01 X-6.3464 Y63.9756 
G01 X-6.1435 Y64.0790 
G01 X-5.9268 Y64.1494 
G01 X-5.7019 Y64.1850 
G01 X-5.4741 Y64.1850 
G01 X-5.2492 Y64.1494 
G01 X-5.0325 Y64.0790 
G01 X-4.8296 Y63.9756 
G01 X-4.6453 Y63.8417 
G01 X-4.4843 Y63.6807 
G01 X-4.3504 Y63.4964 
G01 X-4.2470 Y63.2935 
G01 X-4.1766 Y63.0768 
G01 X-4.1410 Y62.8519 
G01 X-4.1410 Y61.1001 
G01 X-4.1766 Y60.8752 
G01 X-4.2470 Y60.6585 
G01 X-4.3504 Y60.4556 
G01 X-4.4843 Y60.2713 
G01 X-4.6453 Y60.1103 
G01 X-4.8296 Y59.9764 
G01 X-5.0325 Y59.8730 
