(.../romang/EAGLE/ulps/pcb-gcode.ulp)
(Copyright 2005 - 2012 by John Johnson)
(See readme.txt for licensing terms.)
(This file generated from the board:)
(.../HLS8012/hlw8012_test_board.brd)
(Current profile is .../EAGLE/ulps/profiles/generic.pp  )
(This file generated 19.08.19 19:37)
(Settings from pcb-machine.h)
(  Tool Size)
(0.1778 )
(Z Axis Settings)
(  High     Up        Down     Drill)
(12.7000 	2.5400 	-0.1000 	-2.0000 )
(spindle on time = 3.0000)
(milling depth = -2.0000)
(text depth = -0.1270)
(tool change at 12.7000 15.2400 25.4000 )
(feed rate xy = F200.00 )
(feed rate z  = F254.00 )
(Settings from pcb-defaults.h)
(isolate min = 0.0000)
(isolate max = 0.2000)
(isolate step = 0.2000)
(Generated top outlines, top drill, bottom outlines, bottom drill, )
(Unit of measure: mm)
(Metric Mode)
G21
(Absolute Coordinates)
G90
G00 X0.0000 Y0.0000 
M03
G04 P3.000000
G00 Z2.5400 
G00 X-17.4989 Y53.6923 
G01 Z-0.1000 F254.00 
G01 X-17.4989 Y54.2671 F200.00 
G01 X-22.5061 Y54.2671 
G01 X-22.5061 Y53.0573 
G01 X-22.5196 Y53.0246 
G01 X-22.5446 Y52.9996 
G01 X-22.5773 Y52.9861 
G01 X-24.4127 Y52.9861 
G01 X-24.4454 Y52.9996 
G01 X-24.4704 Y53.0246 
G01 X-24.4839 Y53.0573 
G01 X-24.4839 Y54.8927 
G01 X-24.4704 Y54.9254 
G01 X-24.4454 Y54.9504 
G01 X-24.4127 Y54.9639 
G01 X-22.5773 Y54.9639 
G01 X-22.5508 Y54.9529 
G01 X-17.4989 Y54.9529 
G01 X-17.4989 Y55.5277 
G01 X-17.4854 Y55.5604 
G01 X-17.4604 Y55.5854 
G01 X-17.4277 Y55.5989 
G01 X-15.5923 Y55.5989 
G01 X-15.5596 Y55.5854 
G01 X-15.5346 Y55.5604 
G01 X-15.5211 Y55.5277 
G01 X-15.5211 Y53.6923 
G01 X-15.5346 Y53.6596 
G01 X-15.5596 Y53.6346 
G01 X-15.5923 Y53.6211 
G01 X-17.4277 Y53.6211 
G01 X-17.4604 Y53.6346 
G01 X-17.4854 Y53.6596 
G01 X-17.4989 Y53.6923 
G00 Z2.5400 
G00 X-24.4839 Y13.6873 
G01 Z-0.1000 F254.00 
G01 X-24.4839 Y15.5227 F200.00 
G01 X-24.4704 Y15.5554 
G01 X-24.4454 Y15.5804 
G01 X-24.4127 Y15.5939 
G01 X-22.5773 Y15.5939 
G01 X-22.5446 Y15.5804 
G01 X-22.5196 Y15.5554 
G01 X-22.5061 Y15.5227 
G01 X-22.5061 Y14.9479 
G01 X-13.6889 Y14.9479 
G01 X-13.6889 Y15.5227 
G01 X-13.6754 Y15.5554 
G01 X-13.6504 Y15.5804 
G01 X-13.6177 Y15.5939 
G01 X-11.7823 Y15.5939 
G01 X-11.7496 Y15.5804 
G01 X-11.7246 Y15.5554 
G01 X-11.7111 Y15.5227 
G01 X-11.7111 Y13.6873 
G01 X-11.7246 Y13.6546 
G01 X-11.7496 Y13.6296 
G01 X-11.7823 Y13.6161 
G01 X-13.6177 Y13.6161 
G01 X-13.6504 Y13.6296 
G01 X-13.6754 Y13.6546 
G01 X-13.6889 Y13.6873 
G01 X-13.6889 Y14.2621 
G01 X-22.5061 Y14.2621 
G01 X-22.5061 Y13.6873 
G01 X-22.5196 Y13.6546 
G01 X-22.5446 Y13.6296 
G01 X-22.5773 Y13.6161 
G01 X-24.4127 Y13.6161 
G01 X-24.4454 Y13.6296 
G01 X-24.4704 Y13.6546 
G01 X-24.4839 Y13.6873 
G00 Z2.5400 
G00 X-15.5939 Y3.4476 
G01 Z-0.1000 F254.00 
G01 X-15.5939 Y5.4424 F200.00 
G01 X-15.5559 Y5.6334 
G01 X-15.4814 Y5.8134 
G01 X-15.3731 Y5.9754 
G01 X-15.2354 Y6.1131 
G01 X-15.0734 Y6.2214 
G01 X-14.8935 Y6.2959 
G01 X-14.7024 Y6.3339 
G01 X-14.5076 Y6.3339 
G01 X-14.3165 Y6.2959 
G01 X-14.1366 Y6.2214 
G01 X-13.9746 Y6.1131 
G01 X-13.8369 Y5.9754 
G01 X-13.7286 Y5.8134 
G01 X-13.6541 Y5.6334 
G01 X-13.6161 Y5.4424 
G01 X-13.6161 Y3.4476 
G01 X-13.6541 Y3.2565 
G01 X-13.7286 Y3.0766 
G01 X-13.8369 Y2.9146 
G01 X-13.9746 Y2.7769 
G01 X-14.1366 Y2.6686 
G01 X-14.3165 Y2.5941 
G01 X-14.5076 Y2.5561 
G01 X-14.7024 Y2.5561 
G01 X-14.8935 Y2.5941 
G01 X-15.0734 Y2.6686 
G01 X-15.2354 Y2.7769 
G01 X-15.3731 Y2.9146 
G01 X-15.4814 Y3.0766 
G01 X-15.5559 Y3.2565 
G01 X-15.5939 Y3.4476 
G00 Z2.5400 
G00 X-18.1339 Y3.4476 
G01 Z-0.1000 F254.00 
G01 X-18.1339 Y5.4424 F200.00 
G01 X-18.0959 Y5.6334 
G01 X-18.0214 Y5.8134 
G01 X-17.9131 Y5.9754 
G01 X-17.7754 Y6.1131 
G01 X-17.6134 Y6.2214 
G01 X-17.4335 Y6.2959 
G01 X-17.2424 Y6.3339 
G01 X-17.0476 Y6.3339 
G01 X-16.8565 Y6.2959 
G01 X-16.6766 Y6.2214 
G01 X-16.5146 Y6.1131 
G01 X-16.3769 Y5.9754 
G01 X-16.2686 Y5.8134 
G01 X-16.1941 Y5.6334 
G01 X-16.1561 Y5.4424 
G01 X-16.1561 Y3.4476 
G01 X-16.1941 Y3.2565 
G01 X-16.2686 Y3.0766 
G01 X-16.3769 Y2.9146 
G01 X-16.5146 Y2.7769 
G01 X-16.6766 Y2.6686 
G01 X-16.8565 Y2.5941 
G01 X-17.0476 Y2.5561 
G01 X-17.2424 Y2.5561 
G01 X-17.4335 Y2.5941 
G01 X-17.6134 Y2.6686 
G01 X-17.7754 Y2.7769 
G01 X-17.9131 Y2.9146 
G01 X-18.0214 Y3.0766 
G01 X-18.0959 Y3.2565 
G01 X-18.1339 Y3.4476 
G00 Z2.5400 
G00 X-20.6739 Y3.4476 
G01 Z-0.1000 F254.00 
G01 X-20.6739 Y5.4424 F200.00 
G01 X-20.6359 Y5.6334 
G01 X-20.5614 Y5.8134 
G01 X-20.4531 Y5.9754 
G01 X-20.3154 Y6.1131 
G01 X-20.1534 Y6.2214 
G01 X-19.9734 Y6.2959 
G01 X-19.7824 Y6.3339 
G01 X-19.5876 Y6.3339 
G01 X-19.3965 Y6.2959 
G01 X-19.2166 Y6.2214 
G01 X-19.0546 Y6.1131 
G01 X-18.9169 Y5.9754 
G01 X-18.8086 Y5.8134 
G01 X-18.7341 Y5.6334 
G01 X-18.6961 Y5.4424 
G01 X-18.6961 Y3.4476 
G01 X-18.7341 Y3.2565 
G01 X-18.8086 Y3.0766 
G01 X-18.9169 Y2.9146 
G01 X-19.0546 Y2.7769 
G01 X-19.2166 Y2.6686 
G01 X-19.3965 Y2.5941 
G01 X-19.5876 Y2.5561 
G01 X-19.7824 Y2.5561 
G01 X-19.9734 Y2.5941 
G01 X-20.1534 Y2.6686 
G01 X-20.3154 Y2.7769 
G01 X-20.4531 Y2.9146 
G01 X-20.5614 Y3.0766 
G01 X-20.6359 Y3.2565 
G01 X-20.6739 Y3.4476 
G00 Z2.5400 
G00 X-23.2139 Y3.4476 
G01 Z-0.1000 F254.00 
G01 X-23.2139 Y5.4424 F200.00 
G01 X-23.1759 Y5.6334 
G01 X-23.1014 Y5.8134 
G01 X-22.9931 Y5.9754 
G01 X-22.8554 Y6.1131 
G01 X-22.6934 Y6.2214 
G01 X-22.5135 Y6.2959 
G01 X-22.3224 Y6.3339 
G01 X-22.1276 Y6.3339 
G01 X-21.9365 Y6.2959 
G01 X-21.7566 Y6.2214 
G01 X-21.5946 Y6.1131 
G01 X-21.4569 Y5.9754 
G01 X-21.3486 Y5.8134 
G01 X-21.2741 Y5.6334 
G01 X-21.2361 Y5.4424 
G01 X-21.2361 Y3.4476 
G01 X-21.2741 Y3.2565 
G01 X-21.3486 Y3.0766 
G01 X-21.4569 Y2.9146 
G01 X-21.5946 Y2.7769 
G01 X-21.7566 Y2.6686 
G01 X-21.9365 Y2.5941 
G01 X-22.1276 Y2.5561 
G01 X-22.3224 Y2.5561 
G01 X-22.5135 Y2.5941 
G01 X-22.6934 Y2.6686 
G01 X-22.8554 Y2.7769 
G01 X-22.9931 Y2.9146 
G01 X-23.1014 Y3.0766 
G01 X-23.1759 Y3.2565 
G01 X-23.2139 Y3.4476 
G00 Z2.5400 
G00 X-28.6893 Y50.4896 
G01 Z-0.1000 F254.00 
G01 X-28.6893 Y51.1104 F200.00 
G01 X-28.2504 Y51.5493 
G01 X-27.6296 Y51.5493 
G01 X-27.1907 Y51.1104 
G01 X-27.1907 Y50.4896 
G01 X-27.6296 Y50.0507 
G01 X-28.2504 Y50.0507 
G01 X-28.6893 Y50.4896 
G00 Z2.5400 
G00 X-26.7843 Y51.7596 
G01 Z-0.1000 F254.00 
G01 X-26.7843 Y52.3804 F200.00 
G01 X-26.3454 Y52.8193 
G01 X-25.7246 Y52.8193 
G01 X-25.2857 Y52.3804 
G01 X-25.2857 Y51.7596 
G01 X-25.7246 Y51.3207 
G01 X-26.3454 Y51.3207 
G01 X-26.7843 Y51.7596 
G00 Z2.5400 
G00 X-28.6893 Y53.0296 
G01 Z-0.1000 F254.00 
G01 X-28.6893 Y53.6504 F200.00 
G01 X-28.2504 Y54.0893 
G01 X-27.6296 Y54.0893 
G01 X-27.1907 Y53.6504 
G01 X-27.1907 Y53.0296 
G01 X-27.6296 Y52.5907 
G01 X-28.2504 Y52.5907 
G01 X-28.6893 Y53.0296 
G00 Z2.5400 
G00 X-21.0693 Y50.4896 
G01 Z-0.1000 F254.00 
G01 X-21.0693 Y51.1104 F200.00 
G01 X-20.6304 Y51.5493 
G01 X-20.0096 Y51.5493 
G01 X-19.5707 Y51.1104 
G01 X-19.5707 Y50.4896 
G01 X-20.0096 Y50.0507 
G01 X-20.6304 Y50.0507 
G01 X-21.0693 Y50.4896 
G00 Z2.5400 
G00 X-19.1643 Y51.7596 
G01 Z-0.1000 F254.00 
G01 X-19.1643 Y52.3804 F200.00 
G01 X-18.7254 Y52.8193 
G01 X-18.1046 Y52.8193 
G01 X-17.6657 Y52.3804 
G01 X-17.6657 Y51.7596 
G01 X-18.1046 Y51.3207 
G01 X-18.7254 Y51.3207 
G01 X-19.1643 Y51.7596 
G00 Z2.5400 
G00 X-21.0693 Y53.0296 
G01 Z-0.1000 F254.00 
G01 X-21.0693 Y53.6504 F200.00 
G01 X-20.6304 Y54.0893 
G01 X-20.0096 Y54.0893 
G01 X-19.5707 Y53.6504 
G01 X-19.5707 Y53.0296 
G01 X-20.0096 Y52.5907 
G01 X-20.6304 Y52.5907 
G01 X-21.0693 Y53.0296 
G00 Z2.5400 
G00 X-12.8143 Y41.5996 
G01 Z-0.1000 F254.00 
G01 X-12.8143 Y42.2204 F200.00 
G01 X-12.3754 Y42.6593 
G01 X-11.7546 Y42.6593 
G01 X-11.3157 Y42.2204 
G01 X-11.3157 Y41.5996 
G01 X-11.7546 Y41.1607 
G01 X-12.3754 Y41.1607 
G01 X-12.8143 Y41.5996 
G00 Z2.5400 
G00 X-14.0843 Y43.5046 
G01 Z-0.1000 F254.00 
G01 X-14.0843 Y44.1254 F200.00 
G01 X-13.6454 Y44.5643 
G01 X-13.0246 Y44.5643 
G01 X-12.5857 Y44.1254 
G01 X-12.5857 Y43.5046 
G01 X-13.0246 Y43.0657 
G01 X-13.6454 Y43.0657 
G01 X-14.0843 Y43.5046 
G00 Z2.5400 
G00 X-15.3543 Y41.5996 
G01 Z-0.1000 F254.00 
G01 X-15.3543 Y42.2204 F200.00 
G01 X-14.9154 Y42.6593 
G01 X-14.2946 Y42.6593 
G01 X-13.8557 Y42.2204 
G01 X-13.8557 Y41.5996 
G01 X-14.2946 Y41.1607 
G01 X-14.9154 Y41.1607 
G01 X-15.3543 Y41.5996 
G00 Z2.5400 
G00 X-4.6609 Y67.0992 
G01 Z-0.1000 F254.00 
G01 X-4.6609 Y68.7908 F200.00 
G01 X-4.6282 Y68.9552 
G01 X-4.5641 Y69.1101 
G01 X-4.4709 Y69.2494 
G01 X-4.3524 Y69.3679 
G01 X-4.2130 Y69.4611 
G01 X-4.0582 Y69.5252 
G01 X-3.8938 Y69.5579 
G01 X-3.7262 Y69.5579 
G01 X-3.5618 Y69.5252 
G01 X-3.4069 Y69.4611 
G01 X-3.2676 Y69.3679 
G01 X-3.1491 Y69.2494 
G01 X-3.0559 Y69.1101 
G01 X-2.9918 Y68.9552 
G01 X-2.9591 Y68.7908 
G01 X-2.9591 Y67.0992 
G01 X-2.9918 Y66.9348 
G01 X-3.0559 Y66.7799 
G01 X-3.1491 Y66.6406 
G01 X-3.2676 Y66.5221 
G01 X-3.4069 Y66.4289 
G01 X-3.5618 Y66.3648 
G01 X-3.7262 Y66.3321 
G01 X-3.8938 Y66.3321 
G01 X-4.0582 Y66.3648 
G01 X-4.2130 Y66.4289 
G01 X-4.3524 Y66.5221 
G01 X-4.4709 Y66.6406 
G01 X-4.5641 Y66.7799 
G01 X-4.6282 Y66.9348 
G01 X-4.6609 Y67.0992 
G00 Z2.5400 
G00 X-7.2009 Y67.0992 
G01 Z-0.1000 F254.00 
G01 X-7.2009 Y68.7908 F200.00 
G01 X-7.1682 Y68.9552 
G01 X-7.1041 Y69.1101 
G01 X-7.0109 Y69.2494 
G01 X-6.8924 Y69.3679 
G01 X-6.7530 Y69.4611 
G01 X-6.5982 Y69.5252 
G01 X-6.4338 Y69.5579 
G01 X-6.2662 Y69.5579 
G01 X-6.1018 Y69.5252 
G01 X-5.9469 Y69.4611 
G01 X-5.8076 Y69.3679 
G01 X-5.6891 Y69.2494 
G01 X-5.5959 Y69.1101 
G01 X-5.5318 Y68.9552 
G01 X-5.4991 Y68.7908 
G01 X-5.4991 Y67.0992 
G01 X-5.5318 Y66.9348 
G01 X-5.5959 Y66.7799 
G01 X-5.6891 Y66.6406 
G01 X-5.8076 Y66.5221 
G01 X-5.9469 Y66.4289 
G01 X-6.1018 Y66.3648 
G01 X-6.2662 Y66.3321 
G01 X-6.4338 Y66.3321 
G01 X-6.5982 Y66.3648 
G01 X-6.7530 Y66.4289 
G01 X-6.8924 Y66.5221 
G01 X-7.0109 Y66.6406 
G01 X-7.1041 Y66.7799 
G01 X-7.1682 Y66.9348 
G01 X-7.2009 Y67.0992 
G00 Z2.5400 
G00 X-9.7409 Y67.0992 
G01 Z-0.1000 F254.00 
G01 X-9.7409 Y68.7908 F200.00 
G01 X-9.7082 Y68.9552 
G01 X-9.6441 Y69.1101 
G01 X-9.5509 Y69.2494 
G01 X-9.4324 Y69.3679 
G01 X-9.2931 Y69.4611 
G01 X-9.1382 Y69.5252 
G01 X-8.9738 Y69.5579 
G01 X-8.8062 Y69.5579 
G01 X-8.6418 Y69.5252 
G01 X-8.4869 Y69.4611 
G01 X-8.3476 Y69.3679 
G01 X-8.2291 Y69.2494 
G01 X-8.1359 Y69.1101 
G01 X-8.0718 Y68.9552 
G01 X-8.0391 Y68.7908 
G01 X-8.0391 Y67.0992 
G01 X-8.0718 Y66.9348 
G01 X-8.1359 Y66.7799 
G01 X-8.2291 Y66.6406 
G01 X-8.3476 Y66.5221 
G01 X-8.4869 Y66.4289 
G01 X-8.6418 Y66.3648 
G01 X-8.8062 Y66.3321 
G01 X-8.9738 Y66.3321 
G01 X-9.1382 Y66.3648 
G01 X-9.2931 Y66.4289 
G01 X-9.4324 Y66.5221 
G01 X-9.5509 Y66.6406 
G01 X-9.6441 Y66.7799 
G01 X-9.7082 Y66.9348 
G01 X-9.7409 Y67.0992 
G00 Z2.5400 
G00 X-27.0891 Y68.7908 
G01 Z-0.1000 F254.00 
G01 X-27.0891 Y67.0992 F200.00 
G01 X-27.1218 Y66.9348 
G01 X-27.1859 Y66.7799 
G01 X-27.2791 Y66.6406 
G01 X-27.3976 Y66.5221 
G01 X-27.5369 Y66.4289 
G01 X-27.6918 Y66.3648 
G01 X-27.8562 Y66.3321 
G01 X-28.0238 Y66.3321 
G01 X-28.1882 Y66.3648 
G01 X-28.3431 Y66.4289 
G01 X-28.4824 Y66.5221 
G01 X-28.6009 Y66.6406 
G01 X-28.6941 Y66.7799 
G01 X-28.7582 Y66.9348 
G01 X-28.7909 Y67.0992 
G01 X-28.7909 Y68.7908 
G01 X-28.7582 Y68.9552 
G01 X-28.6941 Y69.1101 
G01 X-28.6009 Y69.2494 
G01 X-28.4824 Y69.3679 
G01 X-28.3431 Y69.4611 
G01 X-28.1882 Y69.5252 
G01 X-28.0238 Y69.5579 
G01 X-27.8562 Y69.5579 
G01 X-27.6918 Y69.5252 
G01 X-27.5369 Y69.4611 
G01 X-27.3976 Y69.3679 
G01 X-27.2791 Y69.2494 
G01 X-27.1859 Y69.1101 
G01 X-27.1218 Y68.9552 
G01 X-27.0891 Y68.7908 
G00 Z2.5400 
G00 X-24.5491 Y68.7908 
G01 Z-0.1000 F254.00 
G01 X-24.5491 Y67.0992 F200.00 
G01 X-24.5818 Y66.9348 
G01 X-24.6459 Y66.7799 
G01 X-24.7391 Y66.6406 
G01 X-24.8576 Y66.5221 
G01 X-24.9969 Y66.4289 
G01 X-25.1518 Y66.3648 
G01 X-25.3162 Y66.3321 
G01 X-25.4838 Y66.3321 
G01 X-25.6482 Y66.3648 
G01 X-25.8031 Y66.4289 
G01 X-25.9424 Y66.5221 
G01 X-26.0609 Y66.6406 
G01 X-26.1541 Y66.7799 
G01 X-26.2182 Y66.9348 
G01 X-26.2509 Y67.0992 
G01 X-26.2509 Y68.7908 
G01 X-26.2182 Y68.9552 
G01 X-26.1541 Y69.1101 
G01 X-26.0609 Y69.2494 
G01 X-25.9424 Y69.3679 
G01 X-25.8031 Y69.4611 
G01 X-25.6482 Y69.5252 
G01 X-25.4838 Y69.5579 
G01 X-25.3162 Y69.5579 
G01 X-25.1518 Y69.5252 
G01 X-24.9969 Y69.4611 
G01 X-24.8576 Y69.3679 
G01 X-24.7391 Y69.2494 
G01 X-24.6459 Y69.1101 
G01 X-24.5818 Y68.9552 
G01 X-24.5491 Y68.7908 
G00 Z2.5400 
G00 X-22.0091 Y68.7908 
G01 Z-0.1000 F254.00 
G01 X-22.0091 Y67.0992 F200.00 
G01 X-22.0418 Y66.9348 
G01 X-22.1059 Y66.7799 
G01 X-22.1991 Y66.6406 
G01 X-22.3176 Y66.5221 
G01 X-22.4569 Y66.4289 
G01 X-22.6118 Y66.3648 
G01 X-22.7762 Y66.3321 
G01 X-22.9438 Y66.3321 
G01 X-23.1082 Y66.3648 
G01 X-23.2630 Y66.4289 
G01 X-23.4024 Y66.5221 
G01 X-23.5209 Y66.6406 
G01 X-23.6141 Y66.7799 
G01 X-23.6782 Y66.9348 
G01 X-23.7109 Y67.0992 
G01 X-23.7109 Y68.7908 
G01 X-23.6782 Y68.9552 
G01 X-23.6141 Y69.1101 
G01 X-23.5209 Y69.2494 
G01 X-23.4024 Y69.3679 
G01 X-23.2630 Y69.4611 
G01 X-23.1082 Y69.5252 
G01 X-22.9438 Y69.5579 
G01 X-22.7762 Y69.5579 
G01 X-22.6118 Y69.5252 
G01 X-22.4569 Y69.4611 
G01 X-22.3176 Y69.3679 
G01 X-22.1991 Y69.2494 
G01 X-22.1059 Y69.1101 
G01 X-22.0418 Y68.9552 
G01 X-22.0091 Y68.7908 
G00 Z2.5400 
G00 X-19.4691 Y68.7908 
G01 Z-0.1000 F254.00 
G01 X-19.4691 Y67.0992 F200.00 
G01 X-19.5018 Y66.9348 
G01 X-19.5659 Y66.7799 
G01 X-19.6591 Y66.6406 
G01 X-19.7776 Y66.5221 
G01 X-19.9169 Y66.4289 
G01 X-20.0718 Y66.3648 
G01 X-20.2362 Y66.3321 
G01 X-20.4038 Y66.3321 
G01 X-20.5682 Y66.3648 
G01 X-20.7231 Y66.4289 
G01 X-20.8624 Y66.5221 
G01 X-20.9809 Y66.6406 
G01 X-21.0741 Y66.7799 
G01 X-21.1382 Y66.9348 
G01 X-21.1709 Y67.0992 
G01 X-21.1709 Y68.7908 
G01 X-21.1382 Y68.9552 
G01 X-21.0741 Y69.1101 
G01 X-20.9809 Y69.2494 
G01 X-20.8624 Y69.3679 
G01 X-20.7231 Y69.4611 
G01 X-20.5682 Y69.5252 
G01 X-20.4038 Y69.5579 
G01 X-20.2362 Y69.5579 
G01 X-20.0718 Y69.5252 
G01 X-19.9169 Y69.4611 
G01 X-19.7776 Y69.3679 
G01 X-19.6591 Y69.2494 
G01 X-19.5659 Y69.1101 
G01 X-19.5018 Y68.9552 
G01 X-19.4691 Y68.7908 
G00 Z2.5400 
G00 X-16.9291 Y68.7908 
G01 Z-0.1000 F254.00 
G01 X-16.9291 Y67.0992 F200.00 
G01 X-16.9618 Y66.9348 
G01 X-17.0259 Y66.7799 
G01 X-17.1191 Y66.6406 
G01 X-17.2376 Y66.5221 
G01 X-17.3769 Y66.4289 
G01 X-17.5318 Y66.3648 
G01 X-17.6962 Y66.3321 
G01 X-17.8638 Y66.3321 
G01 X-18.0282 Y66.3648 
G01 X-18.1831 Y66.4289 
G01 X-18.3224 Y66.5221 
G01 X-18.4409 Y66.6406 
G01 X-18.5341 Y66.7799 
G01 X-18.5982 Y66.9348 
G01 X-18.6309 Y67.0992 
G01 X-18.6309 Y68.7908 
G01 X-18.5982 Y68.9552 
G01 X-18.5341 Y69.1101 
G01 X-18.4409 Y69.2494 
G01 X-18.3224 Y69.3679 
G01 X-18.1831 Y69.4611 
G01 X-18.0282 Y69.5252 
G01 X-17.8638 Y69.5579 
G01 X-17.6962 Y69.5579 
G01 X-17.5318 Y69.5252 
G01 X-17.3769 Y69.4611 
G01 X-17.2376 Y69.3679 
G01 X-17.1191 Y69.2494 
G01 X-17.0259 Y69.1101 
G01 X-16.9618 Y68.9552 
G01 X-16.9291 Y68.7908 
G00 Z2.5400 
G00 X-18.3007 Y47.7496 
G01 Z-0.1000 F254.00 
G01 X-18.3007 Y46.2812 F200.00 
G01 X-18.3295 Y46.1364 
G01 X-18.3860 Y46.0001 
G01 X-18.4680 Y45.8773 
G01 X-18.5723 Y45.7730 
G01 X-18.6951 Y45.6910 
G01 X-18.8314 Y45.6345 
G01 X-18.9762 Y45.6057 
G01 X-19.1238 Y45.6057 
G01 X-19.2686 Y45.6345 
G01 X-19.4049 Y45.6910 
G01 X-19.5277 Y45.7730 
G01 X-19.6320 Y45.8773 
G01 X-19.7140 Y46.0001 
G01 X-19.7705 Y46.1364 
G01 X-19.7993 Y46.2812 
G01 X-19.7993 Y47.7496 
G01 X-19.7705 Y47.8944 
G01 X-19.7140 Y48.0307 
G01 X-19.6320 Y48.1534 
G01 X-19.5277 Y48.2578 
G01 X-19.4049 Y48.3398 
G01 X-19.2686 Y48.3963 
G01 X-19.1238 Y48.4251 
G01 X-18.9762 Y48.4251 
G01 X-18.8314 Y48.3963 
G01 X-18.6951 Y48.3398 
G01 X-18.5723 Y48.2578 
G01 X-18.4680 Y48.1534 
G01 X-18.3860 Y48.0307 
G01 X-18.3295 Y47.8944 
G01 X-18.3007 Y47.7496 
G00 Z2.5400 
G00 X-20.8407 Y47.7496 
G01 Z-0.1000 F254.00 
G01 X-20.8407 Y46.2812 F200.00 
G01 X-20.8695 Y46.1364 
G01 X-20.9260 Y46.0001 
G01 X-21.0080 Y45.8773 
G01 X-21.1123 Y45.7730 
G01 X-21.2351 Y45.6910 
G01 X-21.3714 Y45.6345 
G01 X-21.5162 Y45.6057 
G01 X-21.6638 Y45.6057 
G01 X-21.8086 Y45.6345 
G01 X-21.9449 Y45.6910 
G01 X-22.0677 Y45.7730 
G01 X-22.1720 Y45.8773 
G01 X-22.2540 Y46.0001 
G01 X-22.3105 Y46.1364 
G01 X-22.3393 Y46.2812 
G01 X-22.3393 Y47.7496 
G01 X-22.3105 Y47.8944 
G01 X-22.2540 Y48.0307 
G01 X-22.1720 Y48.1534 
G01 X-22.0677 Y48.2578 
G01 X-21.9449 Y48.3398 
G01 X-21.8086 Y48.3963 
G01 X-21.6638 Y48.4251 
G01 X-21.5162 Y48.4251 
G01 X-21.3714 Y48.3963 
G01 X-21.2351 Y48.3398 
G01 X-21.1123 Y48.2578 
G01 X-21.0080 Y48.1534 
G01 X-20.9260 Y48.0307 
G01 X-20.8695 Y47.8944 
G01 X-20.8407 Y47.7496 
G00 Z2.5400 
G00 X-22.3393 Y37.3404 
G01 Z-0.1000 F254.00 
G01 X-22.3393 Y38.8088 F200.00 
G01 X-22.3105 Y38.9536 
G01 X-22.2540 Y39.0899 
G01 X-22.1720 Y39.2127 
G01 X-22.0677 Y39.3170 
G01 X-21.9449 Y39.3990 
G01 X-21.8086 Y39.4555 
G01 X-21.6638 Y39.4843 
G01 X-21.5162 Y39.4843 
G01 X-21.3714 Y39.4555 
G01 X-21.2351 Y39.3990 
G01 X-21.1123 Y39.3170 
G01 X-21.0080 Y39.2127 
G01 X-20.9260 Y39.0899 
G01 X-20.8695 Y38.9536 
G01 X-20.8407 Y38.8088 
G01 X-20.8407 Y37.3404 
G01 X-20.8695 Y37.1956 
G01 X-20.9260 Y37.0593 
G01 X-21.0080 Y36.9365 
G01 X-21.1123 Y36.8322 
G01 X-21.2351 Y36.7502 
G01 X-21.3714 Y36.6937 
G01 X-21.5162 Y36.6649 
G01 X-21.6638 Y36.6649 
G01 X-21.8086 Y36.6937 
G01 X-21.9449 Y36.7502 
G01 X-22.0677 Y36.8322 
G01 X-22.1720 Y36.9365 
G01 X-22.2540 Y37.0593 
G01 X-22.3105 Y37.1956 
G01 X-22.3393 Y37.3404 
G00 Z2.5400 
G00 X-19.7993 Y37.3404 
G01 Z-0.1000 F254.00 
G01 X-19.7993 Y38.8088 F200.00 
G01 X-19.7705 Y38.9536 
G01 X-19.7140 Y39.0899 
G01 X-19.6320 Y39.2127 
G01 X-19.5277 Y39.3170 
G01 X-19.4049 Y39.3990 
G01 X-19.2686 Y39.4555 
G01 X-19.1238 Y39.4843 
G01 X-18.9762 Y39.4843 
G01 X-18.8314 Y39.4555 
G01 X-18.6951 Y39.3990 
G01 X-18.5723 Y39.3170 
G01 X-18.4680 Y39.2127 
G01 X-18.3860 Y39.0899 
G01 X-18.3295 Y38.9536 
G01 X-18.3007 Y38.8088 
G01 X-18.3007 Y37.3404 
G01 X-18.3295 Y37.1956 
G01 X-18.3860 Y37.0593 
G01 X-18.4680 Y36.9365 
G01 X-18.5723 Y36.8322 
G01 X-18.6951 Y36.7502 
G01 X-18.8314 Y36.6937 
G01 X-18.9762 Y36.6649 
G01 X-19.1238 Y36.6649 
G01 X-19.2686 Y36.6937 
G01 X-19.4049 Y36.7502 
G01 X-19.5277 Y36.8322 
G01 X-19.6320 Y36.9365 
G01 X-19.7140 Y37.0593 
G01 X-19.7705 Y37.1956 
G01 X-19.7993 Y37.3404 
G00 Z2.5400 
G00 X-13.4493 Y48.1354 
G01 Z-0.1000 F254.00 
G01 X-13.4493 Y49.6038 F200.00 
G01 X-13.4205 Y49.7486 
G01 X-13.3640 Y49.8849 
G01 X-13.2820 Y50.0077 
G01 X-13.1776 Y50.1120 
G01 X-13.0549 Y50.1940 
G01 X-12.9186 Y50.2505 
G01 X-12.7738 Y50.2793 
G01 X-12.6262 Y50.2793 
G01 X-12.4814 Y50.2505 
G01 X-12.3451 Y50.1940 
G01 X-12.2223 Y50.1120 
G01 X-12.1180 Y50.0077 
G01 X-12.0360 Y49.8849 
G01 X-11.9795 Y49.7486 
G01 X-11.9507 Y49.6038 
G01 X-11.9507 Y48.1354 
G01 X-11.9795 Y47.9906 
G01 X-12.0360 Y47.8543 
G01 X-12.1180 Y47.7315 
G01 X-12.2223 Y47.6272 
G01 X-12.3451 Y47.5452 
G01 X-12.4814 Y47.4887 
G01 X-12.6262 Y47.4599 
G01 X-12.7738 Y47.4599 
G01 X-12.9186 Y47.4887 
G01 X-13.0549 Y47.5452 
G01 X-13.1776 Y47.6272 
G01 X-13.2820 Y47.7315 
G01 X-13.3640 Y47.8543 
G01 X-13.4205 Y47.9906 
G01 X-13.4493 Y48.1354 
G00 Z2.5400 
G00 X-10.9093 Y48.1354 
G01 Z-0.1000 F254.00 
G01 X-10.9093 Y49.6038 F200.00 
G01 X-10.8805 Y49.7486 
G01 X-10.8240 Y49.8849 
G01 X-10.7420 Y50.0077 
G01 X-10.6377 Y50.1120 
G01 X-10.5149 Y50.1940 
G01 X-10.3786 Y50.2505 
G01 X-10.2338 Y50.2793 
G01 X-10.0862 Y50.2793 
G01 X-9.9414 Y50.2505 
G01 X-9.8051 Y50.1940 
G01 X-9.6823 Y50.1120 
G01 X-9.5780 Y50.0077 
G01 X-9.4960 Y49.8849 
G01 X-9.4395 Y49.7486 
G01 X-9.4107 Y49.6038 
G01 X-9.4107 Y48.1354 
G01 X-9.4395 Y47.9906 
G01 X-9.4960 Y47.8543 
G01 X-9.5780 Y47.7315 
G01 X-9.6823 Y47.6272 
G01 X-9.8051 Y47.5452 
G01 X-9.9414 Y47.4887 
G01 X-10.0862 Y47.4599 
G01 X-10.2338 Y47.4599 
G01 X-10.3786 Y47.4887 
G01 X-10.5149 Y47.5452 
G01 X-10.6377 Y47.6272 
G01 X-10.7420 Y47.7315 
G01 X-10.8240 Y47.8543 
G01 X-10.8805 Y47.9906 
G01 X-10.9093 Y48.1354 
G00 Z2.5400 
G00 X-9.4107 Y58.5446 
G01 Z-0.1000 F254.00 
G01 X-9.4107 Y57.0762 F200.00 
G01 X-9.4395 Y56.9314 
G01 X-9.4960 Y56.7951 
G01 X-9.5780 Y56.6723 
G01 X-9.6823 Y56.5680 
G01 X-9.8051 Y56.4860 
G01 X-9.9414 Y56.4295 
G01 X-10.0862 Y56.4007 
G01 X-10.2338 Y56.4007 
G01 X-10.3786 Y56.4295 
G01 X-10.5149 Y56.4860 
G01 X-10.6377 Y56.5680 
G01 X-10.7420 Y56.6723 
G01 X-10.8240 Y56.7951 
G01 X-10.8805 Y56.9314 
G01 X-10.9093 Y57.0762 
G01 X-10.9093 Y58.5446 
G01 X-10.8805 Y58.6894 
G01 X-10.8240 Y58.8257 
G01 X-10.7420 Y58.9485 
G01 X-10.6377 Y59.0528 
G01 X-10.5149 Y59.1348 
G01 X-10.3786 Y59.1913 
G01 X-10.2338 Y59.2201 
G01 X-10.0862 Y59.2201 
G01 X-9.9414 Y59.1913 
G01 X-9.8051 Y59.1348 
G01 X-9.6823 Y59.0528 
G01 X-9.5780 Y58.9485 
G01 X-9.4960 Y58.8257 
G01 X-9.4395 Y58.6894 
G01 X-9.4107 Y58.5446 
G00 Z2.5400 
G00 X-11.9507 Y58.5446 
G01 Z-0.1000 F254.00 
G01 X-11.9507 Y57.0762 F200.00 
G01 X-11.9795 Y56.9314 
G01 X-12.0360 Y56.7951 
G01 X-12.1180 Y56.6723 
G01 X-12.2223 Y56.5680 
G01 X-12.3451 Y56.4860 
G01 X-12.4814 Y56.4295 
G01 X-12.6262 Y56.4007 
G01 X-12.7738 Y56.4007 
G01 X-12.9186 Y56.4295 
G01 X-13.0549 Y56.4860 
G01 X-13.1776 Y56.5680 
G01 X-13.2820 Y56.6723 
G01 X-13.3640 Y56.7951 
G01 X-13.4205 Y56.9314 
G01 X-13.4493 Y57.0762 
G01 X-13.4493 Y58.5446 
G01 X-13.4205 Y58.6894 
G01 X-13.3640 Y58.8257 
G01 X-13.2820 Y58.9485 
G01 X-13.1776 Y59.0528 
G01 X-13.0549 Y59.1348 
G01 X-12.9186 Y59.1913 
G01 X-12.7738 Y59.2201 
G01 X-12.6262 Y59.2201 
G01 X-12.4814 Y59.1913 
G01 X-12.3451 Y59.1348 
G01 X-12.2223 Y59.0528 
G01 X-12.1180 Y58.9485 
G01 X-12.0360 Y58.8257 
G01 X-11.9795 Y58.6894 
G01 X-11.9507 Y58.5446 
G00 Z2.5400 
G00 X-25.2857 Y42.6696 
G01 Z-0.1000 F254.00 
G01 X-25.2857 Y41.2012 F200.00 
G01 X-25.3145 Y41.0564 
G01 X-25.3710 Y40.9201 
G01 X-25.4530 Y40.7973 
G01 X-25.5573 Y40.6930 
G01 X-25.6801 Y40.6110 
G01 X-25.8164 Y40.5545 
G01 X-25.9612 Y40.5257 
G01 X-26.1088 Y40.5257 
G01 X-26.2536 Y40.5545 
G01 X-26.3899 Y40.6110 
G01 X-26.5127 Y40.6930 
G01 X-26.6170 Y40.7973 
G01 X-26.6990 Y40.9201 
G01 X-26.7555 Y41.0564 
G01 X-26.7843 Y41.2012 
G01 X-26.7843 Y42.6696 
G01 X-26.7555 Y42.8144 
G01 X-26.6990 Y42.9507 
G01 X-26.6170 Y43.0735 
G01 X-26.5127 Y43.1778 
G01 X-26.3899 Y43.2598 
G01 X-26.2536 Y43.3163 
G01 X-26.1088 Y43.3451 
G01 X-25.9612 Y43.3451 
G01 X-25.8164 Y43.3163 
G01 X-25.6801 Y43.2598 
G01 X-25.5573 Y43.1778 
G01 X-25.4530 Y43.0735 
G01 X-25.3710 Y42.9507 
G01 X-25.3145 Y42.8144 
G01 X-25.2857 Y42.6696 
G00 Z2.5400 
G00 X-27.8257 Y42.6696 
G01 Z-0.1000 F254.00 
G01 X-27.8257 Y41.2012 F200.00 
G01 X-27.8545 Y41.0564 
G01 X-27.9110 Y40.9201 
G01 X-27.9930 Y40.7973 
G01 X-28.0973 Y40.6930 
G01 X-28.2201 Y40.6110 
G01 X-28.3564 Y40.5545 
G01 X-28.5012 Y40.5257 
G01 X-28.6488 Y40.5257 
G01 X-28.7936 Y40.5545 
G01 X-28.9299 Y40.6110 
G01 X-29.0526 Y40.6930 
G01 X-29.1570 Y40.7973 
G01 X-29.2390 Y40.9201 
G01 X-29.2955 Y41.0564 
G01 X-29.3243 Y41.2012 
G01 X-29.3243 Y42.6696 
G01 X-29.2955 Y42.8144 
G01 X-29.2390 Y42.9507 
G01 X-29.1570 Y43.0735 
G01 X-29.0526 Y43.1778 
G01 X-28.9299 Y43.2598 
G01 X-28.7936 Y43.3163 
G01 X-28.6488 Y43.3451 
G01 X-28.5012 Y43.3451 
G01 X-28.3564 Y43.3163 
G01 X-28.2201 Y43.2598 
G01 X-28.0973 Y43.1778 
G01 X-27.9930 Y43.0735 
G01 X-27.9110 Y42.9507 
G01 X-27.8545 Y42.8144 
G01 X-27.8257 Y42.6696 
G00 Z2.5400 
G00 X-29.3243 Y32.2604 
G01 Z-0.1000 F254.00 
G01 X-29.3243 Y33.7288 F200.00 
G01 X-29.2955 Y33.8736 
G01 X-29.2390 Y34.0099 
G01 X-29.1570 Y34.1326 
G01 X-29.0526 Y34.2370 
G01 X-28.9299 Y34.3190 
G01 X-28.7936 Y34.3755 
G01 X-28.6488 Y34.4043 
G01 X-28.5012 Y34.4043 
G01 X-28.3564 Y34.3755 
G01 X-28.2201 Y34.3190 
G01 X-28.0973 Y34.2370 
G01 X-27.9930 Y34.1326 
G01 X-27.9110 Y34.0099 
G01 X-27.8545 Y33.8736 
G01 X-27.8257 Y33.7288 
G01 X-27.8257 Y32.2604 
G01 X-27.8545 Y32.1156 
G01 X-27.9110 Y31.9793 
G01 X-27.9930 Y31.8565 
G01 X-28.0973 Y31.7522 
G01 X-28.2201 Y31.6702 
G01 X-28.3564 Y31.6137 
G01 X-28.5012 Y31.5849 
G01 X-28.6488 Y31.5849 
G01 X-28.7936 Y31.6137 
G01 X-28.9299 Y31.6702 
G01 X-29.0526 Y31.7522 
G01 X-29.1570 Y31.8565 
G01 X-29.2390 Y31.9793 
G01 X-29.2955 Y32.1156 
G01 X-29.3243 Y32.2604 
G00 Z2.5400 
G00 X-26.7843 Y32.2604 
G01 Z-0.1000 F254.00 
G01 X-26.7843 Y33.7288 F200.00 
G01 X-26.7555 Y33.8736 
G01 X-26.6990 Y34.0099 
G01 X-26.6170 Y34.1326 
G01 X-26.5127 Y34.2370 
G01 X-26.3899 Y34.3190 
G01 X-26.2536 Y34.3755 
G01 X-26.1088 Y34.4043 
G01 X-25.9612 Y34.4043 
G01 X-25.8164 Y34.3755 
G01 X-25.6801 Y34.3190 
G01 X-25.5573 Y34.2370 
G01 X-25.4530 Y34.1326 
G01 X-25.3710 Y34.0099 
G01 X-25.3145 Y33.8736 
G01 X-25.2857 Y33.7288 
G01 X-25.2857 Y32.2604 
G01 X-25.3145 Y32.1156 
G01 X-25.3710 Y31.9793 
G01 X-25.4530 Y31.8565 
G01 X-25.5573 Y31.7522 
G01 X-25.6801 Y31.6702 
G01 X-25.8164 Y31.6137 
G01 X-25.9612 Y31.5849 
G01 X-26.1088 Y31.5849 
G01 X-26.2536 Y31.6137 
G01 X-26.3899 Y31.6702 
G01 X-26.5127 Y31.7522 
G01 X-26.6170 Y31.8565 
G01 X-26.6990 Y31.9793 
G01 X-26.7555 Y32.1156 
G01 X-26.7843 Y32.2604 
G00 Z2.5400 
G00 X-9.6393 Y23.1846 
G01 Z-0.1000 F254.00 
G01 X-9.6393 Y23.8054 F200.00 
G01 X-9.2004 Y24.2443 
G01 X-8.5796 Y24.2443 
G01 X-8.1407 Y23.8054 
G01 X-8.1407 Y23.1846 
G01 X-8.5796 Y22.7457 
G01 X-9.2004 Y22.7457 
G01 X-9.6393 Y23.1846 
G00 Z2.5400 
G00 X-12.1793 Y23.1846 
G01 Z-0.1000 F254.00 
G01 X-12.1793 Y23.8054 F200.00 
G01 X-11.7404 Y24.2443 
G01 X-11.1196 Y24.2443 
G01 X-10.6807 Y23.8054 
G01 X-10.6807 Y23.1846 
G01 X-11.1196 Y22.7457 
G01 X-11.7404 Y22.7457 
G01 X-12.1793 Y23.1846 
G00 Z2.5400 
G00 X-5.8229 Y39.2968 
G01 Z-0.1000 F254.00 
G01 X-5.8229 Y39.4432 F200.00 
G01 X-5.7943 Y39.5867 
G01 X-5.7383 Y39.7219 
G01 X-5.6570 Y39.8436 
G01 X-5.5536 Y39.9470 
G01 X-5.4319 Y40.0283 
G01 X-5.2967 Y40.0843 
G01 X-5.1532 Y40.1129 
G01 X-5.0068 Y40.1129 
G01 X-4.8633 Y40.0843 
G01 X-4.7281 Y40.0283 
G01 X-4.6064 Y39.9470 
G01 X-4.5030 Y39.8436 
G01 X-4.4217 Y39.7219 
G01 X-4.3657 Y39.5867 
G01 X-4.3371 Y39.4432 
G01 X-4.3371 Y39.2968 
G01 X-4.3657 Y39.1533 
G01 X-4.4217 Y39.0181 
G01 X-4.5030 Y38.8964 
G01 X-4.6064 Y38.7930 
G01 X-4.7281 Y38.7116 
G01 X-4.8633 Y38.6557 
G01 X-5.0068 Y38.6271 
G01 X-5.1532 Y38.6271 
G01 X-5.2967 Y38.6557 
G01 X-5.4319 Y38.7116 
G01 X-5.5536 Y38.7930 
G01 X-5.6570 Y38.8964 
G01 X-5.7383 Y39.0181 
G01 X-5.7943 Y39.1533 
G01 X-5.8229 Y39.2968 
G00 Z2.5400 
G00 X-5.8229 Y41.8368 
G01 Z-0.1000 F254.00 
G01 X-5.8229 Y41.9832 F200.00 
G01 X-5.7943 Y42.1267 
G01 X-5.7383 Y42.2619 
G01 X-5.6570 Y42.3836 
G01 X-5.5536 Y42.4870 
G01 X-5.4319 Y42.5683 
G01 X-5.2967 Y42.6243 
G01 X-5.1532 Y42.6529 
G01 X-5.0068 Y42.6529 
G01 X-4.8633 Y42.6243 
G01 X-4.7281 Y42.5683 
G01 X-4.6064 Y42.4870 
G01 X-4.5030 Y42.3836 
G01 X-4.4217 Y42.2619 
G01 X-4.3657 Y42.1267 
G01 X-4.3371 Y41.9832 
G01 X-4.3371 Y41.8368 
G01 X-4.3657 Y41.6933 
G01 X-4.4217 Y41.5581 
G01 X-4.5030 Y41.4364 
G01 X-4.6064 Y41.3330 
G01 X-4.7281 Y41.2517 
G01 X-4.8633 Y41.1957 
G01 X-5.0068 Y41.1671 
G01 X-5.1532 Y41.1671 
G01 X-5.2967 Y41.1957 
G01 X-5.4319 Y41.2517 
G01 X-5.5536 Y41.3330 
G01 X-5.6570 Y41.4364 
G01 X-5.7383 Y41.5581 
G01 X-5.7943 Y41.6933 
G01 X-5.8229 Y41.8368 
G00 Z2.5400 
G00 X-5.8229 Y44.3768 
G01 Z-0.1000 F254.00 
G01 X-5.8229 Y44.5232 F200.00 
G01 X-5.7943 Y44.6667 
G01 X-5.7383 Y44.8019 
G01 X-5.6570 Y44.9236 
G01 X-5.5536 Y45.0270 
G01 X-5.4319 Y45.1083 
G01 X-5.2967 Y45.1643 
G01 X-5.1532 Y45.1929 
G01 X-5.0068 Y45.1929 
G01 X-4.8633 Y45.1643 
G01 X-4.7281 Y45.1083 
G01 X-4.6064 Y45.0270 
G01 X-4.5030 Y44.9236 
G01 X-4.4217 Y44.8019 
G01 X-4.3657 Y44.6667 
G01 X-4.3371 Y44.5232 
G01 X-4.3371 Y44.3768 
G01 X-4.3657 Y44.2333 
G01 X-4.4217 Y44.0981 
G01 X-4.5030 Y43.9764 
G01 X-4.6064 Y43.8730 
G01 X-4.7281 Y43.7917 
G01 X-4.8633 Y43.7356 
G01 X-5.0068 Y43.7071 
G01 X-5.1532 Y43.7071 
G01 X-5.2967 Y43.7356 
G01 X-5.4319 Y43.7917 
G01 X-5.5536 Y43.8730 
G01 X-5.6570 Y43.9764 
G01 X-5.7383 Y44.0981 
G01 X-5.7943 Y44.2333 
G01 X-5.8229 Y44.3768 
G00 Z2.5400 
G00 X-5.8229 Y46.9168 
G01 Z-0.1000 F254.00 
G01 X-5.8229 Y47.0632 F200.00 
G01 X-5.7943 Y47.2067 
G01 X-5.7383 Y47.3419 
G01 X-5.6570 Y47.4636 
G01 X-5.5536 Y47.5670 
G01 X-5.4319 Y47.6483 
G01 X-5.2967 Y47.7043 
G01 X-5.1532 Y47.7329 
G01 X-5.0068 Y47.7329 
G01 X-4.8633 Y47.7043 
G01 X-4.7281 Y47.6483 
G01 X-4.6064 Y47.5670 
G01 X-4.5030 Y47.4636 
G01 X-4.4217 Y47.3419 
G01 X-4.3657 Y47.2067 
G01 X-4.3371 Y47.0632 
G01 X-4.3371 Y46.9168 
G01 X-4.3657 Y46.7733 
G01 X-4.4217 Y46.6381 
G01 X-4.5030 Y46.5164 
G01 X-4.6064 Y46.4130 
G01 X-4.7281 Y46.3317 
G01 X-4.8633 Y46.2756 
G01 X-5.0068 Y46.2471 
G01 X-5.1532 Y46.2471 
G01 X-5.2967 Y46.2756 
G01 X-5.4319 Y46.3317 
G01 X-5.5536 Y46.4130 
G01 X-5.6570 Y46.5164 
G01 X-5.7383 Y46.6381 
G01 X-5.7943 Y46.7733 
G01 X-5.8229 Y46.9168 
G00 Z2.5400 
G00 X-9.1694 Y29.7549 
G01 Z-0.1000 F254.00 
G01 X-9.1694 Y29.9351 F200.00 
G01 X-9.1343 Y30.1117 
G01 X-9.0653 Y30.2781 
G01 X-8.9653 Y30.4279 
G01 X-8.8379 Y30.5553 
G01 X-8.6881 Y30.6553 
G01 X-8.5217 Y30.7243 
G01 X-8.3451 Y30.7594 
G01 X-8.1649 Y30.7594 
G01 X-7.9883 Y30.7243 
G01 X-7.8219 Y30.6553 
G01 X-7.6721 Y30.5553 
G01 X-7.5447 Y30.4279 
G01 X-7.4447 Y30.2781 
G01 X-7.3757 Y30.1117 
G01 X-7.3406 Y29.9351 
G01 X-7.3406 Y29.7549 
G01 X-7.3757 Y29.5783 
G01 X-7.4447 Y29.4119 
G01 X-7.5447 Y29.2621 
G01 X-7.6721 Y29.1347 
G01 X-7.8219 Y29.0347 
G01 X-7.9883 Y28.9657 
G01 X-8.1649 Y28.9306 
G01 X-8.3451 Y28.9306 
G01 X-8.5217 Y28.9657 
G01 X-8.6881 Y29.0347 
G01 X-8.8379 Y29.1347 
G01 X-8.9653 Y29.2621 
G01 X-9.0653 Y29.4119 
G01 X-9.1343 Y29.5783 
G01 X-9.1694 Y29.7549 
G00 Z2.5400 
G00 X-11.7094 Y29.0018 
G01 Z-0.1000 F254.00 
G01 X-11.7094 Y30.6882 F200.00 
G01 X-11.6959 Y30.7209 
G01 X-11.6709 Y30.7459 
G01 X-11.6382 Y30.7594 
G01 X-9.9518 Y30.7594 
G01 X-9.9191 Y30.7459 
G01 X-9.8941 Y30.7209 
G01 X-9.8806 Y30.6882 
G01 X-9.8806 Y29.0018 
G01 X-9.8941 Y28.9691 
G01 X-9.9191 Y28.9441 
G01 X-9.9518 Y28.9306 
G01 X-11.6382 Y28.9306 
G01 X-11.6709 Y28.9441 
G01 X-11.6959 Y28.9691 
G01 X-11.7094 Y29.0018 
G00 Z2.5400 
G00 X-14.9239 Y9.2773 
G01 Z-0.1000 F254.00 
G01 X-14.9239 Y12.3127 F200.00 
G01 X-14.9104 Y12.3454 
G01 X-14.8854 Y12.3704 
G01 X-14.8527 Y12.3839 
G01 X-11.8173 Y12.3839 
G01 X-11.7846 Y12.3704 
G01 X-11.7596 Y12.3454 
G01 X-11.7461 Y12.3127 
G01 X-11.7461 Y9.2773 
G01 X-11.7596 Y9.2446 
G01 X-11.7846 Y9.2196 
G01 X-11.8173 Y9.2061 
G01 X-14.8527 Y9.2061 
G01 X-14.8854 Y9.2196 
G01 X-14.9104 Y9.2446 
G01 X-14.9239 Y9.2773 
G00 Z2.5400 
G00 X-25.0839 Y9.2773 
G01 Z-0.1000 F254.00 
G01 X-25.0839 Y12.3127 F200.00 
G01 X-25.0704 Y12.3454 
G01 X-25.0454 Y12.3704 
G01 X-25.0127 Y12.3839 
G01 X-21.9773 Y12.3839 
G01 X-21.9446 Y12.3704 
G01 X-21.9196 Y12.3454 
G01 X-21.9061 Y12.3127 
G01 X-21.9061 Y9.2773 
G01 X-21.9196 Y9.2446 
G01 X-21.9446 Y9.2196 
G01 X-21.9773 Y9.2061 
G01 X-25.0127 Y9.2061 
G01 X-25.0454 Y9.2196 
G01 X-25.0704 Y9.2446 
G01 X-25.0839 Y9.2773 
G00 Z2.5400 
G00 X-4.1639 Y1.8076 
G01 Z-0.1000 F254.00 
G01 X-4.1639 Y2.0024 F200.00 
G01 X-4.1259 Y2.1934 
G01 X-4.0514 Y2.3734 
G01 X-3.9431 Y2.5354 
G01 X-3.8054 Y2.6731 
G01 X-3.6434 Y2.7814 
G01 X-3.4635 Y2.8559 
G01 X-3.2724 Y2.8939 
G01 X-3.0776 Y2.8939 
G01 X-2.8865 Y2.8559 
G01 X-2.7066 Y2.7814 
G01 X-2.5446 Y2.6731 
G01 X-2.4069 Y2.5354 
G01 X-2.2986 Y2.3734 
G01 X-2.2241 Y2.1934 
G01 X-2.1861 Y2.0024 
G01 X-2.1861 Y1.8076 
G01 X-2.2241 Y1.6165 
G01 X-2.2986 Y1.4366 
G01 X-2.4069 Y1.2746 
G01 X-2.5446 Y1.1369 
G01 X-2.7066 Y1.0286 
G01 X-2.8865 Y0.9541 
G01 X-3.0776 Y0.9161 
G01 X-3.2724 Y0.9161 
G01 X-3.4635 Y0.9541 
G01 X-3.6434 Y1.0286 
G01 X-3.8054 Y1.1369 
G01 X-3.9431 Y1.2746 
G01 X-4.0514 Y1.4366 
G01 X-4.1259 Y1.6165 
G01 X-4.1639 Y1.8076 
G00 Z2.5400 
G00 X-30.8339 Y1.8076 
G01 Z-0.1000 F254.00 
G01 X-30.8339 Y2.0024 F200.00 
G01 X-30.7959 Y2.1934 
G01 X-30.7214 Y2.3734 
G01 X-30.6131 Y2.5354 
G01 X-30.4754 Y2.6731 
G01 X-30.3134 Y2.7814 
G01 X-30.1334 Y2.8559 
G01 X-29.9424 Y2.8939 
G01 X-29.7476 Y2.8939 
G01 X-29.5565 Y2.8559 
G01 X-29.3766 Y2.7814 
G01 X-29.2146 Y2.6731 
G01 X-29.0769 Y2.5354 
G01 X-28.9686 Y2.3734 
G01 X-28.8941 Y2.1934 
G01 X-28.8561 Y2.0024 
G01 X-28.8561 Y1.8076 
G01 X-28.8941 Y1.6165 
G01 X-28.9686 Y1.4366 
G01 X-29.0769 Y1.2746 
G01 X-29.2146 Y1.1369 
G01 X-29.3766 Y1.0286 
G01 X-29.5565 Y0.9541 
G01 X-29.7476 Y0.9161 
G01 X-29.9424 Y0.9161 
G01 X-30.1334 Y0.9541 
G01 X-30.3134 Y1.0286 
G01 X-30.4754 Y1.1369 
G01 X-30.6131 Y1.2746 
G01 X-30.7214 Y1.4366 
G01 X-30.7959 Y1.6165 
G01 X-30.8339 Y1.8076 
G00 Z2.5400 
G00 X-4.1639 Y71.6576 
G01 Z-0.1000 F254.00 
G01 X-4.1639 Y71.8524 F200.00 
G01 X-4.1259 Y72.0435 
G01 X-4.0514 Y72.2234 
G01 X-3.9431 Y72.3854 
G01 X-3.8054 Y72.5231 
G01 X-3.6434 Y72.6313 
G01 X-3.4635 Y72.7059 
G01 X-3.2724 Y72.7439 
G01 X-3.0776 Y72.7439 
G01 X-2.8865 Y72.7059 
G01 X-2.7066 Y72.6313 
G01 X-2.5446 Y72.5231 
G01 X-2.4069 Y72.3854 
G01 X-2.2986 Y72.2234 
G01 X-2.2241 Y72.0435 
G01 X-2.1861 Y71.8524 
G01 X-2.1861 Y71.6576 
G01 X-2.2241 Y71.4665 
G01 X-2.2986 Y71.2866 
G01 X-2.4069 Y71.1246 
G01 X-2.5446 Y70.9869 
G01 X-2.7066 Y70.8786 
G01 X-2.8865 Y70.8041 
G01 X-3.0776 Y70.7661 
G01 X-3.2724 Y70.7661 
G01 X-3.4635 Y70.8041 
G01 X-3.6434 Y70.8786 
G01 X-3.8054 Y70.9869 
G01 X-3.9431 Y71.1246 
G01 X-4.0514 Y71.2866 
G01 X-4.1259 Y71.4665 
G01 X-4.1639 Y71.6576 
G00 Z2.5400 
G00 X-30.8339 Y71.6576 
G01 Z-0.1000 F254.00 
G01 X-30.8339 Y71.8524 F200.00 
G01 X-30.7959 Y72.0435 
G01 X-30.7214 Y72.2234 
G01 X-30.6131 Y72.3854 
G01 X-30.4754 Y72.5231 
G01 X-30.3134 Y72.6313 
G01 X-30.1334 Y72.7059 
G01 X-29.9424 Y72.7439 
G01 X-29.7476 Y72.7439 
G01 X-29.5565 Y72.7059 
G01 X-29.3766 Y72.6313 
G01 X-29.2146 Y72.5231 
G01 X-29.0769 Y72.3854 
G01 X-28.9686 Y72.2234 
G01 X-28.8941 Y72.0435 
G01 X-28.8561 Y71.8524 
G01 X-28.8561 Y71.6576 
G01 X-28.8941 Y71.4665 
G01 X-28.9686 Y71.2866 
G01 X-29.0769 Y71.1246 
G01 X-29.2146 Y70.9869 
G01 X-29.3766 Y70.8786 
G01 X-29.5565 Y70.8041 
G01 X-29.7476 Y70.7661 
G01 X-29.9424 Y70.7661 
G01 X-30.1334 Y70.8041 
G01 X-30.3134 Y70.8786 
G01 X-30.4754 Y70.9869 
G01 X-30.6131 Y71.1246 
G01 X-30.7214 Y71.2866 
G01 X-30.7959 Y71.4665 
G01 X-30.8339 Y71.6576 
G00 Z2.5400 
G00 X-17.6989 Y53.6720 
G01 Z-0.1000 F254.00 
G01 X-17.6989 Y54.0671 F200.00 
G01 X-19.7046 Y54.0671 
G01 X-19.3707 Y53.7332 
G01 X-19.3707 Y52.9468 
G01 X-19.9268 Y52.3907 
G01 X-20.7132 Y52.3907 
G01 X-21.2693 Y52.9468 
G01 X-21.2693 Y53.7332 
G01 X-20.9354 Y54.0671 
G01 X-22.3061 Y54.0671 
G01 X-22.3061 Y53.0370 
G01 X-22.3258 Y52.9635 
G01 X-22.3638 Y52.8976 
G01 X-22.4176 Y52.8438 
G01 X-22.4835 Y52.8058 
G01 X-22.5570 Y52.7861 
G01 X-24.4330 Y52.7861 
G01 X-24.5065 Y52.8058 
G01 X-24.5724 Y52.8438 
G01 X-24.6262 Y52.8976 
G01 X-24.6642 Y52.9635 
G01 X-24.6839 Y53.0370 
G01 X-24.6839 Y54.9130 
G01 X-24.6642 Y54.9865 
G01 X-24.6262 Y55.0524 
G01 X-24.5724 Y55.1062 
G01 X-24.5065 Y55.1442 
G01 X-24.4330 Y55.1639 
G01 X-22.5570 Y55.1639 
G01 X-22.5159 Y55.1529 
G01 X-17.6989 Y55.1529 
G01 X-17.6989 Y55.5480 
G01 X-17.6792 Y55.6215 
G01 X-17.6412 Y55.6874 
G01 X-17.5874 Y55.7412 
G01 X-17.5215 Y55.7792 
G01 X-17.4480 Y55.7989 
G01 X-15.5720 Y55.7989 
G01 X-15.4985 Y55.7792 
G01 X-15.4326 Y55.7412 
G01 X-15.3788 Y55.6874 
G01 X-15.3408 Y55.6215 
G01 X-15.3211 Y55.5480 
G01 X-15.3211 Y53.6720 
G01 X-15.3408 Y53.5985 
G01 X-15.3788 Y53.5326 
G01 X-15.4326 Y53.4788 
G01 X-15.4985 Y53.4408 
G01 X-15.5720 Y53.4211 
G01 X-17.4480 Y53.4211 
G01 X-17.5215 Y53.4408 
G01 X-17.5874 Y53.4788 
G01 X-17.6412 Y53.5326 
G01 X-17.6792 Y53.5985 
G01 X-17.6989 Y53.6720 
G00 Z2.5400 
G00 X-24.6839 Y13.6670 
G01 Z-0.1000 F254.00 
G01 X-24.6839 Y15.5430 F200.00 
G01 X-24.6642 Y15.6165 
G01 X-24.6262 Y15.6824 
G01 X-24.5724 Y15.7362 
G01 X-24.5065 Y15.7742 
G01 X-24.4330 Y15.7939 
G01 X-22.5570 Y15.7939 
G01 X-22.4835 Y15.7742 
G01 X-22.4176 Y15.7362 
G01 X-22.3638 Y15.6824 
G01 X-22.3258 Y15.6165 
G01 X-22.3061 Y15.5430 
G01 X-22.3061 Y15.1479 
G01 X-13.8889 Y15.1479 
G01 X-13.8889 Y15.5430 
G01 X-13.8692 Y15.6165 
G01 X-13.8312 Y15.6824 
G01 X-13.7774 Y15.7362 
G01 X-13.7115 Y15.7742 
G01 X-13.6380 Y15.7939 
G01 X-11.7620 Y15.7939 
G01 X-11.6885 Y15.7742 
G01 X-11.6226 Y15.7362 
G01 X-11.5688 Y15.6824 
G01 X-11.5308 Y15.6165 
G01 X-11.5111 Y15.5430 
G01 X-11.5111 Y13.6670 
G01 X-11.5308 Y13.5935 
G01 X-11.5688 Y13.5276 
G01 X-11.6226 Y13.4738 
G01 X-11.6885 Y13.4358 
G01 X-11.7620 Y13.4161 
G01 X-13.6380 Y13.4161 
G01 X-13.7115 Y13.4358 
G01 X-13.7774 Y13.4738 
G01 X-13.8312 Y13.5276 
G01 X-13.8692 Y13.5935 
G01 X-13.8889 Y13.6670 
G01 X-13.8889 Y14.0621 
G01 X-22.3061 Y14.0621 
G01 X-22.3061 Y13.6670 
G01 X-22.3258 Y13.5935 
G01 X-22.3638 Y13.5276 
G01 X-22.4176 Y13.4738 
G01 X-22.4835 Y13.4358 
G01 X-22.5570 Y13.4161 
G01 X-24.4330 Y13.4161 
G01 X-24.5065 Y13.4358 
G01 X-24.5724 Y13.4738 
G01 X-24.6262 Y13.5276 
G01 X-24.6642 Y13.5935 
G01 X-24.6839 Y13.6670 
G00 Z2.5400 
G00 X-15.7939 Y3.4514 
G01 Z-0.1000 F254.00 
G01 X-15.7939 Y5.4386 F200.00 
G01 X-15.7646 Y5.6234 
G01 X-15.7068 Y5.8014 
G01 X-15.6218 Y5.9681 
G01 X-15.5118 Y6.1195 
G01 X-15.3795 Y6.2518 
G01 X-15.2281 Y6.3618 
G01 X-15.0614 Y6.4468 
G01 X-14.8834 Y6.5046 
G01 X-14.6986 Y6.5339 
G01 X-14.5114 Y6.5339 
G01 X-14.3266 Y6.5046 
G01 X-14.1486 Y6.4468 
G01 X-13.9819 Y6.3618 
G01 X-13.8305 Y6.2518 
G01 X-13.6982 Y6.1195 
G01 X-13.5882 Y5.9681 
G01 X-13.5032 Y5.8014 
G01 X-13.4454 Y5.6234 
G01 X-13.4161 Y5.4386 
G01 X-13.4161 Y3.4514 
G01 X-13.4454 Y3.2666 
G01 X-13.5032 Y3.0886 
G01 X-13.5882 Y2.9219 
G01 X-13.6982 Y2.7705 
G01 X-13.8305 Y2.6382 
G01 X-13.9819 Y2.5282 
G01 X-14.1486 Y2.4432 
G01 X-14.3266 Y2.3854 
G01 X-14.5114 Y2.3561 
G01 X-14.6986 Y2.3561 
G01 X-14.8834 Y2.3854 
G01 X-15.0614 Y2.4432 
G01 X-15.2281 Y2.5282 
G01 X-15.3795 Y2.6382 
G01 X-15.5118 Y2.7705 
G01 X-15.6218 Y2.9219 
G01 X-15.7068 Y3.0886 
G01 X-15.7646 Y3.2666 
G01 X-15.7939 Y3.4514 
G00 Z2.5400 
G00 X-18.3339 Y3.4514 
G01 Z-0.1000 F254.00 
G01 X-18.3339 Y5.4386 F200.00 
G01 X-18.3046 Y5.6234 
G01 X-18.2468 Y5.8014 
G01 X-18.1618 Y5.9681 
G01 X-18.0518 Y6.1195 
G01 X-17.9195 Y6.2518 
G01 X-17.7681 Y6.3618 
G01 X-17.6014 Y6.4468 
G01 X-17.4234 Y6.5046 
G01 X-17.2386 Y6.5339 
G01 X-17.0514 Y6.5339 
G01 X-16.8666 Y6.5046 
G01 X-16.6886 Y6.4468 
G01 X-16.5219 Y6.3618 
G01 X-16.3705 Y6.2518 
G01 X-16.2382 Y6.1195 
G01 X-16.1282 Y5.9681 
G01 X-16.0432 Y5.8014 
G01 X-15.9854 Y5.6234 
G01 X-15.9561 Y5.4386 
G01 X-15.9561 Y3.4514 
G01 X-15.9854 Y3.2666 
G01 X-16.0432 Y3.0886 
G01 X-16.1282 Y2.9219 
G01 X-16.2382 Y2.7705 
G01 X-16.3705 Y2.6382 
G01 X-16.5219 Y2.5282 
G01 X-16.6886 Y2.4432 
G01 X-16.8666 Y2.3854 
G01 X-17.0514 Y2.3561 
G01 X-17.2386 Y2.3561 
G01 X-17.4234 Y2.3854 
G01 X-17.6014 Y2.4432 
G01 X-17.7681 Y2.5282 
G01 X-17.9195 Y2.6382 
G01 X-18.0518 Y2.7705 
G01 X-18.1618 Y2.9219 
G01 X-18.2468 Y3.0886 
G01 X-18.3046 Y3.2666 
G01 X-18.3339 Y3.4514 
G00 Z2.5400 
G00 X-20.8739 Y3.4514 
G01 Z-0.1000 F254.00 
G01 X-20.8739 Y5.4386 F200.00 
G01 X-20.8446 Y5.6234 
G01 X-20.7868 Y5.8014 
G01 X-20.7018 Y5.9681 
G01 X-20.5918 Y6.1195 
G01 X-20.4595 Y6.2518 
G01 X-20.3081 Y6.3618 
G01 X-20.1414 Y6.4468 
G01 X-19.9634 Y6.5046 
G01 X-19.7786 Y6.5339 
G01 X-19.5914 Y6.5339 
G01 X-19.4066 Y6.5046 
G01 X-19.2286 Y6.4468 
G01 X-19.0619 Y6.3618 
G01 X-18.9105 Y6.2518 
G01 X-18.7782 Y6.1195 
G01 X-18.6682 Y5.9681 
G01 X-18.5832 Y5.8014 
G01 X-18.5254 Y5.6234 
G01 X-18.4961 Y5.4386 
G01 X-18.4961 Y3.4514 
G01 X-18.5254 Y3.2666 
G01 X-18.5832 Y3.0886 
G01 X-18.6682 Y2.9219 
G01 X-18.7782 Y2.7705 
G01 X-18.9105 Y2.6382 
G01 X-19.0619 Y2.5282 
G01 X-19.2286 Y2.4432 
G01 X-19.4066 Y2.3854 
G01 X-19.5914 Y2.3561 
G01 X-19.7786 Y2.3561 
G01 X-19.9634 Y2.3854 
G01 X-20.1414 Y2.4432 
G01 X-20.3081 Y2.5282 
G01 X-20.4595 Y2.6382 
G01 X-20.5918 Y2.7705 
G01 X-20.7018 Y2.9219 
G01 X-20.7868 Y3.0886 
G01 X-20.8446 Y3.2666 
G01 X-20.8739 Y3.4514 
G00 Z2.5400 
G00 X-23.4139 Y3.4514 
G01 Z-0.1000 F254.00 
G01 X-23.4139 Y5.4386 F200.00 
G01 X-23.3846 Y5.6234 
G01 X-23.3268 Y5.8014 
G01 X-23.2418 Y5.9681 
G01 X-23.1318 Y6.1195 
G01 X-22.9995 Y6.2518 
G01 X-22.8481 Y6.3618 
G01 X-22.6814 Y6.4468 
G01 X-22.5034 Y6.5046 
G01 X-22.3186 Y6.5339 
G01 X-22.1314 Y6.5339 
G01 X-21.9466 Y6.5046 
G01 X-21.7686 Y6.4468 
G01 X-21.6019 Y6.3618 
G01 X-21.4505 Y6.2518 
G01 X-21.3182 Y6.1195 
G01 X-21.2082 Y5.9681 
G01 X-21.1232 Y5.8014 
G01 X-21.0654 Y5.6234 
G01 X-21.0361 Y5.4386 
G01 X-21.0361 Y3.4514 
G01 X-21.0654 Y3.2666 
G01 X-21.1232 Y3.0886 
G01 X-21.2082 Y2.9219 
G01 X-21.3182 Y2.7705 
G01 X-21.4505 Y2.6382 
G01 X-21.6019 Y2.5282 
G01 X-21.7686 Y2.4432 
G01 X-21.9466 Y2.3854 
G01 X-22.1314 Y2.3561 
G01 X-22.3186 Y2.3561 
G01 X-22.5034 Y2.3854 
G01 X-22.6814 Y2.4432 
G01 X-22.8481 Y2.5282 
G01 X-22.9995 Y2.6382 
G01 X-23.1318 Y2.7705 
G01 X-23.2418 Y2.9219 
G01 X-23.3268 Y3.0886 
G01 X-23.3846 Y3.2666 
G01 X-23.4139 Y3.4514 
G00 Z2.5400 
G00 X-28.8893 Y50.4068 
G01 Z-0.1000 F254.00 
G01 X-28.8893 Y51.1932 F200.00 
G01 X-28.3332 Y51.7493 
G01 X-27.5468 Y51.7493 
G01 X-26.9907 Y51.1932 
G01 X-26.9907 Y50.4068 
G01 X-27.5468 Y49.8507 
G01 X-28.3332 Y49.8507 
G01 X-28.8893 Y50.4068 
G00 Z2.5400 
G00 X-26.9843 Y51.6768 
G01 Z-0.1000 F254.00 
G01 X-26.9843 Y52.4632 F200.00 
G01 X-26.4282 Y53.0193 
G01 X-25.6418 Y53.0193 
G01 X-25.0857 Y52.4632 
G01 X-25.0857 Y51.6768 
G01 X-25.6418 Y51.1207 
G01 X-26.4282 Y51.1207 
G01 X-26.9843 Y51.6768 
G00 Z2.5400 
G00 X-28.8893 Y52.9468 
G01 Z-0.1000 F254.00 
G01 X-28.8893 Y53.7332 F200.00 
G01 X-28.3332 Y54.2893 
G01 X-27.5468 Y54.2893 
G01 X-26.9907 Y53.7332 
G01 X-26.9907 Y52.9468 
G01 X-27.5468 Y52.3907 
G01 X-28.3332 Y52.3907 
G01 X-28.8893 Y52.9468 
G00 Z2.5400 
G00 X-21.2693 Y50.4068 
G01 Z-0.1000 F254.00 
G01 X-21.2693 Y51.1932 F200.00 
G01 X-20.7132 Y51.7493 
G01 X-19.9268 Y51.7493 
G01 X-19.3707 Y51.1932 
G01 X-19.3707 Y50.4068 
G01 X-19.9268 Y49.8507 
G01 X-20.7132 Y49.8507 
G01 X-21.2693 Y50.4068 
G00 Z2.5400 
G00 X-19.3643 Y51.6768 
G01 Z-0.1000 F254.00 
G01 X-19.3643 Y52.4632 F200.00 
G01 X-18.8082 Y53.0193 
G01 X-18.0218 Y53.0193 
G01 X-17.4657 Y52.4632 
G01 X-17.4657 Y51.6768 
G01 X-18.0218 Y51.1207 
G01 X-18.8082 Y51.1207 
G01 X-19.3643 Y51.6768 
G00 Z2.5400 
G00 X-13.0143 Y41.5168 
G01 Z-0.1000 F254.00 
G01 X-13.0143 Y42.3032 F200.00 
G01 X-12.4582 Y42.8593 
G01 X-11.6718 Y42.8593 
G01 X-11.1157 Y42.3032 
G01 X-11.1157 Y41.5168 
G01 X-11.6718 Y40.9607 
G01 X-12.4582 Y40.9607 
G01 X-13.0143 Y41.5168 
G00 Z2.5400 
G00 X-14.2843 Y43.4218 
G01 Z-0.1000 F254.00 
G01 X-14.2843 Y44.2082 F200.00 
G01 X-13.7282 Y44.7643 
G01 X-12.9418 Y44.7643 
G01 X-12.3857 Y44.2082 
G01 X-12.3857 Y43.4218 
G01 X-12.9418 Y42.8657 
G01 X-13.7282 Y42.8657 
G01 X-14.2843 Y43.4218 
G00 Z2.5400 
G00 X-15.5543 Y41.5168 
G01 Z-0.1000 F254.00 
G01 X-15.5543 Y42.3032 F200.00 
G01 X-14.9982 Y42.8593 
G01 X-14.2118 Y42.8593 
G01 X-13.6557 Y42.3032 
G01 X-13.6557 Y41.5168 
G01 X-14.2118 Y40.9607 
G01 X-14.9982 Y40.9607 
G01 X-15.5543 Y41.5168 
G00 Z2.5400 
G00 X-4.8609 Y67.1003 
G01 Z-0.1000 F254.00 
G01 X-4.8609 Y68.7897 F200.00 
G01 X-4.8350 Y68.9531 
G01 X-4.7839 Y69.1104 
G01 X-4.7088 Y69.2578 
G01 X-4.6116 Y69.3916 
G01 X-4.4946 Y69.5086 
G01 X-4.3608 Y69.6058 
G01 X-4.2134 Y69.6809 
G01 X-4.0561 Y69.7320 
G01 X-3.8927 Y69.7579 
G01 X-3.7273 Y69.7579 
G01 X-3.5639 Y69.7320 
G01 X-3.4066 Y69.6809 
G01 X-3.2592 Y69.6058 
G01 X-3.1254 Y69.5086 
G01 X-3.0084 Y69.3916 
G01 X-2.9112 Y69.2578 
G01 X-2.8361 Y69.1104 
G01 X-2.7850 Y68.9531 
G01 X-2.7591 Y68.7897 
G01 X-2.7591 Y67.1003 
G01 X-2.7850 Y66.9369 
G01 X-2.8361 Y66.7796 
G01 X-2.9112 Y66.6322 
G01 X-3.0084 Y66.4984 
G01 X-3.1254 Y66.3814 
G01 X-3.2592 Y66.2842 
G01 X-3.4066 Y66.2091 
G01 X-3.5639 Y66.1580 
G01 X-3.7273 Y66.1321 
G01 X-3.8927 Y66.1321 
G01 X-4.0561 Y66.1580 
G01 X-4.2134 Y66.2091 
G01 X-4.3608 Y66.2842 
G01 X-4.4946 Y66.3814 
G01 X-4.6116 Y66.4984 
G01 X-4.7088 Y66.6322 
G01 X-4.7839 Y66.7796 
G01 X-4.8350 Y66.9369 
G01 X-4.8609 Y67.1003 
G00 Z2.5400 
G00 X-7.4009 Y67.1003 
G01 Z-0.1000 F254.00 
G01 X-7.4009 Y68.7897 F200.00 
G01 X-7.3750 Y68.9531 
G01 X-7.3239 Y69.1104 
G01 X-7.2488 Y69.2578 
G01 X-7.1516 Y69.3916 
G01 X-7.0346 Y69.5086 
G01 X-6.9008 Y69.6058 
G01 X-6.7534 Y69.6809 
G01 X-6.5961 Y69.7320 
G01 X-6.4327 Y69.7579 
G01 X-6.2673 Y69.7579 
G01 X-6.1039 Y69.7320 
G01 X-5.9466 Y69.6809 
G01 X-5.7992 Y69.6058 
G01 X-5.6654 Y69.5086 
G01 X-5.5484 Y69.3916 
G01 X-5.4512 Y69.2578 
G01 X-5.3761 Y69.1104 
G01 X-5.3250 Y68.9531 
G01 X-5.2991 Y68.7897 
G01 X-5.2991 Y67.1003 
G01 X-5.3250 Y66.9369 
G01 X-5.3761 Y66.7796 
G01 X-5.4512 Y66.6322 
G01 X-5.5484 Y66.4984 
G01 X-5.6654 Y66.3814 
G01 X-5.7992 Y66.2842 
G01 X-5.9466 Y66.2091 
G01 X-6.1039 Y66.1580 
G01 X-6.2673 Y66.1321 
G01 X-6.4327 Y66.1321 
G01 X-6.5961 Y66.1580 
G01 X-6.7534 Y66.2091 
G01 X-6.9008 Y66.2842 
G01 X-7.0346 Y66.3814 
G01 X-7.1516 Y66.4984 
G01 X-7.2488 Y66.6322 
G01 X-7.3239 Y66.7796 
G01 X-7.3750 Y66.9369 
G01 X-7.4009 Y67.1003 
G00 Z2.5400 
G00 X-9.9409 Y67.1003 
G01 Z-0.1000 F254.00 
G01 X-9.9409 Y68.7897 F200.00 
G01 X-9.9150 Y68.9531 
G01 X-9.8639 Y69.1104 
G01 X-9.7888 Y69.2578 
G01 X-9.6916 Y69.3916 
G01 X-9.5746 Y69.5086 
G01 X-9.4408 Y69.6058 
G01 X-9.2934 Y69.6809 
G01 X-9.1361 Y69.7320 
G01 X-8.9727 Y69.7579 
G01 X-8.8073 Y69.7579 
G01 X-8.6439 Y69.7320 
G01 X-8.4866 Y69.6809 
G01 X-8.3392 Y69.6058 
G01 X-8.2054 Y69.5086 
G01 X-8.0884 Y69.3916 
G01 X-7.9912 Y69.2578 
G01 X-7.9161 Y69.1104 
G01 X-7.8650 Y68.9531 
G01 X-7.8391 Y68.7897 
G01 X-7.8391 Y67.1003 
G01 X-7.8650 Y66.9369 
G01 X-7.9161 Y66.7796 
G01 X-7.9912 Y66.6322 
G01 X-8.0884 Y66.4984 
G01 X-8.2054 Y66.3814 
G01 X-8.3392 Y66.2842 
G01 X-8.4866 Y66.2091 
G01 X-8.6439 Y66.1580 
G01 X-8.8073 Y66.1321 
G01 X-8.9727 Y66.1321 
G01 X-9.1361 Y66.1580 
G01 X-9.2934 Y66.2091 
G01 X-9.4408 Y66.2842 
G01 X-9.5746 Y66.3814 
G01 X-9.6916 Y66.4984 
G01 X-9.7888 Y66.6322 
G01 X-9.8639 Y66.7796 
G01 X-9.9150 Y66.9369 
G01 X-9.9409 Y67.1003 
G00 Z2.5400 
G00 X-26.8891 Y68.7897 
G01 Z-0.1000 F254.00 
G01 X-26.8891 Y67.1003 F200.00 
G01 X-26.9150 Y66.9369 
G01 X-26.9661 Y66.7796 
G01 X-27.0412 Y66.6322 
G01 X-27.1384 Y66.4984 
G01 X-27.2554 Y66.3814 
G01 X-27.3892 Y66.2842 
G01 X-27.5366 Y66.2091 
G01 X-27.6939 Y66.1580 
G01 X-27.8573 Y66.1321 
G01 X-28.0227 Y66.1321 
G01 X-28.1861 Y66.1580 
G01 X-28.3434 Y66.2091 
G01 X-28.4908 Y66.2842 
G01 X-28.6246 Y66.3814 
G01 X-28.7416 Y66.4984 
G01 X-28.8388 Y66.6322 
G01 X-28.9139 Y66.7796 
G01 X-28.9650 Y66.9369 
G01 X-28.9909 Y67.1003 
G01 X-28.9909 Y68.7897 
G01 X-28.9650 Y68.9531 
G01 X-28.9139 Y69.1104 
G01 X-28.8388 Y69.2578 
G01 X-28.7416 Y69.3916 
G01 X-28.6246 Y69.5086 
G01 X-28.4908 Y69.6058 
G01 X-28.3434 Y69.6809 
G01 X-28.1861 Y69.7320 
G01 X-28.0227 Y69.7579 
G01 X-27.8573 Y69.7579 
G01 X-27.6939 Y69.7320 
G01 X-27.5366 Y69.6809 
G01 X-27.3892 Y69.6058 
G01 X-27.2554 Y69.5086 
G01 X-27.1384 Y69.3916 
G01 X-27.0412 Y69.2578 
G01 X-26.9661 Y69.1104 
G01 X-26.9150 Y68.9531 
G01 X-26.8891 Y68.7897 
G00 Z2.5400 
G00 X-24.3491 Y68.7897 
G01 Z-0.1000 F254.00 
G01 X-24.3491 Y67.1003 F200.00 
G01 X-24.3750 Y66.9369 
G01 X-24.4261 Y66.7796 
G01 X-24.5012 Y66.6322 
G01 X-24.5984 Y66.4984 
G01 X-24.7154 Y66.3814 
G01 X-24.8492 Y66.2842 
G01 X-24.9966 Y66.2091 
G01 X-25.1539 Y66.1580 
G01 X-25.3173 Y66.1321 
G01 X-25.4827 Y66.1321 
G01 X-25.6461 Y66.1580 
G01 X-25.8034 Y66.2091 
G01 X-25.9508 Y66.2842 
G01 X-26.0846 Y66.3814 
G01 X-26.2016 Y66.4984 
G01 X-26.2988 Y66.6322 
G01 X-26.3739 Y66.7796 
G01 X-26.4250 Y66.9369 
G01 X-26.4509 Y67.1003 
G01 X-26.4509 Y68.7897 
G01 X-26.4250 Y68.9531 
G01 X-26.3739 Y69.1104 
G01 X-26.2988 Y69.2578 
G01 X-26.2016 Y69.3916 
G01 X-26.0846 Y69.5086 
G01 X-25.9508 Y69.6058 
G01 X-25.8034 Y69.6809 
G01 X-25.6461 Y69.7320 
G01 X-25.4827 Y69.7579 
G01 X-25.3173 Y69.7579 
G01 X-25.1539 Y69.7320 
G01 X-24.9966 Y69.6809 
G01 X-24.8492 Y69.6058 
G01 X-24.7154 Y69.5086 
G01 X-24.5984 Y69.3916 
G01 X-24.5012 Y69.2578 
G01 X-24.4261 Y69.1104 
G01 X-24.3750 Y68.9531 
G01 X-24.3491 Y68.7897 
G00 Z2.5400 
G00 X-21.8091 Y68.7897 
G01 Z-0.1000 F254.00 
G01 X-21.8091 Y67.1003 F200.00 
G01 X-21.8350 Y66.9369 
G01 X-21.8861 Y66.7796 
G01 X-21.9612 Y66.6322 
G01 X-22.0584 Y66.4984 
G01 X-22.1754 Y66.3814 
G01 X-22.3092 Y66.2842 
G01 X-22.4566 Y66.2091 
G01 X-22.6139 Y66.1580 
G01 X-22.7773 Y66.1321 
G01 X-22.9427 Y66.1321 
G01 X-23.1061 Y66.1580 
G01 X-23.2634 Y66.2091 
G01 X-23.4108 Y66.2842 
G01 X-23.5446 Y66.3814 
G01 X-23.6616 Y66.4984 
G01 X-23.7588 Y66.6322 
G01 X-23.8339 Y66.7796 
G01 X-23.8850 Y66.9369 
G01 X-23.9109 Y67.1003 
G01 X-23.9109 Y68.7897 
G01 X-23.8850 Y68.9531 
G01 X-23.8339 Y69.1104 
G01 X-23.7588 Y69.2578 
G01 X-23.6616 Y69.3916 
G01 X-23.5446 Y69.5086 
G01 X-23.4108 Y69.6058 
G01 X-23.2634 Y69.6809 
G01 X-23.1061 Y69.7320 
G01 X-22.9427 Y69.7579 
G01 X-22.7773 Y69.7579 
G01 X-22.6139 Y69.7320 
G01 X-22.4566 Y69.6809 
G01 X-22.3092 Y69.6058 
G01 X-22.1754 Y69.5086 
G01 X-22.0584 Y69.3916 
G01 X-21.9612 Y69.2578 
G01 X-21.8861 Y69.1104 
G01 X-21.8350 Y68.9531 
G01 X-21.8091 Y68.7897 
G00 Z2.5400 
G00 X-19.2691 Y68.7897 
G01 Z-0.1000 F254.00 
G01 X-19.2691 Y67.1003 F200.00 
G01 X-19.2950 Y66.9369 
G01 X-19.3461 Y66.7796 
G01 X-19.4212 Y66.6322 
G01 X-19.5184 Y66.4984 
G01 X-19.6354 Y66.3814 
G01 X-19.7692 Y66.2842 
G01 X-19.9166 Y66.2091 
G01 X-20.0739 Y66.1580 
G01 X-20.2373 Y66.1321 
G01 X-20.4027 Y66.1321 
G01 X-20.5661 Y66.1580 
G01 X-20.7234 Y66.2091 
G01 X-20.8708 Y66.2842 
G01 X-21.0046 Y66.3814 
G01 X-21.1216 Y66.4984 
G01 X-21.2188 Y66.6322 
G01 X-21.2939 Y66.7796 
G01 X-21.3450 Y66.9369 
G01 X-21.3709 Y67.1003 
G01 X-21.3709 Y68.7897 
G01 X-21.3450 Y68.9531 
G01 X-21.2939 Y69.1104 
G01 X-21.2188 Y69.2578 
G01 X-21.1216 Y69.3916 
G01 X-21.0046 Y69.5086 
G01 X-20.8708 Y69.6058 
G01 X-20.7234 Y69.6809 
G01 X-20.5661 Y69.7320 
G01 X-20.4027 Y69.7579 
G01 X-20.2373 Y69.7579 
G01 X-20.0739 Y69.7320 
G01 X-19.9166 Y69.6809 
G01 X-19.7692 Y69.6058 
G01 X-19.6354 Y69.5086 
G01 X-19.5184 Y69.3916 
G01 X-19.4212 Y69.2578 
G01 X-19.3461 Y69.1104 
G01 X-19.2950 Y68.9531 
G01 X-19.2691 Y68.7897 
G00 Z2.5400 
G00 X-16.7291 Y68.7897 
G01 Z-0.1000 F254.00 
G01 X-16.7291 Y67.1003 F200.00 
G01 X-16.7550 Y66.9369 
G01 X-16.8061 Y66.7796 
G01 X-16.8812 Y66.6322 
G01 X-16.9784 Y66.4984 
G01 X-17.0954 Y66.3814 
G01 X-17.2292 Y66.2842 
G01 X-17.3766 Y66.2091 
G01 X-17.5339 Y66.1580 
G01 X-17.6973 Y66.1321 
G01 X-17.8627 Y66.1321 
G01 X-18.0261 Y66.1580 
G01 X-18.1834 Y66.2091 
G01 X-18.3308 Y66.2842 
G01 X-18.4646 Y66.3814 
G01 X-18.5816 Y66.4984 
G01 X-18.6788 Y66.6322 
G01 X-18.7539 Y66.7796 
G01 X-18.8050 Y66.9369 
G01 X-18.8309 Y67.1003 
G01 X-18.8309 Y68.7897 
G01 X-18.8050 Y68.9531 
G01 X-18.7539 Y69.1104 
G01 X-18.6788 Y69.2578 
G01 X-18.5816 Y69.3916 
G01 X-18.4646 Y69.5086 
G01 X-18.3308 Y69.6058 
G01 X-18.1834 Y69.6809 
G01 X-18.0261 Y69.7320 
G01 X-17.8627 Y69.7579 
G01 X-17.6973 Y69.7579 
G01 X-17.5339 Y69.7320 
G01 X-17.3766 Y69.6809 
G01 X-17.2292 Y69.6058 
G01 X-17.0954 Y69.5086 
G01 X-16.9784 Y69.3916 
G01 X-16.8812 Y69.2578 
G01 X-16.8061 Y69.1104 
G01 X-16.7550 Y68.9531 
G01 X-16.7291 Y68.7897 
G00 Z2.5400 
G00 X-18.1007 Y47.7693 
G01 Z-0.1000 F254.00 
G01 X-18.1007 Y46.2615 F200.00 
G01 X-18.1372 Y46.0781 
G01 X-18.2087 Y45.9053 
G01 X-18.3126 Y45.7499 
G01 X-18.4449 Y45.6176 
G01 X-18.6003 Y45.5137 
G01 X-18.7731 Y45.4422 
G01 X-18.9565 Y45.4057 
G01 X-19.1435 Y45.4057 
G01 X-19.3269 Y45.4422 
G01 X-19.4997 Y45.5137 
G01 X-19.6551 Y45.6176 
G01 X-19.7874 Y45.7499 
G01 X-19.8913 Y45.9053 
G01 X-19.9628 Y46.0781 
G01 X-19.9993 Y46.2615 
G01 X-19.9993 Y47.7693 
G01 X-19.9628 Y47.9527 
G01 X-19.8913 Y48.1255 
G01 X-19.7874 Y48.2809 
G01 X-19.6551 Y48.4132 
G01 X-19.4997 Y48.5171 
G01 X-19.3269 Y48.5886 
G01 X-19.1435 Y48.6251 
G01 X-18.9565 Y48.6251 
G01 X-18.7731 Y48.5886 
G01 X-18.6003 Y48.5171 
G01 X-18.4449 Y48.4132 
G01 X-18.3126 Y48.2809 
G01 X-18.2087 Y48.1255 
G01 X-18.1372 Y47.9527 
G01 X-18.1007 Y47.7693 
G00 Z2.5400 
G00 X-20.6407 Y47.7693 
G01 Z-0.1000 F254.00 
G01 X-20.6407 Y46.2615 F200.00 
G01 X-20.6772 Y46.0781 
G01 X-20.7487 Y45.9053 
G01 X-20.8526 Y45.7499 
G01 X-20.9849 Y45.6176 
G01 X-21.1403 Y45.5137 
G01 X-21.3131 Y45.4422 
G01 X-21.4965 Y45.4057 
G01 X-21.6835 Y45.4057 
G01 X-21.8669 Y45.4422 
G01 X-22.0397 Y45.5137 
G01 X-22.1951 Y45.6176 
G01 X-22.3274 Y45.7499 
G01 X-22.4313 Y45.9053 
G01 X-22.5028 Y46.0781 
G01 X-22.5393 Y46.2615 
G01 X-22.5393 Y47.7693 
G01 X-22.5028 Y47.9527 
G01 X-22.4313 Y48.1255 
G01 X-22.3274 Y48.2809 
G01 X-22.1951 Y48.4132 
G01 X-22.0397 Y48.5171 
G01 X-21.8669 Y48.5886 
G01 X-21.6835 Y48.6251 
G01 X-21.4965 Y48.6251 
G01 X-21.3131 Y48.5886 
G01 X-21.1403 Y48.5171 
G01 X-20.9849 Y48.4132 
G01 X-20.8526 Y48.2809 
G01 X-20.7487 Y48.1255 
G01 X-20.6772 Y47.9527 
G01 X-20.6407 Y47.7693 
G00 Z2.5400 
G00 X-22.5393 Y37.3207 
G01 Z-0.1000 F254.00 
G01 X-22.5393 Y38.8285 F200.00 
G01 X-22.5028 Y39.0119 
G01 X-22.4313 Y39.1847 
G01 X-22.3274 Y39.3401 
G01 X-22.1951 Y39.4724 
G01 X-22.0397 Y39.5763 
G01 X-21.8669 Y39.6478 
G01 X-21.6835 Y39.6843 
G01 X-21.4965 Y39.6843 
G01 X-21.3131 Y39.6478 
G01 X-21.1403 Y39.5763 
G01 X-20.9849 Y39.4724 
G01 X-20.8526 Y39.3401 
G01 X-20.7487 Y39.1847 
G01 X-20.6772 Y39.0119 
G01 X-20.6407 Y38.8285 
G01 X-20.6407 Y37.3207 
G01 X-20.6772 Y37.1373 
G01 X-20.7487 Y36.9645 
G01 X-20.8526 Y36.8091 
G01 X-20.9849 Y36.6768 
G01 X-21.1403 Y36.5729 
G01 X-21.3131 Y36.5014 
G01 X-21.4965 Y36.4649 
G01 X-21.6835 Y36.4649 
G01 X-21.8669 Y36.5014 
G01 X-22.0397 Y36.5729 
G01 X-22.1951 Y36.6768 
G01 X-22.3274 Y36.8091 
G01 X-22.4313 Y36.9645 
G01 X-22.5028 Y37.1373 
G01 X-22.5393 Y37.3207 
G00 Z2.5400 
G00 X-19.9993 Y37.3207 
G01 Z-0.1000 F254.00 
G01 X-19.9993 Y38.8285 F200.00 
G01 X-19.9628 Y39.0119 
G01 X-19.8913 Y39.1847 
G01 X-19.7874 Y39.3401 
G01 X-19.6551 Y39.4724 
G01 X-19.4997 Y39.5763 
G01 X-19.3269 Y39.6478 
G01 X-19.1435 Y39.6843 
G01 X-18.9565 Y39.6843 
G01 X-18.7731 Y39.6478 
G01 X-18.6003 Y39.5763 
G01 X-18.4449 Y39.4724 
G01 X-18.3126 Y39.3401 
G01 X-18.2087 Y39.1847 
G01 X-18.1372 Y39.0119 
G01 X-18.1007 Y38.8285 
G01 X-18.1007 Y37.3207 
G01 X-18.1372 Y37.1373 
G01 X-18.2087 Y36.9645 
G01 X-18.3126 Y36.8091 
G01 X-18.4449 Y36.6768 
G01 X-18.6003 Y36.5729 
G01 X-18.7731 Y36.5014 
G01 X-18.9565 Y36.4649 
G01 X-19.1435 Y36.4649 
G01 X-19.3269 Y36.5014 
G01 X-19.4997 Y36.5729 
G01 X-19.6551 Y36.6768 
G01 X-19.7874 Y36.8091 
G01 X-19.8913 Y36.9645 
G01 X-19.9628 Y37.1373 
G01 X-19.9993 Y37.3207 
G00 Z2.5400 
G00 X-13.6493 Y48.1157 
G01 Z-0.1000 F254.00 
G01 X-13.6493 Y49.6235 F200.00 
G01 X-13.6128 Y49.8069 
G01 X-13.5413 Y49.9797 
G01 X-13.4374 Y50.1351 
G01 X-13.3051 Y50.2674 
G01 X-13.1497 Y50.3713 
G01 X-12.9769 Y50.4428 
G01 X-12.7935 Y50.4793 
G01 X-12.6065 Y50.4793 
G01 X-12.4231 Y50.4428 
G01 X-12.2503 Y50.3713 
G01 X-12.0949 Y50.2674 
G01 X-11.9626 Y50.1351 
G01 X-11.8587 Y49.9797 
G01 X-11.7872 Y49.8069 
G01 X-11.7507 Y49.6235 
G01 X-11.7507 Y48.1157 
G01 X-11.7872 Y47.9323 
G01 X-11.8587 Y47.7595 
G01 X-11.9626 Y47.6041 
G01 X-12.0949 Y47.4718 
G01 X-12.2503 Y47.3679 
G01 X-12.4231 Y47.2964 
G01 X-12.6065 Y47.2599 
G01 X-12.7935 Y47.2599 
G01 X-12.9769 Y47.2964 
G01 X-13.1497 Y47.3679 
G01 X-13.3051 Y47.4718 
G01 X-13.4374 Y47.6041 
G01 X-13.5413 Y47.7595 
G01 X-13.6128 Y47.9323 
G01 X-13.6493 Y48.1157 
G00 Z2.5400 
G00 X-11.1093 Y48.1157 
G01 Z-0.1000 F254.00 
G01 X-11.1093 Y49.6235 F200.00 
G01 X-11.0728 Y49.8069 
G01 X-11.0013 Y49.9797 
G01 X-10.8974 Y50.1351 
G01 X-10.7651 Y50.2674 
G01 X-10.6097 Y50.3713 
G01 X-10.4369 Y50.4428 
G01 X-10.2535 Y50.4793 
G01 X-10.0665 Y50.4793 
G01 X-9.8831 Y50.4428 
G01 X-9.7103 Y50.3713 
G01 X-9.5549 Y50.2674 
G01 X-9.4226 Y50.1351 
G01 X-9.3187 Y49.9797 
G01 X-9.2472 Y49.8069 
G01 X-9.2107 Y49.6235 
G01 X-9.2107 Y48.1157 
G01 X-9.2472 Y47.9323 
G01 X-9.3187 Y47.7595 
G01 X-9.4226 Y47.6041 
G01 X-9.5549 Y47.4718 
G01 X-9.7103 Y47.3679 
G01 X-9.8831 Y47.2964 
G01 X-10.0665 Y47.2599 
G01 X-10.2535 Y47.2599 
G01 X-10.4369 Y47.2964 
G01 X-10.6097 Y47.3679 
G01 X-10.7651 Y47.4718 
G01 X-10.8974 Y47.6041 
G01 X-11.0013 Y47.7595 
G01 X-11.0728 Y47.9323 
G01 X-11.1093 Y48.1157 
G00 Z2.5400 
G00 X-9.2107 Y58.5643 
G01 Z-0.1000 F254.00 
G01 X-9.2107 Y57.0565 F200.00 
G01 X-9.2472 Y56.8731 
G01 X-9.3187 Y56.7003 
G01 X-9.4226 Y56.5449 
G01 X-9.5549 Y56.4126 
G01 X-9.7103 Y56.3087 
G01 X-9.8831 Y56.2372 
G01 X-10.0665 Y56.2007 
G01 X-10.2535 Y56.2007 
G01 X-10.4369 Y56.2372 
G01 X-10.6097 Y56.3087 
G01 X-10.7651 Y56.4126 
G01 X-10.8974 Y56.5449 
G01 X-11.0013 Y56.7003 
G01 X-11.0728 Y56.8731 
G01 X-11.1093 Y57.0565 
G01 X-11.1093 Y58.5643 
G01 X-11.0728 Y58.7477 
G01 X-11.0013 Y58.9205 
G01 X-10.8974 Y59.0759 
G01 X-10.7651 Y59.2082 
G01 X-10.6097 Y59.3121 
G01 X-10.4369 Y59.3836 
G01 X-10.2535 Y59.4201 
G01 X-10.0665 Y59.4201 
G01 X-9.8831 Y59.3836 
G01 X-9.7103 Y59.3121 
G01 X-9.5549 Y59.2082 
G01 X-9.4226 Y59.0759 
G01 X-9.3187 Y58.9205 
G01 X-9.2472 Y58.7477 
G01 X-9.2107 Y58.5643 
G00 Z2.5400 
G00 X-11.7507 Y58.5643 
G01 Z-0.1000 F254.00 
G01 X-11.7507 Y57.0565 F200.00 
G01 X-11.7872 Y56.8731 
G01 X-11.8587 Y56.7003 
G01 X-11.9626 Y56.5449 
G01 X-12.0949 Y56.4126 
G01 X-12.2503 Y56.3087 
G01 X-12.4231 Y56.2372 
G01 X-12.6065 Y56.2007 
G01 X-12.7935 Y56.2007 
G01 X-12.9769 Y56.2372 
G01 X-13.1497 Y56.3087 
G01 X-13.3051 Y56.4126 
G01 X-13.4374 Y56.5449 
G01 X-13.5413 Y56.7003 
G01 X-13.6128 Y56.8731 
G01 X-13.6493 Y57.0565 
G01 X-13.6493 Y58.5643 
G01 X-13.6128 Y58.7477 
G01 X-13.5413 Y58.9205 
G01 X-13.4374 Y59.0759 
G01 X-13.3051 Y59.2082 
G01 X-13.1497 Y59.3121 
G01 X-12.9769 Y59.3836 
G01 X-12.7935 Y59.4201 
G01 X-12.6065 Y59.4201 
G01 X-12.4231 Y59.3836 
G01 X-12.2503 Y59.3121 
G01 X-12.0949 Y59.2082 
G01 X-11.9626 Y59.0759 
G01 X-11.8587 Y58.9205 
G01 X-11.7872 Y58.7477 
G01 X-11.7507 Y58.5643 
G00 Z2.5400 
G00 X-25.0857 Y42.6893 
G01 Z-0.1000 F254.00 
G01 X-25.0857 Y41.1815 F200.00 
G01 X-25.1222 Y40.9981 
G01 X-25.1937 Y40.8253 
G01 X-25.2976 Y40.6699 
G01 X-25.4299 Y40.5376 
G01 X-25.5853 Y40.4337 
G01 X-25.7581 Y40.3622 
G01 X-25.9415 Y40.3257 
G01 X-26.1285 Y40.3257 
G01 X-26.3119 Y40.3622 
G01 X-26.4847 Y40.4337 
G01 X-26.6401 Y40.5376 
G01 X-26.7724 Y40.6699 
G01 X-26.8763 Y40.8253 
G01 X-26.9478 Y40.9981 
G01 X-26.9843 Y41.1815 
G01 X-26.9843 Y42.6893 
G01 X-26.9478 Y42.8727 
G01 X-26.8763 Y43.0455 
G01 X-26.7724 Y43.2009 
G01 X-26.6401 Y43.3332 
G01 X-26.4847 Y43.4371 
G01 X-26.3119 Y43.5086 
G01 X-26.1285 Y43.5451 
G01 X-25.9415 Y43.5451 
G01 X-25.7581 Y43.5086 
G01 X-25.5853 Y43.4371 
G01 X-25.4299 Y43.3332 
G01 X-25.2976 Y43.2009 
G01 X-25.1937 Y43.0455 
G01 X-25.1222 Y42.8727 
G01 X-25.0857 Y42.6893 
G00 Z2.5400 
G00 X-27.6257 Y42.6893 
G01 Z-0.1000 F254.00 
G01 X-27.6257 Y41.1815 F200.00 
G01 X-27.6622 Y40.9981 
G01 X-27.7337 Y40.8253 
G01 X-27.8376 Y40.6699 
G01 X-27.9699 Y40.5376 
G01 X-28.1253 Y40.4337 
G01 X-28.2981 Y40.3622 
G01 X-28.4815 Y40.3257 
G01 X-28.6685 Y40.3257 
G01 X-28.8519 Y40.3622 
G01 X-29.0247 Y40.4337 
G01 X-29.1801 Y40.5376 
G01 X-29.3124 Y40.6699 
G01 X-29.4163 Y40.8253 
G01 X-29.4878 Y40.9981 
G01 X-29.5243 Y41.1815 
G01 X-29.5243 Y42.6893 
G01 X-29.4878 Y42.8727 
G01 X-29.4163 Y43.0455 
G01 X-29.3124 Y43.2009 
G01 X-29.1801 Y43.3332 
G01 X-29.0247 Y43.4371 
G01 X-28.8519 Y43.5086 
G01 X-28.6685 Y43.5451 
G01 X-28.4815 Y43.5451 
G01 X-28.2981 Y43.5086 
G01 X-28.1253 Y43.4371 
G01 X-27.9699 Y43.3332 
G01 X-27.8376 Y43.2009 
G01 X-27.7337 Y43.0455 
G01 X-27.6622 Y42.8727 
G01 X-27.6257 Y42.6893 
G00 Z2.5400 
G00 X-29.5243 Y32.2407 
G01 Z-0.1000 F254.00 
G01 X-29.5243 Y33.7485 F200.00 
G01 X-29.4878 Y33.9319 
G01 X-29.4163 Y34.1047 
G01 X-29.3124 Y34.2601 
G01 X-29.1801 Y34.3924 
G01 X-29.0247 Y34.4963 
G01 X-28.8519 Y34.5678 
G01 X-28.6685 Y34.6043 
G01 X-28.4815 Y34.6043 
G01 X-28.2981 Y34.5678 
G01 X-28.1253 Y34.4963 
G01 X-27.9699 Y34.3924 
G01 X-27.8376 Y34.2601 
G01 X-27.7337 Y34.1047 
G01 X-27.6622 Y33.9319 
G01 X-27.6257 Y33.7485 
G01 X-27.6257 Y32.2407 
G01 X-27.6622 Y32.0573 
G01 X-27.7337 Y31.8845 
G01 X-27.8376 Y31.7291 
G01 X-27.9699 Y31.5968 
G01 X-28.1253 Y31.4929 
G01 X-28.2981 Y31.4214 
G01 X-28.4815 Y31.3849 
G01 X-28.6685 Y31.3849 
G01 X-28.8519 Y31.4214 
G01 X-29.0247 Y31.4929 
G01 X-29.1801 Y31.5968 
G01 X-29.3124 Y31.7291 
G01 X-29.4163 Y31.8845 
G01 X-29.4878 Y32.0573 
G01 X-29.5243 Y32.2407 
G00 Z2.5400 
G00 X-26.9843 Y32.2407 
G01 Z-0.1000 F254.00 
G01 X-26.9843 Y33.7485 F200.00 
G01 X-26.9478 Y33.9319 
G01 X-26.8763 Y34.1047 
G01 X-26.7724 Y34.2601 
G01 X-26.6401 Y34.3924 
G01 X-26.4847 Y34.4963 
G01 X-26.3119 Y34.5678 
G01 X-26.1285 Y34.6043 
G01 X-25.9415 Y34.6043 
G01 X-25.7581 Y34.5678 
G01 X-25.5853 Y34.4963 
G01 X-25.4299 Y34.3924 
G01 X-25.2976 Y34.2601 
G01 X-25.1937 Y34.1047 
G01 X-25.1222 Y33.9319 
G01 X-25.0857 Y33.7485 
G01 X-25.0857 Y32.2407 
G01 X-25.1222 Y32.0573 
G01 X-25.1937 Y31.8845 
G01 X-25.2976 Y31.7291 
G01 X-25.4299 Y31.5968 
G01 X-25.5853 Y31.4929 
G01 X-25.7581 Y31.4214 
G01 X-25.9415 Y31.3849 
G01 X-26.1285 Y31.3849 
G01 X-26.3119 Y31.4214 
G01 X-26.4847 Y31.4929 
G01 X-26.6401 Y31.5968 
G01 X-26.7724 Y31.7291 
G01 X-26.8763 Y31.8845 
G01 X-26.9478 Y32.0573 
G01 X-26.9843 Y32.2407 
G00 Z2.5400 
G00 X-9.8393 Y23.1018 
G01 Z-0.1000 F254.00 
G01 X-9.8393 Y23.8882 F200.00 
G01 X-9.2832 Y24.4443 
G01 X-8.4968 Y24.4443 
G01 X-7.9407 Y23.8882 
G01 X-7.9407 Y23.1018 
G01 X-8.4968 Y22.5457 
G01 X-9.2832 Y22.5457 
G01 X-9.8393 Y23.1018 
G00 Z2.5400 
G00 X-12.3793 Y23.1018 
G01 Z-0.1000 F254.00 
G01 X-12.3793 Y23.8882 F200.00 
G01 X-11.8232 Y24.4443 
G01 X-11.0368 Y24.4443 
G01 X-10.4807 Y23.8882 
G01 X-10.4807 Y23.1018 
G01 X-11.0368 Y22.5457 
G01 X-11.8232 Y22.5457 
G01 X-12.3793 Y23.1018 
G00 Z2.5400 
G00 X-6.0229 Y39.2771 
G01 Z-0.1000 F254.00 
G01 X-6.0229 Y39.4629 F200.00 
G01 X-5.9867 Y39.6450 
G01 X-5.9156 Y39.8166 
G01 X-5.8124 Y39.9711 
G01 X-5.6811 Y40.1024 
G01 X-5.5266 Y40.2056 
G01 X-5.3550 Y40.2767 
G01 X-5.1729 Y40.3129 
G01 X-4.9871 Y40.3129 
G01 X-4.8050 Y40.2767 
G01 X-4.6334 Y40.2056 
G01 X-4.4789 Y40.1024 
G01 X-4.3476 Y39.9711 
G01 X-4.2444 Y39.8166 
G01 X-4.1733 Y39.6450 
G01 X-4.1371 Y39.4629 
G01 X-4.1371 Y39.2771 
G01 X-4.1733 Y39.0950 
G01 X-4.2444 Y38.9234 
G01 X-4.3476 Y38.7689 
G01 X-4.4789 Y38.6376 
G01 X-4.6334 Y38.5344 
G01 X-4.8050 Y38.4633 
G01 X-4.9871 Y38.4271 
G01 X-5.1729 Y38.4271 
G01 X-5.3550 Y38.4633 
G01 X-5.5266 Y38.5344 
G01 X-5.6811 Y38.6376 
G01 X-5.8124 Y38.7689 
G01 X-5.9156 Y38.9234 
G01 X-5.9867 Y39.0950 
G01 X-6.0229 Y39.2771 
G00 Z2.5400 
G00 X-6.0229 Y41.8171 
G01 Z-0.1000 F254.00 
G01 X-6.0229 Y42.0029 F200.00 
G01 X-5.9867 Y42.1850 
G01 X-5.9156 Y42.3566 
G01 X-5.8124 Y42.5111 
G01 X-5.6811 Y42.6424 
G01 X-5.5266 Y42.7456 
G01 X-5.3550 Y42.8167 
G01 X-5.1729 Y42.8529 
G01 X-4.9871 Y42.8529 
G01 X-4.8050 Y42.8167 
G01 X-4.6334 Y42.7456 
G01 X-4.4789 Y42.6424 
G01 X-4.3476 Y42.5111 
G01 X-4.2444 Y42.3566 
G01 X-4.1733 Y42.1850 
G01 X-4.1371 Y42.0029 
G01 X-4.1371 Y41.8171 
G01 X-4.1733 Y41.6350 
G01 X-4.2444 Y41.4634 
G01 X-4.3476 Y41.3089 
G01 X-4.4789 Y41.1776 
G01 X-4.6334 Y41.0744 
G01 X-4.8050 Y41.0033 
G01 X-4.9871 Y40.9671 
G01 X-5.1729 Y40.9671 
G01 X-5.3550 Y41.0033 
G01 X-5.5266 Y41.0744 
G01 X-5.6811 Y41.1776 
G01 X-5.8124 Y41.3089 
G01 X-5.9156 Y41.4634 
G01 X-5.9867 Y41.6350 
G01 X-6.0229 Y41.8171 
G00 Z2.5400 
G00 X-6.0229 Y44.3571 
G01 Z-0.1000 F254.00 
G01 X-6.0229 Y44.5429 F200.00 
G01 X-5.9867 Y44.7250 
G01 X-5.9156 Y44.8966 
G01 X-5.8124 Y45.0511 
G01 X-5.6811 Y45.1824 
G01 X-5.5266 Y45.2856 
G01 X-5.3550 Y45.3567 
G01 X-5.1729 Y45.3929 
G01 X-4.9871 Y45.3929 
G01 X-4.8050 Y45.3567 
G01 X-4.6334 Y45.2856 
G01 X-4.4789 Y45.1824 
G01 X-4.3476 Y45.0511 
G01 X-4.2444 Y44.8966 
G01 X-4.1733 Y44.7250 
G01 X-4.1371 Y44.5429 
G01 X-4.1371 Y44.3571 
G01 X-4.1733 Y44.1750 
G01 X-4.2444 Y44.0034 
G01 X-4.3476 Y43.8489 
G01 X-4.4789 Y43.7176 
G01 X-4.6334 Y43.6144 
G01 X-4.8050 Y43.5433 
G01 X-4.9871 Y43.5071 
G01 X-5.1729 Y43.5071 
G01 X-5.3550 Y43.5433 
G01 X-5.5266 Y43.6144 
G01 X-5.6811 Y43.7176 
G01 X-5.8124 Y43.8489 
G01 X-5.9156 Y44.0034 
G01 X-5.9867 Y44.1750 
G01 X-6.0229 Y44.3571 
G00 Z2.5400 
G00 X-6.0229 Y46.8971 
G01 Z-0.1000 F254.00 
G01 X-6.0229 Y47.0829 F200.00 
G01 X-5.9867 Y47.2650 
G01 X-5.9156 Y47.4366 
G01 X-5.8124 Y47.5911 
G01 X-5.6811 Y47.7224 
G01 X-5.5266 Y47.8256 
G01 X-5.3550 Y47.8967 
G01 X-5.1729 Y47.9329 
G01 X-4.9871 Y47.9329 
G01 X-4.8050 Y47.8967 
G01 X-4.6334 Y47.8256 
G01 X-4.4789 Y47.7224 
G01 X-4.3476 Y47.5911 
G01 X-4.2444 Y47.4366 
G01 X-4.1733 Y47.2650 
G01 X-4.1371 Y47.0829 
G01 X-4.1371 Y46.8971 
G01 X-4.1733 Y46.7150 
G01 X-4.2444 Y46.5434 
G01 X-4.3476 Y46.3889 
G01 X-4.4789 Y46.2576 
G01 X-4.6334 Y46.1544 
G01 X-4.8050 Y46.0833 
G01 X-4.9871 Y46.0471 
G01 X-5.1729 Y46.0471 
G01 X-5.3550 Y46.0833 
G01 X-5.5266 Y46.1544 
G01 X-5.6811 Y46.2576 
G01 X-5.8124 Y46.3889 
G01 X-5.9156 Y46.5434 
G01 X-5.9867 Y46.7150 
G01 X-6.0229 Y46.8971 
G00 Z2.5400 
G00 X-9.3694 Y29.7573 
G01 Z-0.1000 F254.00 
G01 X-9.3694 Y29.9327 F200.00 
G01 X-9.3420 Y30.1060 
G01 X-9.2878 Y30.2728 
G01 X-9.2081 Y30.4291 
G01 X-9.1050 Y30.5710 
G01 X-8.9810 Y30.6950 
G01 X-8.8391 Y30.7981 
G01 X-8.6828 Y30.8778 
G01 X-8.5160 Y30.9320 
G01 X-8.3427 Y30.9594 
G01 X-8.1673 Y30.9594 
G01 X-7.9940 Y30.9320 
G01 X-7.8272 Y30.8778 
G01 X-7.6709 Y30.7981 
G01 X-7.5290 Y30.6950 
G01 X-7.4050 Y30.5710 
G01 X-7.3019 Y30.4291 
G01 X-7.2222 Y30.2728 
G01 X-7.1680 Y30.1060 
G01 X-7.1406 Y29.9327 
G01 X-7.1406 Y29.7573 
G01 X-7.1680 Y29.5840 
G01 X-7.2222 Y29.4172 
G01 X-7.3019 Y29.2609 
G01 X-7.4050 Y29.1190 
G01 X-7.5290 Y28.9950 
G01 X-7.6709 Y28.8919 
G01 X-7.8272 Y28.8122 
G01 X-7.9940 Y28.7580 
G01 X-8.1673 Y28.7306 
G01 X-8.3427 Y28.7306 
G01 X-8.5160 Y28.7580 
G01 X-8.6828 Y28.8122 
G01 X-8.8391 Y28.8919 
G01 X-8.9810 Y28.9950 
G01 X-9.1050 Y29.1190 
G01 X-9.2081 Y29.2609 
G01 X-9.2878 Y29.4172 
G01 X-9.3420 Y29.5840 
G01 X-9.3694 Y29.7573 
G00 Z2.5400 
G00 X-11.9094 Y28.9815 
G01 Z-0.1000 F254.00 
G01 X-11.9094 Y30.7085 F200.00 
G01 X-11.8897 Y30.7820 
G01 X-11.8517 Y30.8479 
G01 X-11.7979 Y30.9017 
G01 X-11.7320 Y30.9397 
G01 X-11.6585 Y30.9594 
G01 X-9.9315 Y30.9594 
G01 X-9.8580 Y30.9397 
G01 X-9.7921 Y30.9017 
G01 X-9.7383 Y30.8479 
G01 X-9.7003 Y30.7820 
G01 X-9.6806 Y30.7085 
G01 X-9.6806 Y28.9815 
G01 X-9.7003 Y28.9080 
G01 X-9.7383 Y28.8421 
G01 X-9.7921 Y28.7883 
G01 X-9.8580 Y28.7503 
G01 X-9.9315 Y28.7306 
G01 X-11.6585 Y28.7306 
G01 X-11.7320 Y28.7503 
G01 X-11.7979 Y28.7883 
G01 X-11.8517 Y28.8421 
G01 X-11.8897 Y28.9080 
G01 X-11.9094 Y28.9815 
G00 Z2.5400 
G00 X-15.1239 Y9.2570 
G01 Z-0.1000 F254.00 
G01 X-15.1239 Y12.3330 F200.00 
G01 X-15.1042 Y12.4065 
G01 X-15.0662 Y12.4724 
G01 X-15.0124 Y12.5262 
G01 X-14.9465 Y12.5642 
G01 X-14.8730 Y12.5839 
G01 X-11.7970 Y12.5839 
G01 X-11.7235 Y12.5642 
G01 X-11.6576 Y12.5262 
G01 X-11.6038 Y12.4724 
G01 X-11.5658 Y12.4065 
G01 X-11.5461 Y12.3330 
G01 X-11.5461 Y9.2570 
G01 X-11.5658 Y9.1835 
G01 X-11.6038 Y9.1176 
G01 X-11.6576 Y9.0638 
G01 X-11.7235 Y9.0258 
G01 X-11.7970 Y9.0061 
G01 X-14.8730 Y9.0061 
G01 X-14.9465 Y9.0258 
G01 X-15.0124 Y9.0638 
G01 X-15.0662 Y9.1176 
G01 X-15.1042 Y9.1835 
G01 X-15.1239 Y9.2570 
G00 Z2.5400 
G00 X-25.2839 Y9.2570 
G01 Z-0.1000 F254.00 
G01 X-25.2839 Y12.3330 F200.00 
G01 X-25.2642 Y12.4065 
G01 X-25.2262 Y12.4724 
G01 X-25.1724 Y12.5262 
G01 X-25.1065 Y12.5642 
G01 X-25.0330 Y12.5839 
G01 X-21.9570 Y12.5839 
G01 X-21.8835 Y12.5642 
G01 X-21.8176 Y12.5262 
G01 X-21.7638 Y12.4724 
G01 X-21.7258 Y12.4065 
G01 X-21.7061 Y12.3330 
G01 X-21.7061 Y9.2570 
G01 X-21.7258 Y9.1835 
G01 X-21.7638 Y9.1176 
G01 X-21.8176 Y9.0638 
G01 X-21.8835 Y9.0258 
G01 X-21.9570 Y9.0061 
G01 X-25.0330 Y9.0061 
G01 X-25.1065 Y9.0258 
G01 X-25.1724 Y9.0638 
G01 X-25.2262 Y9.1176 
G01 X-25.2642 Y9.1835 
G01 X-25.2839 Y9.2570 
G00 Z2.5400 
G00 X-4.3639 Y1.8114 
G01 Z-0.1000 F254.00 
G01 X-4.3639 Y1.9986 F200.00 
G01 X-4.3346 Y2.1834 
G01 X-4.2768 Y2.3614 
G01 X-4.1918 Y2.5281 
G01 X-4.0818 Y2.6795 
G01 X-3.9495 Y2.8118 
G01 X-3.7981 Y2.9218 
G01 X-3.6314 Y3.0068 
G01 X-3.4534 Y3.0646 
G01 X-3.2686 Y3.0939 
G01 X-3.0814 Y3.0939 
G01 X-2.8966 Y3.0646 
G01 X-2.7186 Y3.0068 
G01 X-2.5519 Y2.9218 
G01 X-2.4005 Y2.8118 
G01 X-2.2682 Y2.6795 
G01 X-2.1582 Y2.5281 
G01 X-2.0732 Y2.3614 
G01 X-2.0154 Y2.1834 
G01 X-1.9861 Y1.9986 
G01 X-1.9861 Y1.8114 
G01 X-2.0154 Y1.6266 
G01 X-2.0732 Y1.4486 
G01 X-2.1582 Y1.2819 
G01 X-2.2682 Y1.1305 
G01 X-2.4005 Y0.9982 
G01 X-2.5519 Y0.8882 
G01 X-2.7186 Y0.8032 
G01 X-2.8966 Y0.7454 
G01 X-3.0814 Y0.7161 
G01 X-3.2686 Y0.7161 
G01 X-3.4534 Y0.7454 
G01 X-3.6314 Y0.8032 
G01 X-3.7981 Y0.8882 
G01 X-3.9495 Y0.9982 
G01 X-4.0818 Y1.1305 
G01 X-4.1918 Y1.2819 
G01 X-4.2768 Y1.4486 
G01 X-4.3346 Y1.6266 
G01 X-4.3639 Y1.8114 
G00 Z2.5400 
G00 X-31.0339 Y1.8114 
G01 Z-0.1000 F254.00 
G01 X-31.0339 Y1.9986 F200.00 
G01 X-31.0046 Y2.1834 
G01 X-30.9468 Y2.3614 
G01 X-30.8618 Y2.5281 
G01 X-30.7518 Y2.6795 
G01 X-30.6195 Y2.8118 
G01 X-30.4681 Y2.9218 
G01 X-30.3014 Y3.0068 
G01 X-30.1234 Y3.0646 
G01 X-29.9386 Y3.0939 
G01 X-29.7514 Y3.0939 
G01 X-29.5666 Y3.0646 
G01 X-29.3886 Y3.0068 
G01 X-29.2219 Y2.9218 
G01 X-29.0705 Y2.8118 
G01 X-28.9382 Y2.6795 
G01 X-28.8282 Y2.5281 
G01 X-28.7432 Y2.3614 
G01 X-28.6854 Y2.1834 
G01 X-28.6561 Y1.9986 
G01 X-28.6561 Y1.8114 
G01 X-28.6854 Y1.6266 
G01 X-28.7432 Y1.4486 
G01 X-28.8282 Y1.2819 
G01 X-28.9382 Y1.1305 
G01 X-29.0705 Y0.9982 
G01 X-29.2219 Y0.8882 
G01 X-29.3886 Y0.8032 
G01 X-29.5666 Y0.7454 
G01 X-29.7514 Y0.7161 
G01 X-29.9386 Y0.7161 
G01 X-30.1234 Y0.7454 
G01 X-30.3014 Y0.8032 
G01 X-30.4681 Y0.8882 
G01 X-30.6195 Y0.9982 
G01 X-30.7518 Y1.1305 
G01 X-30.8618 Y1.2819 
G01 X-30.9468 Y1.4486 
G01 X-31.0046 Y1.6266 
G01 X-31.0339 Y1.8114 
G00 Z2.5400 
G00 X-4.3639 Y71.6614 
G01 Z-0.1000 F254.00 
G01 X-4.3639 Y71.8486 F200.00 
G01 X-4.3346 Y72.0334 
G01 X-4.2768 Y72.2114 
G01 X-4.1918 Y72.3781 
G01 X-4.0818 Y72.5295 
G01 X-3.9495 Y72.6618 
G01 X-3.7981 Y72.7718 
G01 X-3.6314 Y72.8568 
G01 X-3.4534 Y72.9146 
G01 X-3.2686 Y72.9439 
G01 X-3.0814 Y72.9439 
G01 X-2.8966 Y72.9146 
G01 X-2.7186 Y72.8568 
G01 X-2.5519 Y72.7718 
G01 X-2.4005 Y72.6618 
G01 X-2.2682 Y72.5295 
G01 X-2.1582 Y72.3781 
G01 X-2.0732 Y72.2114 
G01 X-2.0154 Y72.0334 
G01 X-1.9861 Y71.8486 
G01 X-1.9861 Y71.6614 
G01 X-2.0154 Y71.4766 
G01 X-2.0732 Y71.2986 
G01 X-2.1582 Y71.1319 
G01 X-2.2682 Y70.9805 
G01 X-2.4005 Y70.8482 
G01 X-2.5519 Y70.7382 
G01 X-2.7186 Y70.6532 
G01 X-2.8966 Y70.5954 
G01 X-3.0814 Y70.5661 
G01 X-3.2686 Y70.5661 
G01 X-3.4534 Y70.5954 
G01 X-3.6314 Y70.6532 
G01 X-3.7981 Y70.7382 
G01 X-3.9495 Y70.8482 
G01 X-4.0818 Y70.9805 
G01 X-4.1918 Y71.1319 
G01 X-4.2768 Y71.2986 
G01 X-4.3346 Y71.4766 
G01 X-4.3639 Y71.6614 
G00 Z2.5400 
G00 X-31.0339 Y71.6614 
G01 Z-0.1000 F254.00 
G01 X-31.0339 Y71.8486 F200.00 
G01 X-31.0046 Y72.0334 
G01 X-30.9468 Y72.2114 
G01 X-30.8618 Y72.3781 
G01 X-30.7518 Y72.5295 
G01 X-30.6195 Y72.6618 
G01 X-30.4681 Y72.7718 
G01 X-30.3014 Y72.8568 
G01 X-30.1234 Y72.9146 
G01 X-29.9386 Y72.9439 
G01 X-29.7514 Y72.9439 
G01 X-29.5666 Y72.9146 
G01 X-29.3886 Y72.8568 
G01 X-29.2219 Y72.7718 
G01 X-29.0705 Y72.6618 
G01 X-28.9382 Y72.5295 
G01 X-28.8282 Y72.3781 
G01 X-28.7432 Y72.2114 
G01 X-28.6854 Y72.0334 
G01 X-28.6561 Y71.8486 
G01 X-28.6561 Y71.6614 
G01 X-28.6854 Y71.4766 
G01 X-28.7432 Y71.2986 
G01 X-28.8282 Y71.1319 
G01 X-28.9382 Y70.9805 
G01 X-29.0705 Y70.8482 
G01 X-29.2219 Y70.7382 
G01 X-29.3886 Y70.6532 
G01 X-29.5666 Y70.5954 
G01 X-29.7514 Y70.5661 
G01 X-29.9386 Y70.5661 
G01 X-30.1234 Y70.5954 
G01 X-30.3014 Y70.6532 
G01 X-30.4681 Y70.7382 
G01 X-30.6195 Y70.8482 
G01 X-30.7518 Y70.9805 
G01 X-30.8618 Y71.1319 
G01 X-30.9468 Y71.2986 
G01 X-31.0046 Y71.4766 
G01 X-31.0339 Y71.6614 
G00 Z2.5400 
G00 Z2.540000
G00 X-23.4950 Y14.6050 
G01 Z-0.1000 F254.00 
G01 Z2.540000
(R2.5400  P1.000000)
(G00 Z2.540000)
G00 X-12.7000 Y14.6050 
G01 Z-0.100000
G01 Z2.540000
(G00 Z2.540000)
G00 X-16.5100 Y54.6100 
G01 Z-0.100000
G01 Z2.540000
(G00 Z2.540000)
G00 X-23.4950 Y53.9750 
G01 Z-0.100000
G01 Z2.540000
(G00 Z2.540000)
G00 X-3.1750 Y1.9050 
G01 Z-0.100000
G01 Z2.540000
(G00 Z2.540000)
G00 X-13.3350 Y10.7950 
G01 Z-0.100000
G01 Z2.540000
(G00 Z2.540000)
G00 X-23.4950 Y10.7950 
G01 Z-0.100000
G01 Z2.540000
(G00 Z2.540000)
G00 X-29.8450 Y1.9050 
G01 Z-0.100000
G01 Z2.540000
(G00 Z2.540000)
G00 X-3.1750 Y71.7550 
G01 Z-0.100000
G01 Z2.540000
(G00 Z2.540000)
G00 X-29.8450 Y71.7550 
G01 Z-0.100000
G01 Z2.540000
(G00 Z2.540000)
G00 X-10.7950 Y29.8450 
G01 Z-0.100000
G01 Z2.540000
(G00 Z2.540000)
G00 X-8.2550 Y29.8450 
G01 Z-0.100000
G01 Z2.540000
(G00 Z2.540000)
G00 X-5.0800 Y46.9900 
G01 Z-0.100000
G01 Z2.540000
(G00 Z2.540000)
G00 X-5.0800 Y44.4500 
G01 Z-0.100000
G01 Z2.540000
(G00 Z2.540000)
G00 X-5.0800 Y41.9100 
G01 Z-0.100000
G01 Z2.540000
(G00 Z2.540000)
G00 X-5.0800 Y39.3700 
G01 Z-0.100000
G01 Z2.540000
(G00 Z2.540000)
G00 X-11.4300 Y23.4950 
G01 Z-0.100000
G01 Z2.540000
(G00 Z2.540000)
G00 X-8.8900 Y23.4950 
G01 Z-0.100000
G01 Z2.540000
(G00 Z2.540000)
G00 X-26.0350 Y33.6550 
G01 Z-0.100000
G01 Z2.540000
(G00 Z2.540000)
G00 X-28.5750 Y33.6550 
G01 Z-0.100000
G01 Z2.540000
(G00 Z2.540000)
G00 X-28.5750 Y41.2750 
G01 Z-0.100000
G01 Z2.540000
(G00 Z2.540000)
G00 X-26.0350 Y41.2750 
G01 Z-0.100000
G01 Z2.540000
(G00 Z2.540000)
G00 X-12.7000 Y57.1500 
G01 Z-0.100000
G01 Z2.540000
(G00 Z2.540000)
G00 X-10.1600 Y57.1500 
G01 Z-0.100000
G01 Z2.540000
(G00 Z2.540000)
G00 X-10.1600 Y49.5300 
G01 Z-0.100000
G01 Z2.540000
(G00 Z2.540000)
G00 X-12.7000 Y49.5300 
G01 Z-0.100000
G01 Z2.540000
(G00 Z2.540000)
G00 X-19.0500 Y38.7350 
G01 Z-0.100000
G01 Z2.540000
(G00 Z2.540000)
G00 X-21.5900 Y38.7350 
G01 Z-0.100000
G01 Z2.540000
(G00 Z2.540000)
G00 X-21.5900 Y46.3550 
G01 Z-0.100000
G01 Z2.540000
(G00 Z2.540000)
G00 X-19.0500 Y46.3550 
G01 Z-0.100000
G01 Z2.540000
(G00 Z2.540000)
G00 X-17.7800 Y67.9450 
G01 Z-0.100000
G01 Z2.540000
(G00 Z2.540000)
G00 X-20.3200 Y67.9450 
G01 Z-0.100000
G01 Z2.540000
(G00 Z2.540000)
G00 X-22.8600 Y67.9450 
G01 Z-0.100000
G01 Z2.540000
(G00 Z2.540000)
G00 X-25.4000 Y67.9450 
G01 Z-0.100000
G01 Z2.540000
(G00 Z2.540000)
G00 X-27.9400 Y67.9450 
G01 Z-0.100000
G01 Z2.540000
(G00 Z2.540000)
G00 X-8.8900 Y67.9450 
G01 Z-0.100000
G01 Z2.540000
(G00 Z2.540000)
G00 X-6.3500 Y67.9450 
G01 Z-0.100000
G01 Z2.540000
(G00 Z2.540000)
G00 X-3.8100 Y67.9450 
G01 Z-0.100000
G01 Z2.540000
(G00 Z2.540000)
G00 X-14.6050 Y41.9100 
G01 Z-0.100000
G01 Z2.540000
(G00 Z2.540000)
G00 X-13.3350 Y43.8150 
G01 Z-0.100000
G01 Z2.540000
(G00 Z2.540000)
G00 X-12.0650 Y41.9100 
G01 Z-0.100000
G01 Z2.540000
(G00 Z2.540000)
G00 X-20.3200 Y53.3400 
G01 Z-0.100000
G01 Z2.540000
(G00 Z2.540000)
G00 X-18.4150 Y52.0700 
G01 Z-0.100000
G01 Z2.540000
(G00 Z2.540000)
G00 X-20.3200 Y50.8000 
G01 Z-0.100000
G01 Z2.540000
(G00 Z2.540000)
G00 X-27.9400 Y53.3400 
G01 Z-0.100000
G01 Z2.540000
(G00 Z2.540000)
G00 X-26.0350 Y52.0700 
G01 Z-0.100000
G01 Z2.540000
(G00 Z2.540000)
G00 X-27.9400 Y50.8000 
G01 Z-0.100000
G01 Z2.540000
(G00 Z2.540000)
G00 X-22.2250 Y4.4450 
G01 Z-0.100000
G01 Z2.540000
(G00 Z2.540000)
G00 X-19.6850 Y4.4450 
G01 Z-0.100000
G01 Z2.540000
(G00 Z2.540000)
G00 X-17.1450 Y4.4450 
G01 Z-0.100000
G01 Z2.540000
(G00 Z2.540000)
G00 X-14.6050 Y4.4450 
G01 Z-0.100000
G01 Z2.540000
G00 Z12.7000 
M05
M02
