(.../romang/EAGLE/ulps/pcb-gcode.ulp)
(Copyright 2005 - 2012 by John Johnson)
(See readme.txt for licensing terms.)
(This file generated from the board:)
(.../HLS8012/hlw8012_test_board.brd)
(Current profile is .../EAGLE/ulps/profiles/generic.pp  )
(This file generated 03.10.19 07:33)
(Settings from pcb-machine.h)
(  Tool Size)
(0.1700 )
(Z Axis Settings)
(  High     Up        Down     Drill)
(12.7000 	2.5400 	-0.1000 	-2.0000 )
(spindle on time = 3.0000)
(milling depth = -2.0000)
(text depth = -0.1270)
(tool change at 12.7000 15.2400 25.4000 )
(feed rate xy = F200.00 )
(feed rate z  = F254.00 )
(Settings from pcb-defaults.h)
(isolate min = 0.0000)
(isolate max = 1.0000)
(isolate step = 0.2000)
(Generated top outlines, top drill, )
(Unit of measure: mm)
( Tool|       Size       |  Min Sub |  Max Sub |   Count )
( T01  0.350mm 0.0138in 0.0000in 0.0000in )
( T02  0.800mm 0.0315in 0.0000in 0.0000in )
( T03  0.813mm 0.0320in 0.0000in 0.0000in )
( T04  1.016mm 0.0400in 0.0000in 0.0000in )
( T05  1.321mm 0.0520in 0.0000in 0.0000in )
(Metric Mode)
G21
(Absolute Coordinates)
G90
G00 Z2.5400 
M03
G04 P3.000000
G00 Z2.540000
G00 X36.0680 Y6.7310 
G01 Z-2.0000 F254.00 
G01 Z2.540000
(R2.5400  P1.000000)
(G00 Z2.540000)
G00 X39.7510 Y14.3510 
G01 Z-2.000000
G01 Z2.540000
(G00 Z2.540000)
G00 X21.4630 Y11.4300 
G01 Z-2.000000
G01 Z2.540000
(G00 Z2.540000)
G00 X21.4630 Y20.3200 
G01 Z-2.000000
G01 Z2.540000
G00 Z2.540000
G00 X3.3580 Y3.7620 
G01 Z-2.0000 F254.00 
G01 Z2.540000
(R2.5400  P1.000000)
(G00 Z2.540000)
G00 X3.3580 Y28.7620 
G01 Z-2.000000
G01 Z2.540000
(G00 Z2.540000)
G00 X67.3580 Y3.7620 
G01 Z-2.000000
G01 Z2.540000
(G00 Z2.540000)
G00 X67.3580 Y28.7620 
G01 Z-2.000000
G01 Z2.540000
(G00 Z2.540000)
G00 X13.8430 Y8.7630 
G01 Z-2.000000
G01 Z2.540000
(G00 Z2.540000)
G00 X16.3830 Y8.7630 
G01 Z-2.000000
G01 Z2.540000
(G00 Z2.540000)
G00 X18.9230 Y8.7630 
G01 Z-2.000000
G01 Z2.540000
(G00 Z2.540000)
G00 X21.4630 Y8.7630 
G01 Z-2.000000
G01 Z2.540000
G00 Z2.540000
G00 X32.8930 Y13.9700 
G01 Z-2.0000 F254.00 
G01 Z2.540000
(R2.5400  P1.000000)
(G00 Z2.540000)
G00 X15.1130 Y23.6220 
G01 Z-2.000000
G01 Z2.540000
(G00 Z2.540000)
G00 X15.1130 Y26.1620 
G01 Z-2.000000
G01 Z2.540000
(G00 Z2.540000)
G00 X15.2400 Y14.2240 
G01 Z-2.000000
G01 Z2.540000
(G00 Z2.540000)
G00 X15.2400 Y16.7640 
G01 Z-2.000000
G01 Z2.540000
(G00 Z2.540000)
G00 X22.7330 Y23.6220 
G01 Z-2.000000
G01 Z2.540000
(G00 Z2.540000)
G00 X22.7330 Y26.1620 
G01 Z-2.000000
G01 Z2.540000
(G00 Z2.540000)
G00 X22.8600 Y14.2240 
G01 Z-2.000000
G01 Z2.540000
(G00 Z2.540000)
G00 X22.8600 Y16.7640 
G01 Z-2.000000
G01 Z2.540000
(G00 Z2.540000)
G00 X30.3530 Y13.9700 
G01 Z-2.000000
G01 Z2.540000
M05
G00 Z23.4000
G00 X0.000 Y0.000
G04 P60.000000
M03
G04 P3.000000
G00 Z2.540000
G00 X8.2550 Y15.8750 
G01 Z-2.0000 F254.00 
G01 Z2.540000
(R2.5400  P1.000000)
(G00 Z2.540000)
G00 X8.2550 Y18.4150 
G01 Z-2.000000
G01 Z2.540000
(G00 Z2.540000)
G00 X8.2550 Y20.9550 
G01 Z-2.000000
G01 Z2.540000
(G00 Z2.540000)
G00 X8.2550 Y23.4950 
G01 Z-2.000000
G01 Z2.540000
(G00 Z2.540000)
G00 X8.2550 Y26.0350 
G01 Z-2.000000
G01 Z2.540000
(G00 Z2.540000)
G00 X8.3820 Y6.3500 
G01 Z-2.000000
G01 Z2.540000
(G00 Z2.540000)
G00 X8.3820 Y8.8900 
G01 Z-2.000000
G01 Z2.540000
(G00 Z2.540000)
G00 X8.3820 Y11.4300 
G01 Z-2.000000
G01 Z2.540000
G00 Z2.540000
G00 X58.0390 Y7.3660 
G01 Z-2.0000 F254.00 
G01 Z2.540000
(R2.5400  P1.000000)
(G00 Z2.540000)
G00 X58.0390 Y12.3444 
G01 Z-2.000000
G01 Z2.540000
(G00 Z2.540000)
G00 X58.0390 Y17.3736 
G01 Z-2.000000
G01 Z2.540000
(G00 Z2.540000)
G00 X58.0390 Y22.3520 
G01 Z-2.000000
G01 Z2.540000
T01 
G00 Z12.7000 
M05
M02
